%
(HAfinsOp2)
(T1 D=3.175 CR=0 - ZMIN=-3.27 - flat end mill)
G90
G17
G21
G28 G91 Z0
G90

(Adaptive1 2)
T1 M6
S24000 M3
G17 G90
G54
G0 X99.408 Y50.213
Z15.24
G0 Z5.08
Z2.54
G3 X101.182 Y52.116 Z2.433 I0.246 J1.549 F508
X98.754 Y53.043 Z2.326 I-1.526 J-0.354
X98.808 Y50.448 Z2.219 I0.9 J-1.279
X101.188 Y51.473 Z2.111 I0.845 J1.314
X99.346 Y53.291 Z2.004 I-1.533 J0.289
X98.356 Y50.903 Z1.897 I0.309 J-1.527
X100.937 Y50.884 Z1.79 I1.297 J0.86
X99.985 Y53.279 Z1.683 I-1.282 J0.877
X98.126 Y51.499 Z1.576 I-0.33 J-1.516
X100.472 Y50.447 Z1.469 I1.527 J0.264
X100.564 Y53.013 Z1.362 I-0.818 J1.314
X98.156 Y52.135 Z1.254 I-0.908 J-1.25
X99.873 Y50.235 Z1.147 I1.498 J-0.372
X100.985 Y52.538 Z1.04 I-0.219 J1.526
X98.438 Y52.702 Z0.933 I-1.329 J-0.776
X99.242 Y50.284 Z0.826 I1.216 J-0.938
X101.178 Y51.936 Z0.719 I0.412 J1.478
X98.921 Y53.108 Z0.612 I-1.523 J-0.174
X98.685 Y50.579 Z0.505 I0.734 J-1.344
X101.113 Y51.31 Z0.397 I0.968 J1.183
X99.525 Y53.283 Z0.29 I-1.458 J0.452
X98.295 Y51.071 Z0.183 I0.13 J-1.52
X100.805 Y50.765 Z0.076 I1.358 J0.692
X100.146 Y53.201 Z-0.031 I-1.15 J0.996
X98.138 Y51.677 Z-0.138 I-0.491 J-1.438
X100.303 Y50.392 Z-0.245 I1.515 J0.086
X100.678 Y52.877 Z-0.352 I-0.649 J1.369
X98.239 Y52.291 Z-0.46 I-1.022 J-1.114
X99.697 Y50.253 Z-0.567 I1.415 J-0.528
X101.036 Y52.369 Z-0.674 I-0.043 J1.509
X98.575 Y52.813 Z-0.781 I-1.38 J-0.607
X99.088 Y50.369 Z-0.888 I1.079 J-1.049
X101.158 Y51.762 Z-0.995 I0.566 J1.393
X98.15 I-1.504 J0
X101.158 I1.504 J0
G1 X101.179 Y52.409 F1905
X101.207 Y52.485
X101.241 Y52.633
X101.243 Y52.786
X101.22 Y52.936
X101.175 Y53.082
X101.112 Y53.221
X101.033 Y53.351
X100.941 Y53.472
X100.837 Y53.583
X100.722 Y53.684
X100.599 Y53.774
X100.469 Y53.853
X100.332 Y53.92
X100.189 Y53.977
X100.037 Y54.023
X99.879 Y54.058
X99.716 Y54.081
X99.548 Y54.09
X99.377 Y54.086
X99.205 Y54.068
X99.032 Y54.035
X98.86 Y53.989
X98.691 Y53.928
X98.526 Y53.853
X98.367 Y53.764
X98.213 Y53.663
X98.068 Y53.548
X97.931 Y53.421
X97.804 Y53.283
X97.688 Y53.135
X97.585 Y52.977
X97.493 Y52.811
X97.416 Y52.638
X97.352 Y52.458
X97.303 Y52.274
X97.268 Y52.086
X97.249 Y51.895
X97.245 Y51.703
X97.257 Y51.511
X97.284 Y51.321
X97.326 Y51.133
X97.383 Y50.949
X97.455 Y50.769
X97.541 Y50.597
X97.641 Y50.431
X97.754 Y50.274
X97.879 Y50.127
X98.015 Y49.99
X98.162 Y49.864
X98.319 Y49.75
X98.485 Y49.65
X98.658 Y49.563
X98.837 Y49.49
X99.022 Y49.432
X99.211 Y49.388
X99.403 Y49.36
X99.596 Y49.348
X99.79 Y49.351
X99.983 Y49.37
X100.174 Y49.404
X100.361 Y49.453
X100.544 Y49.517
X100.721 Y49.596
X100.892 Y49.689
X101.054 Y49.795
X101.208 Y49.913
X101.351 Y50.044
X101.483 Y50.186
X101.604 Y50.338
X101.712 Y50.499
X101.818 Y50.689
X101.979 Y51.04
X102.111 Y51.401
X102.189 Y51.684
X102.238 Y51.941
X102.264 Y52.182
X102.271 Y52.409
X102.259 Y52.626
X102.232 Y52.834
X102.188 Y53.038
X102.127 Y53.237
X102.051 Y53.432
X101.96 Y53.619
X101.853 Y53.799
X101.732 Y53.971
X101.596 Y54.135
X101.445 Y54.288
X101.281 Y54.431
X101.103 Y54.562
X100.912 Y54.68
X100.71 Y54.784
X100.497 Y54.873
X100.274 Y54.945
X100.043 Y55
X99.805 Y55.037
X99.562 Y55.054
X99.316 Y55.052
X99.068 Y55.03
X98.821 Y54.988
X98.575 Y54.926
X98.334 Y54.843
X98.098 Y54.741
X97.87 Y54.619
X97.651 Y54.479
X97.442 Y54.32
X97.246 Y54.144
X97.064 Y53.952
X96.897 Y53.746
X96.747 Y53.525
X96.614 Y53.293
X96.5 Y53.049
X96.405 Y52.797
X96.331 Y52.537
X96.278 Y52.272
X96.247 Y52.002
X96.237 Y51.731
X96.249 Y51.459
X96.283 Y51.188
X96.338 Y50.921
X96.415 Y50.659
X96.513 Y50.404
X96.631 Y50.157
X96.768 Y49.92
X96.924 Y49.694
X97.098 Y49.482
X97.288 Y49.285
X97.494 Y49.103
X97.714 Y48.938
X97.946 Y48.792
X98.19 Y48.664
X98.443 Y48.557
X98.703 Y48.47
X98.97 Y48.404
X99.242 Y48.36
X99.516 Y48.338
X99.791
X100.065 Y48.36
X100.337 Y48.404
X100.604 Y48.469
X100.865 Y48.556
X101.118 Y48.664
X101.362 Y48.791
X101.595 Y48.938
X101.816 Y49.103
X102.026 Y49.288
X102.246 Y49.516
X102.46 Y49.777
X102.659 Y50.064
X102.839 Y50.372
X102.991 Y50.691
X103.115 Y51.014
X103.21 Y51.337
X103.276 Y51.656
X103.316 Y51.972
X103.33 Y52.285
X103.319 Y52.594
X103.284 Y52.898
X103.225 Y53.196
X103.142 Y53.486
X103.037 Y53.767
X102.91 Y54.039
X102.762 Y54.3
X102.592 Y54.548
X102.403 Y54.784
X102.194 Y55.004
X101.966 Y55.208
X101.721 Y55.395
X101.459 Y55.563
X101.183 Y55.711
X100.893 Y55.837
X100.591 Y55.94
X100.279 Y56.02
X99.96 Y56.075
X99.634 Y56.104
X99.305 Y56.107
X98.974 Y56.083
X98.644 Y56.032
X98.316 Y55.955
X97.994 Y55.851
X97.68 Y55.72
X97.375 Y55.564
X97.083 Y55.383
X96.804 Y55.178
X96.542 Y54.951
X96.297 Y54.702
X96.073 Y54.433
X95.87 Y54.146
X95.69 Y53.843
X95.535 Y53.525
X95.405 Y53.195
X95.302 Y52.854
X95.227 Y52.506
X95.179 Y52.152
X95.161 Y51.795
X95.17 Y51.437
X95.209 Y51.081
X95.276 Y50.728
X95.371 Y50.382
X95.494 Y50.044
X95.644 Y49.717
X95.82 Y49.402
X96.02 Y49.103
X96.244 Y48.82
X96.49 Y48.556
X96.757 Y48.313
X97.042 Y48.091
X97.345 Y47.894
X97.662 Y47.721
X97.992 Y47.574
X98.333 Y47.454
X98.683 Y47.362
X99.039 Y47.298
X99.399 Y47.263
X99.76 Y47.257
X100.121 Y47.28
X100.479 Y47.332
X100.832 Y47.412
X101.177 Y47.52
X101.513 Y47.656
X101.837 Y47.819
X102.156 Y48.013
X102.468 Y48.239
X102.771 Y48.497
X103.06 Y48.787
X103.33 Y49.105
X103.577 Y49.447
X103.795 Y49.809
X103.983 Y50.186
X104.139 Y50.573
X104.262 Y50.968
X104.352 Y51.369
X104.41 Y51.771
X104.434 Y52.173
X104.427 Y52.573
X104.387 Y52.968
X104.316 Y53.357
X104.215 Y53.737
X104.084 Y54.107
X103.924 Y54.464
X103.736 Y54.808
X103.52 Y55.136
X103.279 Y55.446
X103.012 Y55.737
X102.721 Y56.006
X102.409 Y56.253
X102.075 Y56.475
X101.723 Y56.67
X101.354 Y56.838
X100.971 Y56.977
X100.575 Y57.084
X100.169 Y57.161
X99.756 Y57.204
X99.339 Y57.215
X98.92 Y57.192
X98.501 Y57.135
X98.086 Y57.044
X97.678 Y56.919
X97.279 Y56.761
X96.893 Y56.571
X96.521 Y56.35
X96.167 Y56.098
X95.833 Y55.818
X95.521 Y55.51
X95.234 Y55.178
X94.974 Y54.823
X94.743 Y54.446
X94.542 Y54.052
X94.373 Y53.641
X94.237 Y53.218
X94.135 Y52.784
X94.069 Y52.343
X94.038 Y51.897
X94.043 Y51.449
X94.084 Y51.002
X94.16 Y50.56
X94.272 Y50.125
X94.419 Y49.7
X94.6 Y49.288
X94.813 Y48.891
X95.057 Y48.512
X95.331 Y48.154
X95.634 Y47.82
X95.962 Y47.51
X96.314 Y47.227
X96.688 Y46.974
X97.081 Y46.751
X97.491 Y46.561
X97.914 Y46.404
X98.349 Y46.282
X98.793 Y46.194
X99.242 Y46.143
X99.694 Y46.128
X100.146 Y46.149
X100.595 Y46.207
X101.038 Y46.3
X101.473 Y46.429
X101.901 Y46.594
X102.319 Y46.795
X102.724 Y47.033
X103.117 Y47.307
X103.494 Y47.617
X103.85 Y47.963
X104.181 Y48.34
X104.482 Y48.745
X104.751 Y49.175
X104.985 Y49.624
X105.181 Y50.09
X105.339 Y50.567
X105.457 Y51.054
X105.535 Y51.545
X105.574 Y52.039
X105.572 Y52.531
X105.531 Y53.019
X105.452 Y53.501
X105.335 Y53.973
X105.18 Y54.433
X104.989 Y54.879
X104.763 Y55.308
X104.503 Y55.718
X104.211 Y56.106
X103.887 Y56.471
X103.535 Y56.809
X103.155 Y57.119
X102.749 Y57.399
X102.321 Y57.646
X101.872 Y57.859
X101.405 Y58.036
X100.923 Y58.176
X100.429 Y58.278
X99.926 Y58.339
X99.418 Y58.36
X98.907 Y58.34
X98.396 Y58.279
X97.891 Y58.177
X97.393 Y58.034
X96.906 Y57.851
X96.433 Y57.628
X95.978 Y57.367
X95.545 Y57.069
X95.135 Y56.737
X94.752 Y56.371
X94.398 Y55.975
X94.077 Y55.551
X93.79 Y55.101
X93.539 Y54.629
X93.327 Y54.136
X93.155 Y53.628
X93.024 Y53.106
X92.934 Y52.575
X92.888 Y52.038
X92.885 Y51.498
X92.926 Y50.959
X93.009 Y50.424
X93.136 Y49.897
X93.304 Y49.382
X93.514 Y48.881
X93.763 Y48.399
X94.05 Y47.938
X94.373 Y47.501
X94.731 Y47.091
X95.12 Y46.711
X95.539 Y46.364
X95.985 Y46.051
X96.454 Y45.775
X96.944 Y45.538
X97.451 Y45.34
X97.973 Y45.184
X98.506 Y45.07
X99.047 Y44.999
X99.591 Y44.972
X100.136 Y44.989
X100.678 Y45.049
X101.216 Y45.154
X101.746 Y45.301
X102.266 Y45.492
X102.775 Y45.727
X103.268 Y46.005
X103.744 Y46.326
X104.198 Y46.688
X104.626 Y47.089
X105.023 Y47.526
X105.385 Y47.997
X105.71 Y48.496
X105.993 Y49.021
X106.233 Y49.565
X106.429 Y50.127
X106.578 Y50.7
X106.681 Y51.282
X106.736 Y51.868
X106.744 Y52.454
X106.705 Y53.037
X106.62 Y53.614
X106.488 Y54.18
X106.313 Y54.734
X106.093 Y55.271
X105.831 Y55.788
X105.529 Y56.283
X105.187 Y56.753
X104.808 Y57.194
X104.394 Y57.605
X103.946 Y57.982
X103.469 Y58.323
X102.964 Y58.626
X102.434 Y58.888
X101.883 Y59.108
X101.314 Y59.283
X100.731 Y59.413
X100.136 Y59.496
X99.535 Y59.531
X98.93 Y59.517
X98.325 Y59.455
X97.726 Y59.344
X97.135 Y59.185
X96.557 Y58.978
X95.996 Y58.724
X95.455 Y58.425
X94.938 Y58.083
X94.449 Y57.7
X93.991 Y57.277
X93.567 Y56.817
X93.181 Y56.325
X92.835 Y55.801
X92.531 Y55.25
X92.272 Y54.676
X92.059 Y54.082
X91.895 Y53.471
X91.78 Y52.849
X91.716 Y52.218
X91.702 Y51.584
X91.739 Y50.95
X91.827 Y50.32
X91.965 Y49.699
X92.153 Y49.091
X92.389 Y48.499
X92.672 Y47.928
X93 Y47.381
X93.372 Y46.862
X93.784 Y46.374
X94.234 Y45.92
X94.719 Y45.504
X95.236 Y45.128
X95.781 Y44.795
X96.352 Y44.507
X96.944 Y44.265
X97.554 Y44.072
X98.177 Y43.928
X98.81 Y43.834
X99.449 Y43.792
X100.09 Y43.801
X100.729 Y43.862
X101.364 Y43.974
X101.99 Y44.137
X102.602 Y44.35
X103.194 Y44.611
X103.764 Y44.918
X104.308 Y45.268
X104.823 Y45.66
X105.307 Y46.09
X105.755 Y46.556
X106.167 Y47.056
X106.541 Y47.584
X106.873 Y48.14
X107.162 Y48.719
X107.408 Y49.318
X107.608 Y49.933
X107.76 Y50.562
X107.865 Y51.201
X107.922 Y51.845
X107.929 Y52.493
X107.887 Y53.139
X107.795 Y53.779
X107.655 Y54.411
X107.467 Y55.03
X107.232 Y55.634
X106.952 Y56.217
X106.626 Y56.776
X106.259 Y57.309
X105.852 Y57.812
X105.407 Y58.282
X104.927 Y58.716
X104.415 Y59.113
X103.875 Y59.47
X103.31 Y59.784
X102.722 Y60.055
X102.115 Y60.281
X101.494 Y60.461
X100.86 Y60.594
X100.219 Y60.68
X99.573 Y60.718
X98.926 Y60.708
X98.281 Y60.65
X97.642 Y60.545
X97.014 Y60.391
X96.398 Y60.191
X95.799 Y59.947
X95.219 Y59.66
X94.661 Y59.331
X94.129 Y58.963
X93.624 Y58.558
X93.149 Y58.118
X92.707 Y57.645
X92.301 Y57.142
X91.933 Y56.609
X91.604 Y56.051
X91.317 Y55.471
X91.072 Y54.872
X90.87 Y54.258
X90.712 Y53.63
X90.598 Y52.993
X90.53 Y52.349
X90.507 Y51.702
X90.532 Y51.056
X90.604 Y50.412
X90.721 Y49.776
X90.883 Y49.149
X91.088 Y48.536
X91.336 Y47.938
X91.626 Y47.359
X91.954 Y46.801
X92.322 Y46.269
X92.728 Y45.765
X93.169 Y45.291
X93.643 Y44.85
X94.146 Y44.443
X94.676 Y44.072
X95.231 Y43.738
X95.808 Y43.444
X96.404 Y43.192
X97.017 Y42.984
X97.643 Y42.821
X98.279 Y42.702
X98.922 Y42.628
X99.569 Y42.599
X100.216 Y42.615
X100.86 Y42.676
X101.499 Y42.782
X102.128 Y42.933
X102.745 Y43.129
X103.346 Y43.368
X103.93 Y43.647
X104.494 Y43.965
X105.035 Y44.321
X105.551 Y44.711
X106.039 Y45.136
X106.497 Y45.593
X106.922 Y46.081
X107.314 Y46.596
X107.671 Y47.136
X107.992 Y47.698
X108.276 Y48.28
X108.522 Y48.879
X108.728 Y49.492
X108.891 Y50.118
X109.012 Y50.754
X109.089 Y51.397
X109.125 Y52.043
X109.117 Y52.69
X109.067 Y53.336
X108.975 Y53.976
X108.841 Y54.609
X108.663 Y55.232
X108.442 Y55.84
X108.181 Y56.432
X107.881 Y57.006
X107.543 Y57.558
X107.169 Y58.086
X106.761 Y58.588
X106.32 Y59.062
X105.847 Y59.505
X105.346 Y59.913
X104.818 Y60.288
X104.266 Y60.626
X103.693 Y60.928
X103.102 Y61.191
X102.495 Y61.416
X101.875 Y61.601
X101.244 Y61.743
X100.604 Y61.843
X99.96 Y61.901
X99.313 Y61.916
X98.666 Y61.89
X98.022 Y61.822
X97.384 Y61.713
X96.755 Y61.563
X96.136 Y61.372
X95.532 Y61.14
X94.945 Y60.869
X94.375 Y60.56
X93.827 Y60.217
X93.301 Y59.839
X92.8 Y59.43
X92.325 Y58.99
X91.879 Y58.521
X91.464 Y58.024
X91.084 Y57.501
X90.738 Y56.954
X90.427 Y56.386
X90.153 Y55.8
X89.915 Y55.198
X89.715 Y54.582
X89.553 Y53.956
X89.431 Y53.32
X89.351 Y52.678
X89.312 Y52.032
X89.314 Y51.385
X89.357 Y50.739
X89.44 Y50.097
X89.563 Y49.461
X89.724 Y48.835
X89.924 Y48.219
X90.162 Y47.617
X90.439 Y47.032
X90.751 Y46.465
X91.099 Y45.92
X91.481 Y45.397
X91.894 Y44.899
X92.337 Y44.427
X92.809 Y43.984
X93.307 Y43.57
X93.83 Y43.19
X94.377 Y42.843
X94.944 Y42.531
X95.529 Y42.254
X96.13 Y42.015
X96.746 Y41.814
X97.372 Y41.652
X98.007 Y41.528
X98.649 Y41.445
X99.295 Y41.403
X99.942 Y41.401
X100.588 Y41.439
X101.231 Y41.517
X101.867 Y41.634
X102.495 Y41.791
X103.112 Y41.986
X103.717 Y42.218
X104.305 Y42.487
X104.876 Y42.793
X105.427 Y43.132
X105.957 Y43.504
X106.463 Y43.906
X106.945 Y44.339
X107.4 Y44.799
X107.826 Y45.286
X108.224 Y45.797
X108.59 Y46.331
X108.923 Y46.886
X109.223 Y47.459
X109.489 Y48.049
X109.72 Y48.654
X109.915 Y49.271
X110.074 Y49.898
X110.195 Y50.534
X110.279 Y51.176
X110.325 Y51.821
X110.331 Y52.468
X110.298 Y53.115
X110.228 Y53.758
X110.12 Y54.396
X109.974 Y55.027
X109.791 Y55.648
X109.571 Y56.256
X109.316 Y56.851
X109.024 Y57.429
X108.698 Y57.988
X108.339 Y58.526
X107.948 Y59.043
X107.528 Y59.535
X107.079 Y60.001
X106.603 Y60.44
X106.102 Y60.849
X105.578 Y61.229
X105.032 Y61.576
X104.466 Y61.89
X103.882 Y62.169
X103.283 Y62.414
X102.671 Y62.624
X102.047 Y62.798
X101.415 Y62.935
X100.775 Y63.035
X100.131 Y63.099
X99.484 Y63.124
X98.837 Y63.11
X98.192 Y63.058
X97.551 Y62.97
X96.916 Y62.844
X96.289 Y62.683
X95.673 Y62.485
X95.069 Y62.252
X94.48 Y61.984
X93.907 Y61.684
X93.352 Y61.35
X92.818 Y60.985
X92.304 Y60.591
X91.814 Y60.168
X91.349 Y59.719
X90.909 Y59.243
X90.498 Y58.744
X90.116 Y58.221
X89.764 Y57.678
X89.444 Y57.115
X89.157 Y56.535
X88.904 Y55.94
X88.684 Y55.331
X88.498 Y54.711
X88.346 Y54.082
X88.231 Y53.445
X88.151 Y52.803
X88.108 Y52.157
X88.101 Y51.51
X88.133 Y50.863
X88.2 Y50.22
X88.304 Y49.581
X88.443 Y48.949
X88.617 Y48.325
X88.825 Y47.712
X89.067 Y47.112
X89.342 Y46.526
X89.649 Y45.957
X89.989 Y45.406
X90.359 Y44.875
X90.759 Y44.366
X91.187 Y43.88
X91.641 Y43.419
X92.12 Y42.984
X92.622 Y42.575
X93.146 Y42.196
X93.69 Y41.845
X94.254 Y41.526
X94.834 Y41.24
X95.43 Y40.988
X96.039 Y40.769
X96.66 Y40.585
X97.289 Y40.435
X97.926 Y40.32
X98.568 Y40.241
X99.214 Y40.197
X99.861 Y40.19
X100.508 Y40.218
X101.152 Y40.284
X101.791 Y40.386
X102.424 Y40.523
X103.048 Y40.694
X103.661 Y40.9
X104.263 Y41.139
X104.851 Y41.41
X105.423 Y41.713
X105.977 Y42.046
X106.513 Y42.41
X107.027 Y42.802
X107.52 Y43.222
X107.989 Y43.668
X108.434 Y44.138
X108.853 Y44.631
X109.245 Y45.146
X109.61 Y45.681
X109.945 Y46.234
X110.252 Y46.805
X110.526 Y47.391
X110.769 Y47.991
X110.979 Y48.603
X111.157 Y49.225
X111.302 Y49.856
X111.413 Y50.493
X111.49 Y51.136
X111.533 Y51.782
X111.542 Y52.429
X111.516 Y53.076
X111.456 Y53.72
X111.36 Y54.36
X111.229 Y54.994
X111.065 Y55.62
X110.868 Y56.237
X110.639 Y56.842
X110.377 Y57.434
X110.084 Y58.011
X109.76 Y58.571
X109.407 Y59.114
X109.024 Y59.636
X108.614 Y60.136
X108.177 Y60.613
X107.715 Y61.067
X107.23 Y61.495
X106.722 Y61.897
X106.194 Y62.271
X105.647 Y62.617
X105.082 Y62.933
X104.502 Y63.219
X103.907 Y63.474
X103.299 Y63.695
X102.68 Y63.885
X102.052 Y64.041
X101.416 Y64.164
X100.775 Y64.254
X100.131 Y64.311
X99.484 Y64.334
X98.837 Y64.322
X98.191 Y64.277
X97.549 Y64.198
X96.911 Y64.084
X96.281 Y63.937
X95.659 Y63.757
X95.048 Y63.546
X94.448 Y63.303
X93.861 Y63.029
X93.29 Y62.726
X92.734 Y62.393
X92.197 Y62.033
X91.678 Y61.646
X91.181 Y61.231
X90.706 Y60.792
X90.254 Y60.328
X89.827 Y59.842
X89.425 Y59.335
X89.05 Y58.808
X88.702 Y58.262
X88.382 Y57.699
X88.092 Y57.121
X87.831 Y56.528
X87.602 Y55.923
X87.404 Y55.307
X87.237 Y54.681
X87.103 Y54.048
X87.001 Y53.409
X86.931 Y52.766
X86.894 Y52.119
X86.89 Y51.472
X86.92 Y50.826
X86.982 Y50.181
X87.076 Y49.541
X87.204 Y48.907
X87.364 Y48.28
X87.556 Y47.661
X87.778 Y47.054
X88.031 Y46.458
X88.313 Y45.875
X88.625 Y45.308
X88.964 Y44.757
X89.332 Y44.224
X89.726 Y43.711
X90.146 Y43.218
X90.591 Y42.748
X91.059 Y42.301
X91.549 Y41.878
X92.059 Y41.481
X92.589 Y41.109
X93.137 Y40.764
X93.701 Y40.447
X94.281 Y40.16
X94.875 Y39.902
X95.481 Y39.675
X96.098 Y39.48
X96.724 Y39.316
X97.358 Y39.185
X97.997 Y39.085
X98.641 Y39.017
X99.287 Y38.981
X99.935 Y38.978
X100.581 Y39.008
X101.225 Y39.07
X101.866 Y39.165
X102.5 Y39.292
X103.127 Y39.452
X103.746 Y39.643
X104.354 Y39.864
X104.95 Y40.115
X105.534 Y40.395
X106.103 Y40.704
X106.656 Y41.04
X107.192 Y41.403
X107.709 Y41.792
X108.207 Y42.205
X108.683 Y42.644
X109.137 Y43.105
X109.568 Y43.588
X109.975 Y44.091
X110.357 Y44.614
X110.714 Y45.154
X111.045 Y45.71
X111.348 Y46.282
X111.624 Y46.867
X111.871 Y47.465
X112.088 Y48.075
X112.276 Y48.694
X112.432 Y49.322
X112.559 Y49.957
X112.654 Y50.597
X112.719 Y51.241
X112.752 Y51.888
X112.755 Y52.535
X112.726 Y53.182
X112.666 Y53.826
X112.575 Y54.467
X112.453 Y55.102
X112.299 Y55.731
X112.114 Y56.351
X111.898 Y56.962
X111.654 Y57.561
X111.381 Y58.147
X111.079 Y58.72
X110.751 Y59.278
X110.395 Y59.819
X110.014 Y60.342
X109.607 Y60.845
X109.176 Y61.328
X108.722 Y61.789
X108.245 Y62.227
X107.748 Y62.641
X107.231 Y63.031
X106.696 Y63.395
X106.145 Y63.734
X105.577 Y64.045
X104.996 Y64.329
X104.401 Y64.585
X103.795 Y64.811
X103.178 Y65.008
X102.553 Y65.175
X101.92 Y65.311
X101.282 Y65.416
X100.639 Y65.491
X99.993 Y65.536
X99.346 Y65.549
X98.699 Y65.533
X98.054 Y65.485
X97.411 Y65.407
X96.773 Y65.298
X96.141 Y65.158
X95.517 Y64.988
X94.901 Y64.788
X94.296 Y64.559
X93.702 Y64.302
X93.121 Y64.017
X92.553 Y63.706
X92.001 Y63.368
X91.465 Y63.006
X90.947 Y62.618
X90.447 Y62.206
X89.967 Y61.772
X89.509 Y61.315
X89.073 Y60.836
X88.66 Y60.338
X88.271 Y59.821
X87.907 Y59.286
X87.568 Y58.735
X87.254 Y58.168
X86.967 Y57.588
X86.708 Y56.995
X86.476 Y56.391
X86.272 Y55.777
X86.098 Y55.154
X85.953 Y54.523
X85.839 Y53.886
X85.753 Y53.244
X85.698 Y52.599
X85.673 Y51.953
X85.677 Y51.305
X85.712 Y50.659
X85.776 Y50.015
X85.87 Y49.375
X85.993 Y48.739
X86.146 Y48.11
X86.329 Y47.489
X86.54 Y46.878
X86.779 Y46.276
X87.046 Y45.687
X87.34 Y45.11
X87.66 Y44.548
X88.006 Y44
X88.376 Y43.469
X88.771 Y42.956
X89.189 Y42.462
X89.629 Y41.988
X90.091 Y41.535
X90.574 Y41.104
X91.076 Y40.696
X91.597 Y40.311
X92.135 Y39.951
X92.688 Y39.616
X93.257 Y39.307
X93.839 Y39.024
X94.433 Y38.768
X95.039 Y38.54
X95.655 Y38.34
X96.279 Y38.169
X96.911 Y38.028
X97.548 Y37.917
X98.19 Y37.835
X98.835 Y37.782
X99.482 Y37.759
X100.129 Y37.766
X100.776 Y37.802
X101.419 Y37.868
X102.06 Y37.963
X102.695 Y38.087
X103.323 Y38.241
X103.944 Y38.424
X104.556 Y38.635
X105.157 Y38.874
X105.747 Y39.14
X106.325 Y39.433
X106.888 Y39.751
X107.437 Y40.094
X107.97 Y40.462
X108.486 Y40.852
X108.984 Y41.266
X109.462 Y41.702
X109.921 Y42.158
X110.359 Y42.635
X110.774 Y43.132
X111.167 Y43.646
X111.536 Y44.177
X111.882 Y44.724
X112.204 Y45.286
X112.501 Y45.861
X112.772 Y46.449
X113.017 Y47.048
X113.235 Y47.657
X113.426 Y48.276
X113.589 Y48.902
X113.724 Y49.535
X113.83 Y50.174
X113.907 Y50.816
X113.956 Y51.461
X113.977 Y52.108
X113.969 Y52.755
X113.933 Y53.402
X113.868 Y54.046
X113.774 Y54.686
X113.653 Y55.322
X113.502 Y55.951
X113.324 Y56.573
X113.117 Y57.187
X112.883 Y57.79
X112.622 Y58.382
X112.335 Y58.962
X112.022 Y59.529
X111.685 Y60.081
X111.323 Y60.618
X110.938 Y61.138
X110.53 Y61.641
X110.101 Y62.125
X109.649 Y62.589
X109.178 Y63.032
X108.687 Y63.454
X108.177 Y63.852
X107.65 Y64.228
X107.107 Y64.58
X106.548 Y64.908
X105.977 Y65.211
X105.392 Y65.488
X104.796 Y65.74
X104.189 Y65.966
X103.573 Y66.164
X102.949 Y66.335
X102.317 Y66.478
X101.68 Y66.593
X101.039 Y66.679
X100.394 Y66.736
X99.748 Y66.766
X99.101 Y66.768
X98.454 Y66.741
X97.809 Y66.686
X97.167 Y66.604
X96.529 Y66.493
X95.897 Y66.355
X95.272 Y66.189
X94.654 Y65.996
X94.045 Y65.775
X93.447 Y65.528
X92.86 Y65.255
X92.286 Y64.957
X91.724 Y64.635
X91.177 Y64.289
X90.646 Y63.92
X90.13 Y63.529
X89.632 Y63.115
X89.152 Y62.681
X88.691 Y62.226
X88.251 Y61.752
X87.832 Y61.259
X87.434 Y60.748
X87.06 Y60.22
X86.708 Y59.677
X86.38 Y59.119
X86.076 Y58.548
X85.796 Y57.964
X85.542 Y57.369
X85.312 Y56.764
X85.109 Y56.149
X84.933 Y55.527
X84.783 Y54.897
X84.66 Y54.262
X84.566 Y53.621
X84.499 Y52.978
X84.46 Y52.331
X84.449 Y51.684
X84.465 Y51.037
X84.508 Y50.392
X84.579 Y49.748
X84.676 Y49.108
X84.801 Y48.473
X84.953 Y47.844
X85.131 Y47.222
X85.336 Y46.608
X85.567 Y46.004
X85.825 Y45.41
X86.107 Y44.827
X86.414 Y44.258
X86.745 Y43.701
X87.099 Y43.16
X87.476 Y42.633
X87.874 Y42.123
X88.294 Y41.63
X88.734 Y41.156
X89.194 Y40.701
X89.673 Y40.265
X90.17 Y39.851
X90.685 Y39.459
X91.216 Y39.089
X91.763 Y38.742
X92.323 Y38.419
X92.897 Y38.119
X93.483 Y37.844
X94.08 Y37.594
X94.687 Y37.369
X95.303 Y37.17
X95.927 Y36.998
X96.557 Y36.853
X97.194 Y36.734
X97.834 Y36.643
X98.479 Y36.58
X99.125 Y36.544
X99.772 Y36.536
X100.419 Y36.554
X101.064 Y36.6
X101.708 Y36.673
X102.347 Y36.773
X102.982 Y36.9
X103.611 Y37.053
X104.232 Y37.233
X104.846 Y37.438
X105.45 Y37.67
X106.044 Y37.927
X106.627 Y38.21
X107.197 Y38.516
X107.754 Y38.845
X108.297 Y39.198
X108.825 Y39.572
X109.337 Y39.968
X109.832 Y40.384
X110.31 Y40.821
X110.77 Y41.276
X111.21 Y41.751
X111.63 Y42.243
X112.03 Y42.752
X112.407 Y43.278
X112.763 Y43.819
X113.097 Y44.373
X113.407 Y44.941
X113.695 Y45.521
X113.958 Y46.112
X114.198 Y46.713
X114.413 Y47.324
X114.603 Y47.943
X114.767 Y48.569
X114.906 Y49.201
X115.018 Y49.838
X115.104 Y50.48
X115.163 Y51.124
X115.195 Y51.771
X115.201 Y52.418
X115.181 Y53.065
X115.134 Y53.71
X115.061 Y54.353
X114.962 Y54.993
X114.837 Y55.628
X114.686 Y56.257
X114.51 Y56.88
X114.307 Y57.495
X114.079 Y58.1
X113.826 Y58.696
X113.548 Y59.281
X113.246 Y59.853
X112.921 Y60.413
X112.573 Y60.959
X112.204 Y61.49
X111.813 Y62.006
X111.401 Y62.505
X110.969 Y62.987
X110.517 Y63.451
X110.047 Y63.895
X109.559 Y64.32
X109.054 Y64.725
X108.532 Y65.108
X107.995 Y65.468
X107.443 Y65.807
X106.878 Y66.123
X106.301 Y66.415
X105.712 Y66.685
X105.113 Y66.93
X104.505 Y67.151
X103.888 Y67.347
X103.264 Y67.517
X102.633 Y67.663
X101.997 Y67.782
X101.356 Y67.875
X100.713 Y67.942
X100.067 Y67.982
X99.419 Y67.996
X98.772 Y67.983
X98.126 Y67.945
X97.482 Y67.881
X96.841 Y67.791
X96.204 Y67.676
X95.573 Y67.535
X94.947 Y67.369
X94.329 Y67.178
X93.719 Y66.962
X93.118 Y66.721
X92.528 Y66.456
X91.948 Y66.167
X91.381 Y65.855
X90.827 Y65.521
X90.286 Y65.165
X89.76 Y64.789
X89.249 Y64.391
X88.754 Y63.974
X88.276 Y63.538
X87.816 Y63.083
X87.374 Y62.609
X86.952 Y62.119
X86.55 Y61.612
X86.169 Y61.089
X85.809 Y60.551
X85.471 Y59.999
X85.155 Y59.434
X84.862 Y58.857
X84.591 Y58.269
X84.344 Y57.671
X84.12 Y57.064
X83.92 Y56.448
X83.745 Y55.825
X83.594 Y55.196
X83.469 Y54.561
X83.369 Y53.921
X83.295 Y53.278
X83.247 Y52.633
X83.224 Y51.986
X83.228 Y51.339
X83.256 Y50.692
X83.31 Y50.047
X83.389 Y49.405
X83.493 Y48.766
X83.622 Y48.132
X83.776 Y47.503
X83.954 Y46.881
X84.157 Y46.266
X84.384 Y45.66
X84.635 Y45.064
X84.91 Y44.478
X85.208 Y43.903
X85.529 Y43.341
X85.871 Y42.792
X86.234 Y42.256
X86.619 Y41.735
X87.023 Y41.23
X87.446 Y40.741
X87.889 Y40.268
X88.349 Y39.813
X88.828 Y39.377
X89.323 Y38.96
X89.834 Y38.563
X90.36 Y38.187
X90.902 Y37.832
X91.456 Y37.499
X92.024 Y37.188
X92.603 Y36.899
X93.193 Y36.634
X93.793 Y36.391
X94.403 Y36.172
X95.02 Y35.977
X95.644 Y35.806
X96.274 Y35.66
X96.91 Y35.539
X97.55 Y35.443
X98.194 Y35.372
X98.839 Y35.328
X99.486 Y35.309
X100.133 Y35.316
X100.78 Y35.347
X101.425 Y35.404
X102.067 Y35.486
X102.705 Y35.593
X103.339 Y35.724
X103.967 Y35.88
X104.589 Y36.06
X105.203 Y36.264
X105.808 Y36.492
X106.405 Y36.744
X106.991 Y37.019
X107.565 Y37.317
X108.128 Y37.637
X108.678 Y37.978
X109.214 Y38.34
X109.736 Y38.723
X110.244 Y39.125
X110.735 Y39.546
X111.21 Y39.985
X111.669 Y40.442
X112.109 Y40.916
X112.531 Y41.407
X112.934 Y41.914
X113.317 Y42.435
X113.68 Y42.971
X114.021 Y43.521
X114.342 Y44.083
X114.641 Y44.658
X114.918 Y45.242
X115.173 Y45.837
X115.405 Y46.441
X115.615 Y47.054
X115.801 Y47.673
X115.964 Y48.3
X116.103 Y48.932
X116.218 Y49.569
X116.308 Y50.21
X116.374 Y50.854
X116.415 Y51.5
X116.43 Y52.147
X116.421 Y52.794
X116.388 Y53.44
X116.33 Y54.085
X116.248 Y54.727
X116.142 Y55.365
X116.011 Y55.999
X115.857 Y56.628
X115.679 Y57.25
X115.477 Y57.865
X115.252 Y58.472
X115.003 Y59.069
X114.732 Y59.657
X114.438 Y60.233
X114.121 Y60.798
X113.784 Y61.35
X113.425 Y61.889
X113.046 Y62.414
X112.648 Y62.924
X112.231 Y63.419
X111.795 Y63.898
X111.342 Y64.359
X110.871 Y64.804
X110.384 Y65.229
X109.881 Y65.636
X109.362 Y66.024
X108.829 Y66.391
X108.282 Y66.737
X107.722 Y67.062
X107.15 Y67.365
X106.568 Y67.647
X105.975 Y67.906
X105.373 Y68.144
X104.762 Y68.358
X104.144 Y68.55
X103.519 Y68.718
X102.888 Y68.863
X102.252 Y68.983
X101.612 Y69.08
X100.969 Y69.152
X100.324 Y69.2
X99.677 Y69.222
X99.03 Y69.22
X98.383 Y69.194
X97.738 Y69.144
X97.095 Y69.069
X96.455 Y68.971
X95.819 Y68.85
X95.189 Y68.704
X94.564 Y68.535
X93.946 Y68.344
X93.335 Y68.129
X92.733 Y67.891
X92.14 Y67.631
X91.558 Y67.349
X90.987 Y67.045
X90.427 Y66.719
X89.88 Y66.373
X89.346 Y66.007
X88.826 Y65.622
X88.321 Y65.218
X87.83 Y64.796
X87.356 Y64.356
X86.898 Y63.898
X86.457 Y63.425
X86.034 Y62.935
X85.629 Y62.429
X85.244 Y61.909
X84.878 Y61.375
X84.533 Y60.828
X84.209 Y60.268
X83.906 Y59.696
X83.623 Y59.114
X83.362 Y58.521
X83.123 Y57.92
X82.906 Y57.31
X82.712 Y56.693
X82.54 Y56.069
X82.391 Y55.439
X82.265 Y54.804
X82.163 Y54.165
X82.084 Y53.523
X82.03 Y52.878
X82 Y52.231
X81.994 Y51.584
X82.012 Y50.937
X82.053 Y50.291
X82.118 Y49.647
X82.207 Y49.006
X82.318 Y48.368
X82.453 Y47.735
X82.611 Y47.108
X82.791 Y46.486
X82.994 Y45.872
X83.22 Y45.265
X83.467 Y44.667
X83.737 Y44.079
X84.029 Y43.501
X84.341 Y42.934
X84.675 Y42.38
X85.029 Y41.838
X85.402 Y41.309
X85.794 Y40.794
X86.205 Y40.294
X86.634 Y39.809
X87.079 Y39.34
X87.542 Y38.887
X88.021 Y38.451
X88.515 Y38.034
X89.024 Y37.634
X89.548 Y37.254
X90.086 Y36.894
X90.636 Y36.554
X91.199 Y36.234
X91.774 Y35.936
X92.358 Y35.658
X92.953 Y35.402
X93.556 Y35.168
X94.168 Y34.956
X94.786 Y34.766
X95.411 Y34.598
X96.042 Y34.454
X96.678 Y34.332
X97.318 Y34.234
X97.961 Y34.16
X98.606 Y34.109
X99.253 Y34.083
X99.9 Y34.08
X100.547 Y34.102
X101.192 Y34.146
X101.836 Y34.215
X102.477 Y34.306
X103.114 Y34.42
X103.746 Y34.558
X104.373 Y34.718
X104.994 Y34.9
X105.608 Y35.105
X106.215 Y35.332
X106.812 Y35.58
X107.4 Y35.851
X107.978 Y36.142
X108.545 Y36.455
X109.1 Y36.788
X109.642 Y37.141
X110.172 Y37.513
X110.688 Y37.904
X111.189 Y38.313
X111.676 Y38.739
X112.148 Y39.182
X112.604 Y39.642
X113.043 Y40.117
X113.465 Y40.608
X113.869 Y41.113
X114.255 Y41.633
X114.623 Y42.165
X114.97 Y42.711
X115.298 Y43.269
X115.606 Y43.839
X115.893 Y44.419
X116.16 Y45.009
X116.405 Y45.607
X116.63 Y46.214
X116.833 Y46.829
X117.015 Y47.45
X117.175 Y48.077
X117.312 Y48.71
X117.427 Y49.347
X117.52 Y49.987
X117.589 Y50.631
X117.636 Y51.276
X117.659 Y51.923
Y52.57
X117.635 Y53.217
X117.589 Y53.863
X117.519 Y54.506
X117.428 Y55.147
X117.313 Y55.784
X117.177 Y56.416
X117.018 Y57.044
X116.837 Y57.665
X116.634 Y58.28
X116.409 Y58.887
X116.163 Y59.485
X115.896 Y60.075
X115.607 Y60.654
X115.297 Y61.222
X114.967 Y61.779
X114.618 Y62.324
X114.249 Y62.856
X113.861 Y63.374
X113.456 Y63.878
X113.033 Y64.368
X112.593 Y64.843
X112.136 Y65.302
X111.664 Y65.744
X111.176 Y66.169
X110.673 Y66.577
X110.157 Y66.967
X109.626 Y67.338
X109.083 Y67.69
X108.527 Y68.021
X107.96 Y68.333
X107.382 Y68.624
X106.794 Y68.895
X106.197 Y69.144
X105.591 Y69.373
X104.978 Y69.581
X104.359 Y69.767
X103.733 Y69.932
X103.101 Y70.074
X102.465 Y70.194
X101.825 Y70.292
X101.183 Y70.367
X100.538 Y70.42
X99.891 Y70.449
X99.244 Y70.455
X98.597 Y70.438
X97.951 Y70.398
X97.307 Y70.336
X96.665 Y70.251
X96.027 Y70.145
X95.392 Y70.016
X94.763 Y69.865
X94.139 Y69.693
X93.522 Y69.499
X92.911 Y69.283
X92.309 Y69.047
X91.715 Y68.79
X91.13 Y68.512
X90.556 Y68.213
X89.993 Y67.895
X89.441 Y67.556
X88.901 Y67.199
X88.374 Y66.823
X87.86 Y66.43
X87.36 Y66.019
X86.875 Y65.591
X86.404 Y65.147
X85.949 Y64.687
X85.51 Y64.211
X85.087 Y63.721
X84.682 Y63.216
X84.295 Y62.698
X83.926 Y62.166
X83.575 Y61.622
X83.244 Y61.066
X82.933 Y60.498
X82.642 Y59.92
X82.371 Y59.333
X82.12 Y58.736
X81.889 Y58.131
X81.679 Y57.519
X81.49 Y56.9
X81.322 Y56.275
X81.176 Y55.644
X81.052 Y55.009
X80.949 Y54.37
X80.868 Y53.728
X80.81 Y53.084
X80.774 Y52.437
X80.761 Y51.79
X80.77 Y51.143
X80.802 Y50.497
X80.856 Y49.852
X80.933 Y49.209
X81.03 Y48.569
X81.15 Y47.933
X81.291 Y47.301
X81.453 Y46.675
X81.637 Y46.054
X81.841 Y45.44
X82.067 Y44.834
X82.313 Y44.235
X82.58 Y43.645
X82.867 Y43.065
X83.174 Y42.495
X83.5 Y41.937
X83.846 Y41.39
X84.211 Y40.855
X84.594 Y40.333
X84.994 Y39.824
X85.411 Y39.329
X85.845 Y38.849
X86.294 Y38.383
X86.759 Y37.933
X87.24 Y37.499
X87.734 Y37.082
X88.243 Y36.682
X88.765 Y36.3
X89.3 Y35.935
X89.848 Y35.59
X90.407 Y35.264
X90.977 Y34.958
X91.557 Y34.671
X92.147 Y34.405
X92.746 Y34.159
X93.352 Y33.933
X93.966 Y33.727
X94.586 Y33.543
X95.213 Y33.38
X95.844 Y33.238
X96.48 Y33.118
X97.12 Y33.019
X97.762 Y32.942
X98.407 Y32.888
X99.054 Y32.856
X99.701 Y32.846
X100.348 Y32.859
X100.994 Y32.894
X101.639 Y32.952
X102.281 Y33.031
X102.921 Y33.132
X103.556 Y33.254
X104.187 Y33.397
X104.813 Y33.562
X105.433 Y33.748
X106.047 Y33.954
X106.653 Y34.181
X107.251 Y34.428
X107.84 Y34.696
X108.42 Y34.983
X108.99 Y35.29
X109.549 Y35.617
X110.096 Y35.962
X110.631 Y36.326
X111.154 Y36.708
X111.664 Y37.106
X112.16 Y37.522
X112.643 Y37.953
X113.11 Y38.4
X113.563 Y38.863
X114 Y39.34
X114.422 Y39.831
X114.826 Y40.337
X115.214 Y40.855
X115.584 Y41.386
X115.936 Y41.929
X116.27 Y42.484
X116.584 Y43.049
X116.879 Y43.625
X117.155 Y44.211
X117.412 Y44.805
X117.649 Y45.407
X117.865 Y46.017
X118.062 Y46.634
X118.239 Y47.256
X118.395 Y47.884
X118.53 Y48.517
X118.644 Y49.154
X118.737 Y49.795
X118.809 Y50.438
X118.859 Y51.083
X118.888 Y51.73
X118.894 Y52.377
X118.879 Y53.024
X118.842 Y53.67
X118.783 Y54.315
X118.703 Y54.957
X118.602 Y55.596
X118.48 Y56.232
X118.336 Y56.863
X118.173 Y57.489
X117.988 Y58.11
X117.783 Y58.724
X117.558 Y59.331
X117.313 Y59.93
X117.048 Y60.52
X116.763 Y61.101
X116.459 Y61.672
X116.135 Y62.233
X115.792 Y62.782
X115.431 Y63.319
X115.053 Y63.844
X114.657 Y64.356
X114.244 Y64.855
X113.816 Y65.34
X113.371 Y65.81
X112.911 Y66.265
X112.437 Y66.706
X111.948 Y67.13
X111.445 Y67.538
X110.929 Y67.928
X110.401 Y68.302
X109.86 Y68.657
X109.307 Y68.994
X108.744 Y69.312
X108.17 Y69.611
X107.586 Y69.891
X106.993 Y70.151
X106.392 Y70.391
X105.784 Y70.612
X105.169 Y70.813
X104.547 Y70.994
X103.92 Y71.154
X103.288 Y71.294
X102.652 Y71.412
X102.012 Y71.51
X101.37 Y71.587
X100.725 Y71.643
X100.078 Y71.677
X99.431 Y71.689
X98.784 Y71.68
X98.138 Y71.649
X97.493 Y71.596
X96.85 Y71.523
X96.209 Y71.428
X95.572 Y71.313
X94.94 Y71.177
X94.311 Y71.021
X93.689 Y70.845
X93.072 Y70.648
X92.462 Y70.431
X91.86 Y70.195
X91.265 Y69.939
X90.679 Y69.664
X90.103 Y69.37
X89.536 Y69.057
X88.981 Y68.725
X88.436 Y68.375
X87.904 Y68.007
X87.383 Y67.622
X86.876 Y67.221
X86.381 Y66.803
X85.9 Y66.37
X85.434 Y65.922
X84.982 Y65.458
X84.545 Y64.981
X84.123 Y64.49
X83.718 Y63.985
X83.33 Y63.467
X82.958 Y62.937
X82.604 Y62.396
X82.268 Y61.842
X81.951 Y61.278
X81.652 Y60.704
X81.372 Y60.121
X81.111 Y59.528
X80.869 Y58.928
X80.647 Y58.32
X80.444 Y57.706
X80.261 Y57.085
X80.098 Y56.459
X79.955 Y55.827
X79.832 Y55.192
X79.729 Y54.553
X79.648 Y53.911
X79.587 Y53.266
X79.547 Y52.62
X79.528 Y51.973
X79.531 Y51.326
X79.555 Y50.679
X79.6 Y50.034
X79.666 Y49.39
X79.752 Y48.749
X79.859 Y48.11
X79.986 Y47.476
X80.133 Y46.845
X80.3 Y46.22
X80.487 Y45.6
X80.694 Y44.987
X80.92 Y44.381
X81.165 Y43.782
X81.43 Y43.191
X81.714 Y42.609
X82.016 Y42.037
X82.337 Y41.475
X82.677 Y40.924
X83.034 Y40.385
X83.409 Y39.857
X83.8 Y39.341
X84.208 Y38.838
X84.631 Y38.349
X85.069 Y37.873
X85.523 Y37.411
X85.991 Y36.964
X86.473 Y36.532
X86.968 Y36.116
X87.477 Y35.715
X87.998 Y35.331
X88.531 Y34.965
X89.076 Y34.615
X89.632 Y34.284
X90.199 Y33.971
X90.775 Y33.677
X91.361 Y33.402
X91.956 Y33.146
X92.558 Y32.909
X93.167 Y32.691
X93.783 Y32.493
X94.405 Y32.314
X95.033 Y32.155
X95.665 Y32.016
X96.301 Y31.897
X96.941 Y31.799
X97.583 Y31.721
X98.228 Y31.664
X98.874 Y31.627
X99.521 Y31.612
X100.168 Y31.618
X100.815 Y31.646
X101.461 Y31.694
X102.104 Y31.763
X102.745 Y31.852
X103.383 Y31.961
X104.017 Y32.091
X104.647 Y32.241
X105.271 Y32.41
X105.89 Y32.599
X106.503 Y32.807
X107.109 Y33.035
X107.707 Y33.281
X108.298 Y33.547
X108.879 Y33.831
X109.451 Y34.134
X110.013 Y34.455
X110.564 Y34.794
X111.104 Y35.151
X111.633 Y35.525
X112.149 Y35.915
X112.653 Y36.321
X113.144 Y36.742
X113.622 Y37.179
X114.086 Y37.63
X114.536 Y38.096
X114.971 Y38.575
X115.391 Y39.067
X115.796 Y39.572
X116.184 Y40.09
X116.556 Y40.62
X116.912 Y41.161
X117.25 Y41.713
X117.57 Y42.275
X117.872 Y42.847
X118.156 Y43.429
X118.421 Y44.019
X118.668 Y44.618
X118.896 Y45.223
X119.106 Y45.836
X119.297 Y46.454
X119.468 Y47.078
X119.62 Y47.707
X119.753 Y48.341
X119.866 Y48.978
X119.959 Y49.618
X120.032 Y50.262
X120.085 Y50.907
X120.118 Y51.553
X120.13 Y52.2
X120.121 Y52.847
X120.092 Y53.494
X120.042 Y54.139
X119.972 Y54.783
X119.882 Y55.423
X119.772 Y56.061
X119.643 Y56.695
X119.494 Y57.325
X119.325 Y57.95
X119.137 Y58.569
X118.93 Y59.183
X118.704 Y59.789
X118.459 Y60.388
X118.196 Y60.979
X117.914 Y61.562
X117.613 Y62.135
X117.295 Y62.699
X116.958 Y63.252
X116.604 Y63.793
X116.233 Y64.324
X115.846 Y64.842
X115.442 Y65.348
X115.023 Y65.841
X114.589 Y66.321
X114.14 Y66.788
X113.677 Y67.24
X113.201 Y67.678
X112.711 Y68.101
X112.208 Y68.508
X111.692 Y68.9
X111.165 Y69.275
X110.626 Y69.633
X110.076 Y69.974
X109.516 Y70.298
X108.945 Y70.603
X108.365 Y70.891
X107.776 Y71.159
X107.179 Y71.41
X106.575 Y71.642
X105.964 Y71.855
X105.347 Y72.049
X104.724 Y72.225
X104.096 Y72.381
X103.463 Y72.518
X102.826 Y72.635
X102.187 Y72.733
X101.544 Y72.81
X100.9 Y72.868
X100.253 Y72.906
X99.606 Y72.924
X98.959 Y72.92
X98.312 Y72.897
X97.667 Y72.853
X97.023 Y72.789
X96.381 Y72.705
X95.742 Y72.602
X95.107 Y72.479
X94.475 Y72.336
X93.848 Y72.175
X93.227 Y71.995
X92.611 Y71.795
X92.002 Y71.577
X91.399 Y71.341
X90.804 Y71.086
X90.217 Y70.813
X89.639 Y70.522
X89.07 Y70.213
X88.511 Y69.887
X87.963 Y69.543
X87.426 Y69.182
X86.9 Y68.805
X86.386 Y68.412
X85.884 Y68.004
X85.394 Y67.58
X84.918 Y67.142
X84.455 Y66.69
X84.006 Y66.224
X83.571 Y65.744
X83.151 Y65.252
X82.746 Y64.747
X82.357 Y64.23
X81.983 Y63.701
X81.626 Y63.161
X81.286 Y62.611
X80.963 Y62.05
X80.658 Y61.479
X80.371 Y60.899
X80.102 Y60.31
X79.851 Y59.714
X79.618 Y59.11
X79.403 Y58.5
X79.206 Y57.883
X79.028 Y57.261
X78.869 Y56.633
X78.729 Y56.001
X78.608 Y55.365
X78.506 Y54.726
X78.424 Y54.084
X78.361 Y53.44
X78.318 Y52.794
X78.295 Y52.148
X78.292 Y51.5
X78.309 Y50.853
X78.346 Y50.207
X78.403 Y49.563
X78.479 Y48.92
X78.575 Y48.28
X78.69 Y47.643
X78.824 Y47.01
X78.976 Y46.381
X79.148 Y45.757
X79.338 Y45.138
X79.547 Y44.525
X79.774 Y43.919
X80.019 Y43.32
X80.282 Y42.729
X80.564 Y42.146
X80.862 Y41.572
X81.179 Y41.007
X81.512 Y40.453
X81.863 Y39.909
X82.231 Y39.376
X82.614 Y38.855
X83.013 Y38.345
X83.427 Y37.848
X83.856 Y37.363
X84.299 Y36.891
X84.756 Y36.433
X85.227 Y35.988
X85.71 Y35.558
X86.207 Y35.143
X86.715 Y34.742
X87.236 Y34.358
X87.767 Y33.989
X88.31 Y33.636
X88.864 Y33.301
X89.427 Y32.982
X90 Y32.682
X90.583 Y32.399
X91.173 Y32.134
X91.771 Y31.887
X92.377 Y31.658
X92.989 Y31.448
X93.607 Y31.256
X94.23 Y31.082
X94.859 Y30.927
X95.491 Y30.791
X96.128 Y30.674
X96.768 Y30.576
X97.41 Y30.497
X98.055 Y30.438
X98.701 Y30.398
X99.347 Y30.378
X99.995
X100.642 Y30.398
X101.288 Y30.438
X101.932 Y30.498
X102.574 Y30.577
X103.214 Y30.676
X103.851 Y30.793
X104.483 Y30.929
X105.112 Y31.084
X105.735 Y31.258
X106.353 Y31.45
X106.965 Y31.66
X107.571 Y31.889
X108.169 Y32.135
X108.76 Y32.399
X109.343 Y32.681
X109.917 Y32.98
X110.482 Y33.296
X111.036 Y33.63
X111.58 Y33.98
X112.114 Y34.347
X112.636 Y34.729
X113.147 Y35.127
X113.645 Y35.54
X114.131 Y35.967
X114.605 Y36.408
X115.066 Y36.863
X115.513 Y37.331
X115.946 Y37.812
X116.365 Y38.305
X116.769 Y38.81
X117.158 Y39.327
X117.532 Y39.856
X117.89 Y40.395
X118.232 Y40.944
X118.557 Y41.504
X118.865 Y42.073
X119.156 Y42.652
X119.429 Y43.238
X119.685 Y43.833
X119.924 Y44.434
X120.144 Y45.043
X120.347 Y45.657
X120.532 Y46.278
X120.699 Y46.903
X120.848 Y47.533
X120.978 Y48.167
X121.09 Y48.804
X121.183 Y49.445
X121.258 Y50.088
X121.313 Y50.733
X121.349 Y51.379
X121.366 Y52.026
X121.363 Y52.673
X121.341 Y53.32
X121.299 Y53.966
X121.238 Y54.61
X121.158 Y55.252
X121.059 Y55.892
X120.941 Y56.528
X120.805 Y57.161
X120.651 Y57.79
X120.478 Y58.413
X120.287 Y59.032
X120.078 Y59.644
X119.851 Y60.25
X119.606 Y60.85
X119.344 Y61.441
X119.065 Y62.025
X118.768 Y62.6
X118.454 Y63.166
X118.123 Y63.722
X117.775 Y64.268
X117.411 Y64.803
X117.031 Y65.327
X116.635 Y65.839
X116.225 Y66.34
X115.801 Y66.829
X115.362 Y67.304
X114.909 Y67.767
X114.444 Y68.217
X113.965 Y68.652
X113.474 Y69.074
X112.971 Y69.481
X112.456 Y69.873
X111.929 Y70.25
X111.392 Y70.611
X110.845 Y70.955
X110.287 Y71.284
X109.719 Y71.595
X109.143 Y71.889
X108.558 Y72.166
X107.964 Y72.425
X107.364 Y72.667
X106.757 Y72.891
X106.144 Y73.097
X105.524 Y73.286
X104.9 Y73.457
X104.271 Y73.609
X103.638 Y73.743
X103.001 Y73.859
X102.361 Y73.957
X101.719 Y74.035
X101.075 Y74.095
X100.429 Y74.136
X99.782 Y74.158
X99.135 Y74.161
X98.488 Y74.144
X97.841 Y74.108
X97.197 Y74.052
X96.554 Y73.978
X95.913 Y73.885
X95.276 Y73.774
X94.641 Y73.644
X94.011 Y73.496
X93.386 Y73.33
X92.765 Y73.146
X92.15 Y72.945
X91.541 Y72.726
X90.939 Y72.489
X90.343 Y72.235
X89.756 Y71.964
X89.176 Y71.676
X88.605 Y71.371
X88.043 Y71.05
X87.492 Y70.711
X86.95 Y70.357
X86.419 Y69.987
X85.899 Y69.601
X85.391 Y69.201
X84.894 Y68.786
X84.409 Y68.358
X83.936 Y67.915
X83.477 Y67.46
X83.03 Y66.991
X82.597 Y66.51
X82.178 Y66.017
X81.774 Y65.511
X81.384 Y64.995
X81.009 Y64.467
X80.649 Y63.929
X80.305 Y63.381
X79.978 Y62.823
X79.667 Y62.255
X79.373 Y61.678
X79.096 Y61.093
X78.836 Y60.501
X78.593 Y59.901
X78.368 Y59.294
X78.16 Y58.681
X77.969 Y58.063
X77.796 Y57.439
X77.64 Y56.811
X77.503 Y56.178
X77.383 Y55.542
X77.282 Y54.903
X77.199 Y54.261
X77.134 Y53.617
X77.088 Y52.972
X77.061 Y52.325
X77.052 Y51.678
X77.063 Y51.031
X77.093 Y50.384
X77.142 Y49.739
X77.209 Y49.095
X77.295 Y48.454
X77.399 Y47.815
X77.521 Y47.179
X77.661 Y46.547
X77.818 Y45.92
X77.994 Y45.297
X78.187 Y44.679
X78.397 Y44.067
X78.625 Y43.461
X78.87 Y42.862
X79.132 Y42.27
X79.41 Y41.686
X79.706 Y41.11
X80.018 Y40.543
X80.346 Y39.985
X80.691 Y39.438
X81.052 Y38.9
X81.428 Y38.374
X81.819 Y37.858
X82.225 Y37.354
X82.645 Y36.861
X83.078 Y36.38
X83.525 Y35.912
X83.985 Y35.457
X84.458 Y35.015
X84.943 Y34.586
X85.44 Y34.172
X85.948 Y33.771
X86.468 Y33.385
X86.999 Y33.015
X87.539 Y32.659
X88.09 Y32.32
X88.651 Y31.996
X89.221 Y31.69
X89.8 Y31.4
X90.387 Y31.127
X90.981 Y30.872
X91.583 Y30.633
X92.191 Y30.411
X92.805 Y30.207
X93.425 Y30.02
X94.049 Y29.85
X94.679 Y29.699
X95.312 Y29.565
X95.949 Y29.449
X96.588 Y29.351
X97.231 Y29.272
X97.875 Y29.21
X98.521 Y29.167
X99.168 Y29.143
X99.815 Y29.138
X100.462 Y29.151
X101.108 Y29.184
X101.753 Y29.236
X102.397 Y29.305
X103.038 Y29.394
X103.676 Y29.5
X104.312 Y29.624
X104.943 Y29.766
X105.57 Y29.926
X106.193 Y30.103
X106.81 Y30.298
X107.422 Y30.509
X108.027 Y30.738
X108.626 Y30.984
X109.217 Y31.247
X109.801 Y31.526
X110.377 Y31.821
X110.944 Y32.133
X111.502 Y32.462
X112.05 Y32.806
X112.587 Y33.166
X113.115 Y33.542
X113.631 Y33.932
X114.137 Y34.336
X114.631 Y34.754
X115.113 Y35.186
X115.583 Y35.631
X116.04 Y36.089
X116.485 Y36.559
X116.917 Y37.041
X117.335 Y37.535
X117.739 Y38.041
X118.129 Y38.557
X118.505 Y39.084
X118.865 Y39.622
X119.211 Y40.169
X119.54 Y40.726
X119.854 Y41.292
X120.151 Y41.867
X120.432 Y42.451
X120.696 Y43.041
X120.943 Y43.639
X121.174 Y44.244
X121.389 Y44.855
X121.586 Y45.471
X121.766 Y46.093
X121.929 Y46.719
X122.075 Y47.35
X122.204 Y47.984
X122.315 Y48.622
X122.408 Y49.262
X122.484 Y49.905
X122.541 Y50.549
X122.581 Y51.196
X122.602 Y51.842
X122.605 Y52.49
X122.589 Y53.137
X122.555 Y53.783
X122.502 Y54.428
X122.431 Y55.071
X122.342 Y55.712
X122.236 Y56.351
X122.111 Y56.986
X121.97 Y57.618
X121.811 Y58.245
X121.634 Y58.868
X121.441 Y59.485
X121.23 Y60.097
X121.003 Y60.703
X120.759 Y61.303
X120.498 Y61.895
X120.221 Y62.48
X119.928 Y63.057
X119.618 Y63.625
X119.292 Y64.184
X118.95 Y64.734
X118.592 Y65.273
X118.219 Y65.802
X117.832 Y66.32
X117.43 Y66.828
X117.014 Y67.324
X116.584 Y67.808
X116.142 Y68.28
X115.686 Y68.74
X115.218 Y69.187
X114.738 Y69.621
X114.246 Y70.042
X113.743 Y70.449
X113.229 Y70.841
X112.703 Y71.22
X112.168 Y71.583
X111.622 Y71.931
X111.067 Y72.264
X110.503 Y72.581
X109.929 Y72.881
X109.348 Y73.165
X108.758 Y73.432
X108.162 Y73.683
X107.559 Y73.918
X106.949 Y74.135
X106.334 Y74.336
X105.713 Y74.52
X105.088 Y74.687
X104.458 Y74.836
X103.825 Y74.969
X103.188 Y75.084
X102.548 Y75.181
X101.906 Y75.261
X101.261 Y75.323
X100.616 Y75.367
X99.969 Y75.393
X99.322 Y75.401
X98.675 Y75.391
X98.028 Y75.361
X97.383 Y75.314
X96.739 Y75.249
X96.097 Y75.166
X95.457 Y75.065
X94.821 Y74.947
X94.188 Y74.812
X93.559 Y74.659
X92.935 Y74.489
X92.315 Y74.303
X91.7 Y74.1
X91.092 Y73.88
X90.489 Y73.643
X89.893 Y73.39
X89.305 Y73.121
X88.724 Y72.836
X88.151 Y72.535
X87.586 Y72.218
X87.031 Y71.885
X86.486 Y71.537
X85.951 Y71.173
X85.425 Y70.795
X84.911 Y70.403
X84.407 Y69.996
X83.914 Y69.577
X83.433 Y69.144
X82.964 Y68.698
X82.507 Y68.239
X82.063 Y67.769
X81.631 Y67.286
X81.213 Y66.793
X80.808 Y66.288
X80.417 Y65.772
X80.04 Y65.246
X79.678 Y64.709
X79.331 Y64.163
X78.999 Y63.608
X78.683 Y63.043
X78.382 Y62.469
X78.098 Y61.888
X77.83 Y61.299
X77.579 Y60.702
X77.343 Y60.1
X77.124 Y59.491
X76.921 Y58.876
X76.735 Y58.256
X76.566 Y57.631
X76.413 Y57.002
X76.278 Y56.37
X76.159 Y55.733
X76.058 Y55.094
X75.974 Y54.452
X75.907 Y53.809
X75.858 Y53.163
X75.827 Y52.517
X75.813 Y51.87
X75.818 Y51.222
X75.841 Y50.576
X75.882 Y49.93
X75.941 Y49.285
X76.017 Y48.642
X76.11 Y48.002
X76.221 Y47.364
X76.349 Y46.73
X76.494 Y46.099
X76.656 Y45.472
X76.834 Y44.85
X77.029 Y44.233
X77.241 Y43.621
X77.469 Y43.016
X77.713 Y42.416
X77.973 Y41.824
X78.249 Y41.238
X78.541 Y40.661
X78.849 Y40.091
X79.173 Y39.531
X79.512 Y38.98
X79.866 Y38.438
X80.236 Y37.907
X80.619 Y37.385
X81.017 Y36.875
X81.428 Y36.375
X81.853 Y35.886
X82.29 Y35.409
X82.74 Y34.944
X83.202 Y34.491
X83.677 Y34.051
X84.163 Y33.623
X84.66 Y33.209
X85.168 Y32.808
X85.687 Y32.421
X86.216 Y32.048
X86.755 Y31.69
X87.303 Y31.346
X87.861 Y31.018
X88.428 Y30.706
X89.004 Y30.41
X89.587 Y30.13
X90.178 Y29.865
X90.776 Y29.617
X91.38 Y29.386
X91.99 Y29.17
X92.606 Y28.971
X93.227 Y28.788
X93.852 Y28.622
X94.482 Y28.473
X95.116 Y28.341
X95.753 Y28.226
X96.392 Y28.127
X97.034 Y28.046
X97.679 Y27.983
X98.324 Y27.937
X98.971 Y27.908
X99.618 Y27.897
X100.265 Y27.905
X100.912 Y27.931
X101.558 Y27.974
X102.202 Y28.035
X102.844 Y28.114
X103.484 Y28.209
X104.122 Y28.322
X104.756 Y28.452
X105.386 Y28.599
X106.012 Y28.762
X106.634 Y28.942
X107.251 Y29.138
X107.862 Y29.351
X108.468 Y29.58
X109.067 Y29.825
X109.659 Y30.085
X110.244 Y30.362
X110.822 Y30.654
X111.391 Y30.962
X111.952 Y31.285
X112.503 Y31.624
X113.045 Y31.978
X113.577 Y32.346
X114.099 Y32.729
X114.611 Y33.125
X115.112 Y33.535
X115.602 Y33.958
X116.081 Y34.393
X116.548 Y34.841
X117.003 Y35.301
X117.446 Y35.773
X117.877 Y36.256
X118.294 Y36.751
X118.699 Y37.256
X119.09 Y37.771
X119.468 Y38.297
X119.831 Y38.833
X120.18 Y39.378
X120.514 Y39.932
X120.833 Y40.495
X121.136 Y41.067
X121.424 Y41.647
X121.696 Y42.234
X121.952 Y42.829
X122.193 Y43.429
X122.418 Y44.036
X122.627 Y44.649
X122.819 Y45.267
X122.996 Y45.889
X123.156 Y46.516
X123.3 Y47.147
X123.427 Y47.782
X123.538 Y48.42
X123.632 Y49.06
X123.709 Y49.703
X123.769 Y50.347
X123.813 Y50.993
X123.838 Y51.64
X123.847 Y52.287
X123.837 Y52.934
X123.81 Y53.581
X123.765 Y54.226
X123.703 Y54.87
X123.624 Y55.513
X123.528 Y56.153
X123.415 Y56.79
X123.285 Y57.424
X123.139 Y58.055
X122.977 Y58.681
X122.798 Y59.303
X122.603 Y59.92
X122.391 Y60.532
X122.164 Y61.138
X121.921 Y61.738
X121.662 Y62.331
X121.388 Y62.917
X121.098 Y63.496
X120.792 Y64.067
X120.471 Y64.628
X120.135 Y65.181
X119.783 Y65.725
X119.417 Y66.259
X119.037 Y66.783
X118.643 Y67.296
X118.236 Y67.799
X117.815 Y68.291
X117.382 Y68.772
X116.937 Y69.241
X116.479 Y69.699
X116.009 Y70.144
X115.528 Y70.577
X115.036 Y70.997
X114.533 Y71.405
X114.019 Y71.799
X113.495 Y72.179
X112.962 Y72.545
X112.419 Y72.897
X111.866 Y73.234
X111.305 Y73.556
X110.735 Y73.862
X110.156 Y74.153
X109.571 Y74.428
X108.978 Y74.688
X108.378 Y74.932
X107.773 Y75.16
X107.161 Y75.372
X106.544 Y75.568
X105.923 Y75.749
X105.297 Y75.912
X104.666 Y76.06
X104.033 Y76.191
X103.396 Y76.306
X102.756 Y76.404
X102.114 Y76.486
X101.47 Y76.55
X100.824 Y76.598
X100.178 Y76.628
X99.531 Y76.642
X98.884 Y76.637
X98.237 Y76.615
X97.591 Y76.575
X96.946 Y76.519
X96.303 Y76.445
X95.662 Y76.355
X95.024 Y76.248
X94.388 Y76.125
X93.757 Y75.985
X93.128 Y75.828
X92.505 Y75.656
X91.885 Y75.468
X91.271 Y75.263
X90.663 Y75.043
X90.06 Y74.808
X89.463 Y74.556
X88.874 Y74.29
X88.291 Y74.008
X87.716 Y73.711
X87.149 Y73.398
X86.591 Y73.071
X86.042 Y72.728
X85.502 Y72.371
X84.972 Y72
X84.451 Y71.615
X83.941 Y71.217
X83.441 Y70.806
X82.952 Y70.382
X82.474 Y69.945
X82.008 Y69.497
X81.553 Y69.037
X81.11 Y68.565
X80.679 Y68.082
X80.261 Y67.588
X79.856 Y67.083
X79.463 Y66.568
X79.084 Y66.044
X78.719 Y65.509
X78.368 Y64.965
X78.032 Y64.413
X77.71 Y63.851
X77.404 Y63.281
X77.113 Y62.703
X76.837 Y62.117
X76.577 Y61.525
X76.332 Y60.926
X76.102 Y60.32
X75.888 Y59.71
X75.69 Y59.094
X75.507 Y58.473
X75.341 Y57.847
X75.19 Y57.218
X75.056 Y56.585
X74.937 Y55.948
X74.835 Y55.309
X74.75 Y54.668
X74.681 Y54.024
X74.629 Y53.379
X74.593 Y52.733
X74.574 Y52.086
X74.573 Y51.439
X74.589 Y50.792
X74.623 Y50.145
X74.673 Y49.5
X74.74 Y48.856
X74.823 Y48.214
X74.923 Y47.575
X75.04 Y46.938
X75.172 Y46.305
X75.321 Y45.675
X75.486 Y45.049
X75.666 Y44.427
X75.862 Y43.811
X76.074 Y43.199
X76.302 Y42.593
X76.545 Y41.993
X76.803 Y41.4
X77.076 Y40.813
X77.364 Y40.234
X77.668 Y39.662
X77.987 Y39.099
X78.32 Y38.544
X78.668 Y37.998
X79.031 Y37.462
X79.407 Y36.936
X79.797 Y36.419
X80.2 Y35.912
X80.615 Y35.416
X81.044 Y34.931
X81.484 Y34.457
X81.936 Y33.994
X82.4 Y33.542
X82.875 Y33.103
X83.362 Y32.676
X83.859 Y32.261
X84.366 Y31.86
X84.884 Y31.471
X85.411 Y31.096
X85.948 Y30.734
X86.494 Y30.386
X87.049 Y30.054
X87.613 Y29.736
X88.185 Y29.433
X88.765 Y29.146
X89.352 Y28.873
X89.946 Y28.616
X90.546 Y28.374
X91.152 Y28.148
X91.764 Y27.937
X92.381 Y27.742
X93.003 Y27.563
X93.63 Y27.399
X94.26 Y27.252
X94.893 Y27.12
X95.53 Y27.005
X96.17 Y26.906
X96.812 Y26.823
X97.456 Y26.756
X98.101 Y26.707
X98.747 Y26.674
X99.394 Y26.658
X100.041 Y26.659
X100.688 Y26.678
X101.335 Y26.713
X101.98 Y26.765
X102.623 Y26.834
X103.265 Y26.92
X103.904 Y27.022
X104.54 Y27.14
X105.174 Y27.274
X105.803 Y27.424
X106.429 Y27.59
X107.05 Y27.772
X107.666 Y27.969
X108.278 Y28.182
X108.883 Y28.41
X109.483 Y28.653
X110.076 Y28.912
X110.663 Y29.185
X111.242 Y29.473
X111.814 Y29.777
X112.378 Y30.095
X112.933 Y30.428
X113.479 Y30.776
X114.015 Y31.137
X114.543 Y31.512
X115.061 Y31.901
X115.568 Y32.302
X116.066 Y32.716
X116.553 Y33.143
X117.029 Y33.581
X117.494 Y34.031
X117.947 Y34.493
X118.39 Y34.965
X118.82 Y35.449
X119.238 Y35.943
X119.643 Y36.448
X120.036 Y36.962
X120.415 Y37.486
X120.782 Y38.02
X121.135 Y38.562
X121.473 Y39.114
X121.797 Y39.674
X122.107 Y40.243
X122.401 Y40.819
X122.681 Y41.403
X122.946 Y41.993
X123.196 Y42.59
X123.431 Y43.193
X123.651 Y43.802
X123.856 Y44.416
X124.045 Y45.035
X124.219 Y45.658
X124.377 Y46.286
X124.52 Y46.917
X124.647 Y47.552
X124.758 Y48.189
X124.854 Y48.829
X124.933 Y49.472
X124.996 Y50.116
X125.043 Y50.761
X125.074 Y51.408
X125.088 Y52.055
X125.084 Y52.702
X125.064 Y53.349
X125.028 Y53.995
X124.974 Y54.64
X124.905 Y55.284
X124.819 Y55.925
X124.717 Y56.564
X124.6 Y57.201
X124.466 Y57.834
X124.317 Y58.464
X124.152 Y59.09
X123.971 Y59.711
X123.775 Y60.328
X123.564 Y60.94
X123.337 Y61.546
X123.096 Y62.147
X122.839 Y62.741
X122.568 Y63.328
X122.282 Y63.909
X121.981 Y64.482
X121.665 Y65.047
X121.334 Y65.603
X120.989 Y66.151
X120.63 Y66.689
X120.257 Y67.218
X119.871 Y67.738
X119.472 Y68.247
X119.061 Y68.747
X118.637 Y69.236
X118.201 Y69.714
X117.753 Y70.182
X117.294 Y70.638
X116.823 Y71.082
X116.342 Y71.515
X115.85 Y71.935
X115.347 Y72.343
X114.835 Y72.739
X114.313 Y73.121
X113.781 Y73.491
X113.241 Y73.846
X112.691 Y74.188
X112.133 Y74.515
X111.566 Y74.827
X110.991 Y75.125
X110.409 Y75.408
X109.82 Y75.676
X109.224 Y75.93
X108.623 Y76.168
X108.015 Y76.391
X107.402 Y76.599
X106.785 Y76.792
X106.162 Y76.97
X105.536 Y77.132
X104.905 Y77.279
X104.271 Y77.41
X103.634 Y77.525
X102.995 Y77.624
X102.353 Y77.708
X101.709 Y77.776
X101.064 Y77.827
X100.418 Y77.863
X99.771 Y77.881
X99.124 Y77.883
X98.477 Y77.868
X97.83 Y77.836
X97.185 Y77.788
X96.541 Y77.724
X95.899 Y77.644
X95.259 Y77.548
X94.621 Y77.436
X93.987 Y77.308
X93.355 Y77.165
X92.728 Y77.007
X92.105 Y76.833
X91.486 Y76.643
X90.872 Y76.439
X90.263 Y76.22
X89.659 Y75.985
X89.062 Y75.736
X88.471 Y75.472
X87.887 Y75.194
X87.309 Y74.901
X86.74 Y74.594
X86.179 Y74.271
X85.626 Y73.935
X85.082 Y73.585
X84.546 Y73.221
X84.02 Y72.844
X83.504 Y72.454
X82.997 Y72.051
X82.501 Y71.636
X82.014 Y71.209
X81.539 Y70.77
X81.074 Y70.319
X80.62 Y69.858
X80.178 Y69.385
X79.747 Y68.902
X79.328 Y68.409
X78.922 Y67.905
X78.528 Y67.392
X78.146 Y66.869
X77.778 Y66.337
X77.423 Y65.796
X77.082 Y65.245
X76.755 Y64.687
X76.443 Y64.12
X76.144 Y63.546
X75.861 Y62.964
X75.592 Y62.375
X75.337 Y61.78
X75.098 Y61.179
X74.873 Y60.572
X74.663 Y59.96
X74.468 Y59.343
X74.287 Y58.721
X74.123 Y58.095
X73.973 Y57.465
X73.839 Y56.832
X73.72 Y56.196
X73.616 Y55.557
X73.529 Y54.916
X73.457 Y54.273
X73.4 Y53.628
X73.36 Y52.982
X73.336 Y52.335
X73.329 Y51.688
X73.338 Y51.041
X73.364 Y50.394
X73.406 Y49.748
X73.463 Y49.104
X73.537 Y48.461
X73.626 Y47.82
X73.731 Y47.181
X73.852 Y46.545
X73.988 Y45.912
X74.139 Y45.283
X74.305 Y44.658
X74.487 Y44.036
X74.684 Y43.42
X74.895 Y42.808
X75.121 Y42.202
X75.362 Y41.601
X75.618 Y41.006
X75.887 Y40.418
X76.172 Y39.836
X76.471 Y39.262
X76.784 Y38.696
X77.112 Y38.138
X77.454 Y37.589
X77.809 Y37.048
X78.178 Y36.516
X78.56 Y35.993
X78.954 Y35.48
X79.361 Y34.977
X79.78 Y34.483
X80.211 Y34
X80.654 Y33.528
X81.107 Y33.067
X81.572 Y32.616
X82.048 Y32.177
X82.534 Y31.75
X83.03 Y31.334
X83.536 Y30.931
X84.052 Y30.54
X84.577 Y30.162
X85.112 Y29.797
X85.655 Y29.445
X86.207 Y29.107
X86.768 Y28.784
X87.336 Y28.475
X87.912 Y28.18
X88.495 Y27.899
X89.086 Y27.633
X89.682 Y27.382
X90.284 Y27.145
X90.892 Y26.923
X91.505 Y26.715
X92.123 Y26.523
X92.746 Y26.346
X93.372 Y26.184
X94.003 Y26.037
X94.636 Y25.905
X95.273 Y25.788
X95.912 Y25.688
X96.554 Y25.602
X97.197 Y25.532
X97.842 Y25.478
X98.488 Y25.44
X99.135 Y25.419
X99.782 Y25.414
X100.429 Y25.425
X101.076 Y25.453
X101.722 Y25.496
X102.366 Y25.556
X103.009 Y25.631
X103.65 Y25.722
X104.288 Y25.828
X104.924 Y25.95
X105.557 Y26.087
X106.186 Y26.24
X106.811 Y26.407
X107.432 Y26.589
X108.048 Y26.787
X108.66 Y26.999
X109.266 Y27.225
X109.867 Y27.466
X110.461 Y27.722
X111.049 Y27.992
X111.631 Y28.276
X112.205 Y28.575
X112.772 Y28.888
X113.33 Y29.215
X113.88 Y29.556
X114.422 Y29.911
X114.954 Y30.278
X115.478 Y30.659
X115.992 Y31.051
X116.497 Y31.457
X116.992 Y31.874
X117.476 Y32.303
X117.951 Y32.743
X118.415 Y33.195
X118.867 Y33.657
X119.309 Y34.13
X119.74 Y34.613
X120.158 Y35.107
X120.565 Y35.61
X120.96 Y36.123
X121.343 Y36.645
X121.713 Y37.176
X122.07 Y37.716
X122.413 Y38.265
X122.742 Y38.822
X123.058 Y39.387
X123.36 Y39.959
X123.647 Y40.539
X123.921 Y41.126
X124.18 Y41.719
X124.425 Y42.318
X124.656 Y42.922
X124.872 Y43.532
X125.074 Y44.147
X125.261 Y44.767
X125.433 Y45.391
X125.591 Y46.019
X125.734 Y46.65
X125.861 Y47.284
X125.974 Y47.922
X126.072 Y48.562
X126.154 Y49.204
X126.221 Y49.847
X126.272 Y50.492
X126.308 Y51.139
X126.327 Y51.786
X126.331 Y52.433
X126.318 Y53.08
X126.29 Y53.727
X126.245 Y54.372
X126.185 Y55.017
X126.11 Y55.659
X126.019 Y56.3
X125.913 Y56.939
X125.792 Y57.575
X125.655 Y58.207
X125.504 Y58.836
X125.338 Y59.462
X125.157 Y60.083
X124.961 Y60.7
X124.751 Y61.312
X124.526 Y61.919
X124.286 Y62.521
X124.033 Y63.116
X123.765 Y63.705
X123.483 Y64.288
X123.187 Y64.863
X122.876 Y65.431
X122.551 Y65.991
X122.213 Y66.543
X121.861 Y67.086
X121.496 Y67.62
X121.118 Y68.146
X120.728 Y68.662
X120.325 Y69.169
X119.91 Y69.666
X119.484 Y70.152
X119.046 Y70.629
X118.597 Y71.095
X118.137 Y71.55
X117.666 Y71.995
X117.185 Y72.428
X116.694 Y72.849
X116.193 Y73.259
X115.682 Y73.657
X115.163 Y74.042
X114.634 Y74.415
X114.096 Y74.775
X113.549 Y75.121
X112.994 Y75.454
X112.43 Y75.772
X111.859 Y76.077
X111.281 Y76.368
X110.696 Y76.645
X110.105 Y76.908
X109.507 Y77.156
X108.904 Y77.39
X108.295 Y77.61
X107.681 Y77.815
X107.063 Y78.006
X106.44 Y78.182
X105.813 Y78.344
X105.438 Y78.431
X105.383 Y78.441
X105.327 Y78.448
X105.27 Y78.45
X94.654
X94.008 Y78.418
X93.364 Y78.349
X92.727 Y78.236
X92.096 Y78.091
X91.471 Y77.922
X90.852 Y77.734
X90.239 Y77.528
X89.631 Y77.306
X89.029 Y77.068
X88.432 Y76.816
X87.843 Y76.55
X87.259 Y76.269
X86.683 Y75.975
X86.114 Y75.666
X85.553 Y75.344
X84.999 Y75.008
X84.454 Y74.659
X83.918 Y74.297
X83.39 Y73.923
X82.871 Y73.536
X82.362 Y73.137
X81.862 Y72.726
X81.372 Y72.303
X80.892 Y71.869
X80.422 Y71.423
X79.963 Y70.967
X79.515 Y70.5
X79.078 Y70.023
X78.652 Y69.536
X78.237 Y69.039
X77.834 Y68.532
X77.443 Y68.016
X77.064 Y67.492
X76.698 Y66.958
X76.345 Y66.416
X76.005 Y65.865
X75.678 Y65.306
X75.365 Y64.74
X75.066 Y64.166
X74.78 Y63.585
X74.508 Y62.998
X74.25 Y62.404
X74.006 Y61.805
X73.776 Y61.2
X73.561 Y60.589
X73.36 Y59.974
X73.173 Y59.354
X73.001 Y58.73
X72.844 Y58.103
X72.701 Y57.471
X72.573 Y56.837
X72.459 Y56.2
X72.361 Y55.56
X72.277 Y54.918
X72.208 Y54.275
X72.155 Y53.63
X72.117 Y52.984
X72.094 Y52.337
X72.087 Y51.69
X72.096 Y51.043
X72.12 Y50.396
X72.159 Y49.75
X72.214 Y49.105
X72.284 Y48.461
X72.369 Y47.82
X72.469 Y47.18
X72.584 Y46.543
X72.714 Y45.909
X72.858 Y45.279
X73.018 Y44.651
X73.191 Y44.028
X73.38 Y43.409
X73.582 Y42.794
X73.799 Y42.184
X74.03 Y41.579
X74.274 Y40.98
X74.533 Y40.387
X74.805 Y39.8
X75.092 Y39.219
X75.392 Y38.646
X75.706 Y38.08
X76.033 Y37.522
X76.374 Y36.971
X76.727 Y36.429
X77.094 Y35.896
X77.473 Y35.371
X77.864 Y34.855
X78.267 Y34.349
X78.681 Y33.852
X79.108 Y33.365
X79.545 Y32.888
X79.994 Y32.422
X80.453 Y31.965
X80.923 Y31.52
X81.403 Y31.086
X81.892 Y30.663
X82.392 Y30.251
X82.901 Y29.851
X83.419 Y29.463
X83.945 Y29.087
X84.481 Y28.724
X85.025 Y28.373
X85.578 Y28.036
X86.138 Y27.712
X86.706 Y27.402
X87.281 Y27.105
X87.863 Y26.822
X88.452 Y26.553
X89.047 Y26.298
X89.647 Y26.056
X90.253 Y25.829
X90.864 Y25.616
X91.48 Y25.418
X92.101 Y25.234
X92.726 Y25.064
X93.354 Y24.909
X93.723 Y24.826
X93.931 Y24.812
X94.133 Y24.858
X94.314 Y24.962
X94.456 Y25.113
X94.507 Y25.175
X94.553 Y25.221
X94.599 Y25.26
X94.654 Y25.302
X94.801 Y25.381
X94.876 Y25.407
X94.948 Y25.425
X95.022 Y25.437
X95.095 Y25.442
X95.242 Y25.431
X95.294 Y25.42
X95.346 Y25.407
X95.389 Y25.392
X95.536 Y25.331
X95.831 Y25.203
X95.904 Y25.173
X95.978 Y25.152
X96.167 Y25.113
X96.272 Y25.095
X96.419 Y25.082
X96.566 Y25.073
X105.241
X105.888 Y25.106
X106.21 Y25.138
X106.851 Y25.229
X107.483 Y25.364
X108.109 Y25.532
X108.727 Y25.723
X109.339 Y25.934
X109.944 Y26.162
X110.544 Y26.406
X111.137 Y26.665
X111.724 Y26.938
X112.304 Y27.225
X112.877 Y27.526
X113.443 Y27.841
X114.001 Y28.169
X114.551 Y28.51
X115.092 Y28.864
X115.626 Y29.23
X116.151 Y29.609
X116.667 Y30
X117.173 Y30.403
X117.671 Y30.817
X118.159 Y31.242
X118.637 Y31.678
X119.104 Y32.126
X119.562 Y32.584
X120.008 Y33.052
X120.444 Y33.53
X120.869 Y34.018
X121.283 Y34.516
X121.686 Y35.023
X122.076 Y35.539
X122.455 Y36.064
X122.822 Y36.597
X123.176 Y37.139
X123.517 Y37.689
X123.845 Y38.247
X124.16 Y38.812
X124.462 Y39.385
X124.75 Y39.964
X125.025 Y40.55
X125.287 Y41.142
X125.534 Y41.74
X125.769 Y42.343
X125.989 Y42.952
X126.195 Y43.565
X126.387 Y44.183
X126.565 Y44.806
X126.729 Y45.432
X126.879 Y46.062
X127.014 Y46.695
X127.135 Y47.33
X127.242 Y47.969
X127.334 Y48.609
X127.411 Y49.252
X127.474 Y49.896
X127.521 Y50.542
X127.554 Y51.188
X127.571 Y51.835
X127.573 Y52.482
X127.56 Y53.129
X127.532 Y53.776
X127.489 Y54.422
X127.43 Y55.066
X127.357 Y55.709
X127.27 Y56.351
X127.168 Y56.99
X127.051 Y57.626
X126.919 Y58.26
X126.773 Y58.891
X126.613 Y59.518
X126.438 Y60.141
X126.25 Y60.76
X126.047 Y61.375
X125.83 Y61.984
X125.6 Y62.589
X125.356 Y63.189
X125.098 Y63.782
X124.826 Y64.37
X124.541 Y64.951
X124.242 Y65.525
X123.93 Y66.092
X123.605 Y66.651
X123.266 Y67.203
X122.915 Y67.746
X122.551 Y68.282
X122.175 Y68.808
X121.786 Y69.326
X121.386 Y69.835
X120.975 Y70.335
X120.552 Y70.825
X120.118 Y71.305
X119.673 Y71.775
X119.218 Y72.235
X118.752 Y72.684
X118.276 Y73.123
X117.791 Y73.551
X117.295 Y73.967
X116.791 Y74.373
X116.277 Y74.766
X115.754 Y75.148
X115.223 Y75.518
X114.683 Y75.875
X114.135 Y76.219
X113.579 Y76.551
X113.016 Y76.869
X112.445 Y77.174
X111.867 Y77.466
X111.283 Y77.744
X110.692 Y78.009
X110.096 Y78.26
X109.746 Y78.398
X109.658 Y78.427
X109.567 Y78.444
X109.474 Y78.45
X105.27
G3 X105.094 Y77.877 I0.012 J-0.317
G1 X105.151 Y77.835 Z-0.987
X105.205 Y77.795 Z-0.964
X105.253 Y77.76 Z-0.926
X105.294 Y77.73 Z-0.876
X105.324 Y77.707 Z-0.815
X105.343 Y77.694 Z-0.748
X105.35 Y77.689 Z-0.678
G0 Z5.08
X104.215 Y25.457
Z-0.36
G1 Z-0.678 F1905
X104.222 Y25.453 Z-0.748
X104.242 Y25.441 Z-0.815
X104.274 Y25.422 Z-0.876
X104.318 Y25.396 Z-0.926
X104.369 Y25.365 Z-0.964
X104.427 Y25.331 Z-0.987
X104.488 Y25.295 Z-0.995
G3 X105.241 Y25.074 I0.809 J1.36
G1 X109.212 Y25.073
X109.67 Y25.096
X110.082 Y25.15
X110.614 Y25.264
X111.234 Y25.45
X111.84 Y25.678
X112.434 Y25.935
X113.018 Y26.214
X113.593 Y26.512
X114.159 Y26.825
X114.717 Y27.153
X115.267 Y27.494
X115.809 Y27.848
X116.343 Y28.214
X116.868 Y28.592
X117.385 Y28.982
X117.893 Y29.383
X118.392 Y29.795
X118.881 Y30.218
X119.362 Y30.652
X119.832 Y31.096
X120.293 Y31.551
X120.744 Y32.015
X121.184 Y32.49
X121.614 Y32.974
X122.033 Y33.467
X122.442 Y33.969
X122.839 Y34.48
X123.225 Y34.999
X123.599 Y35.527
X123.962 Y36.064
X124.312 Y36.608
X124.65 Y37.159
X124.976 Y37.719
X125.29 Y38.285
X125.59 Y38.858
X125.878 Y39.438
X126.153 Y40.024
X126.415 Y40.615
X126.664 Y41.213
X126.9 Y41.816
X127.123 Y42.423
X127.332 Y43.036
X127.528 Y43.652
X127.711 Y44.273
X127.88 Y44.898
X128.034 Y45.527
X128.176 Y46.158
X128.303 Y46.793
X128.417 Y47.43
X128.516 Y48.07
X128.602 Y48.711
X128.673 Y49.354
X128.731 Y49.999
X128.774 Y50.645
X128.802 Y51.291
X128.816 Y51.938
Y52.586
X128.801 Y53.233
X128.772 Y53.879
X128.729 Y54.525
X128.671 Y55.17
X128.599 Y55.813
X128.513 Y56.454
X128.413 Y57.094
X128.299 Y57.731
X128.171 Y58.365
X128.029 Y58.997
X127.873 Y59.625
X127.704 Y60.25
X127.521 Y60.87
X127.324 Y61.487
X127.114 Y62.099
X126.89 Y62.706
X126.653 Y63.309
X126.403 Y63.906
X126.14 Y64.497
X125.864 Y65.083
X125.575 Y65.662
X125.273 Y66.234
X124.959 Y66.8
X124.631 Y67.358
X124.291 Y67.909
X123.939 Y68.452
X123.576 Y68.987
X123.2 Y69.514
X122.813 Y70.033
X122.415 Y70.543
X122.005 Y71.044
X121.585 Y71.536
X121.154 Y72.019
X120.712 Y72.492
X120.26 Y72.956
X119.798 Y73.409
X119.326 Y73.852
X118.845 Y74.285
X118.354 Y74.707
X117.854 Y75.118
X117.346 Y75.518
X116.829 Y75.907
X116.303 Y76.285
X115.769 Y76.65
X115.227 Y77.004
X114.677 Y77.346
X114.12 Y77.675
X113.555 Y77.992
X112.984 Y78.296
X112.836 Y78.371
X112.729 Y78.414
X112.617 Y78.441
X112.502 Y78.45
X109.474
G3 X109.298 Y77.877 I0.011 J-0.317
G1 X109.354 Y77.835 Z-0.987
X109.408 Y77.795 Z-0.964
X109.457 Y77.759 Z-0.926
X109.497 Y77.73 Z-0.876
X109.528 Y77.707 Z-0.815
X109.547 Y77.693 Z-0.748
X109.553 Y77.689 Z-0.678
G0 Z5.08
X108.185 Y25.457
Z-0.36
G1 Z-0.678 F1905
X108.192 Y25.453 Z-0.748
X108.212 Y25.441 Z-0.815
X108.245 Y25.421 Z-0.876
X108.288 Y25.396 Z-0.926
X108.34 Y25.365 Z-0.964
X108.397 Y25.331 Z-0.987
X108.458 Y25.295 Z-0.995
G3 X109.212 Y25.074 I0.809 J1.36
G1 X112.153 Y25.073
X112.5 Y25.091
X112.818 Y25.132
X113.204 Y25.215
X113.696 Y25.362
X114.299 Y25.597
X114.883 Y25.876
X115.452 Y26.185
X116.008 Y26.515
X116.554 Y26.863
X117.09 Y27.226
X117.616 Y27.602
X118.134 Y27.991
X118.643 Y28.39
X119.143 Y28.801
X119.635 Y29.222
X120.117 Y29.654
X120.59 Y30.096
X121.053 Y30.548
X121.507 Y31.009
X121.951 Y31.48
X122.385 Y31.961
X122.808 Y32.45
X123.221 Y32.949
X123.624 Y33.455
X124.015 Y33.971
X124.396 Y34.494
X124.766 Y35.025
X125.124 Y35.564
X125.47 Y36.111
X125.805 Y36.665
X126.128 Y37.226
X126.439 Y37.793
X126.738 Y38.368
X127.024 Y38.948
X127.299 Y39.534
X127.561 Y40.126
X127.81 Y40.723
X128.047 Y41.325
X128.271 Y41.933
X128.482 Y42.544
X128.681 Y43.16
X128.866 Y43.78
X129.039 Y44.404
X129.198 Y45.032
X129.344 Y45.662
X129.477 Y46.296
X129.596 Y46.932
X129.702 Y47.57
X129.794 Y48.211
X129.873 Y48.853
X129.939 Y49.497
X129.991 Y50.142
X130.028 Y50.788
X130.053 Y51.435
X130.063 Y52.082
X130.059 Y52.729
X130.042 Y53.376
X130.011 Y54.023
X129.966 Y54.669
X129.908 Y55.313
X129.836 Y55.956
X129.751 Y56.598
X129.652 Y57.238
X129.54 Y57.875
X129.414 Y58.51
X129.275 Y59.142
X129.123 Y59.771
X128.957 Y60.397
X128.779 Y61.019
X128.587 Y61.637
X128.382 Y62.251
X128.164 Y62.86
X127.933 Y63.465
X127.69 Y64.065
X127.434 Y64.659
X127.166 Y65.248
X126.885 Y65.831
X126.591 Y66.408
X126.286 Y66.979
X125.968 Y67.542
X125.638 Y68.099
X125.296 Y68.649
X124.943 Y69.191
X124.579 Y69.726
X124.203 Y70.253
X123.816 Y70.772
X123.418 Y71.283
X123.01 Y71.785
X122.591 Y72.278
X122.162 Y72.763
X121.723 Y73.238
X121.274 Y73.704
X120.815 Y74.161
X120.346 Y74.607
X119.868 Y75.044
X119.382 Y75.47
X118.886 Y75.886
X118.381 Y76.292
X117.869 Y76.687
X117.348 Y77.071
X116.819 Y77.443
X116.282 Y77.805
X115.737 Y78.155
X115.435 Y78.341
X115.313 Y78.401
X115.182 Y78.437
X115.047 Y78.45
X112.502
G3 X112.326 Y77.877 I0.011 J-0.317
G1 X112.383 Y77.835 Z-0.987
X112.437 Y77.795 Z-0.964
X112.485 Y77.759 Z-0.926
X112.526 Y77.73 Z-0.876
X112.556 Y77.707 Z-0.815
X112.575 Y77.693 Z-0.748
X112.582 Y77.689 Z-0.678
G0 Z5.08
X111.126 Y25.457
Z-0.36
G1 Z-0.678 F1905
X111.133 Y25.453 Z-0.748
X111.153 Y25.441 Z-0.815
X111.186 Y25.421 Z-0.876
X111.229 Y25.396 Z-0.926
X111.281 Y25.365 Z-0.964
X111.338 Y25.331 Z-0.987
X111.399 Y25.295 Z-0.995
G3 X112.153 Y25.074 I0.809 J1.36
G1 X114.652 Y25.073
X114.94 Y25.088
X115.21 Y25.123
X115.524 Y25.19
X115.922 Y25.309
X116.418 Y25.503
X117.001 Y25.785
X117.561 Y26.109
X118.105 Y26.46
X118.635 Y26.831
X119.153 Y27.219
X119.661 Y27.62
X120.159 Y28.033
X120.648 Y28.457
X121.128 Y28.892
X121.598 Y29.337
X122.059 Y29.791
X122.51 Y30.255
X122.952 Y30.728
X123.384 Y31.21
X123.806 Y31.7
X124.218 Y32.199
X124.62 Y32.707
X125.012 Y33.222
X125.393 Y33.745
X125.763 Y34.276
X126.123 Y34.814
X126.471 Y35.36
X126.808 Y35.912
X127.134 Y36.471
X127.449 Y37.037
X127.751 Y37.609
X128.042 Y38.187
X128.321 Y38.771
X128.588 Y39.361
X128.843 Y39.956
X129.086 Y40.556
X129.317 Y41.16
X129.536 Y41.769
X129.742 Y42.383
X129.936 Y43
X130.117 Y43.622
X130.286 Y44.246
X130.442 Y44.874
X130.586 Y45.506
X130.717 Y46.139
X130.834 Y46.776
X130.939 Y47.415
X131.031 Y48.055
X131.11 Y48.698
X131.176 Y49.341
X131.229 Y49.986
X131.269 Y50.632
X131.296 Y51.279
X131.309 Y51.926
Y52.573
X131.296 Y53.22
X131.269 Y53.867
X131.23 Y54.513
X131.177 Y55.158
X131.111 Y55.802
X131.031 Y56.444
X130.939 Y57.085
X130.834 Y57.724
X130.717 Y58.36
X130.586 Y58.994
X130.442 Y59.625
X130.286 Y60.253
X130.117 Y60.878
X129.936 Y61.499
X129.741 Y62.117
X129.535 Y62.73
X129.316 Y63.339
X129.085 Y63.944
X128.841 Y64.543
X128.586 Y65.138
X128.318 Y65.727
X128.038 Y66.311
X127.747 Y66.889
X127.443 Y67.46
X127.128 Y68.026
X126.802 Y68.585
X126.464 Y69.137
X126.115 Y69.682
X125.755 Y70.219
X125.383 Y70.749
X125.001 Y71.272
X124.609 Y71.787
X124.206 Y72.293
X123.793 Y72.792
X123.37 Y73.281
X122.938 Y73.763
X122.495 Y74.235
X122.043 Y74.699
X121.582 Y75.153
X121.112 Y75.597
X120.633 Y76.032
X120.145 Y76.458
X119.648 Y76.873
X119.144 Y77.278
X118.631 Y77.673
X118.11 Y78.058
X117.748 Y78.314
X117.616 Y78.388
X117.471 Y78.434
X117.32 Y78.45
X115.047
G3 X114.87 Y77.875 I0.011 J-0.318
G1 X114.928 Y77.835 Z-0.987
X114.982 Y77.795 Z-0.964
X115.03 Y77.759 Z-0.926
X115.071 Y77.73 Z-0.876
X115.101 Y77.707 Z-0.815
X115.12 Y77.693 Z-0.748
X115.127 Y77.689 Z-0.678
G0 Z5.08
X113.626 Y25.457
Z-0.36
G1 Z-0.678 F1905
X113.633 Y25.453 Z-0.748
X113.653 Y25.441 Z-0.815
X113.685 Y25.421 Z-0.876
X113.729 Y25.396 Z-0.926
X113.78 Y25.365 Z-0.964
X113.838 Y25.331 Z-0.987
X113.899 Y25.295 Z-0.995
G3 X114.652 Y25.074 I0.809 J1.36
G1 X116.858 Y25.073
X117.149 Y25.088
X117.392 Y25.12
X117.664 Y25.178
X118.007 Y25.281
X118.411 Y25.438
X118.93 Y25.69
X119.488 Y26.018
X120.023 Y26.382
X120.542 Y26.769
X121.046 Y27.175
X121.538 Y27.595
X122.02 Y28.028
X122.491 Y28.472
X122.953 Y28.925
X123.405 Y29.388
X123.847 Y29.86
X124.281 Y30.341
X124.704 Y30.831
X125.118 Y31.328
X125.522 Y31.834
X125.916 Y32.347
X126.3 Y32.868
X126.674 Y33.397
X127.037 Y33.932
X127.39 Y34.475
X127.731 Y35.025
X128.062 Y35.581
X128.382 Y36.144
X128.691 Y36.713
X128.988 Y37.288
X129.274 Y37.868
X129.549 Y38.454
X129.812 Y39.045
X130.063 Y39.642
X130.303 Y40.243
X130.532 Y40.848
X130.748 Y41.458
X130.953 Y42.072
X131.146 Y42.69
X131.326 Y43.312
X131.495 Y43.937
X131.651 Y44.565
X131.795 Y45.196
X131.927 Y45.829
X132.047 Y46.465
X132.154 Y47.104
X132.249 Y47.744
X132.331 Y48.386
X132.401 Y49.029
X132.458 Y49.674
X132.502 Y50.32
X132.534 Y50.966
X132.553 Y51.613
X132.559 Y52.26
X132.552 Y52.908
X132.533 Y53.554
X132.5 Y54.201
X132.455 Y54.847
X132.398 Y55.491
X132.328 Y56.135
X132.245 Y56.777
X132.15 Y57.417
X132.043 Y58.055
X131.921 Y58.701
X131.904 Y58.764
X131.883 Y58.826
X131.855 Y58.886
X124.391 Y73.504
X124.068 Y74.065
X123.703 Y74.599
X123.297 Y75.103
X122.865 Y75.585
X122.415 Y76.051
X121.951 Y76.502
X121.476 Y76.942
X120.991 Y77.37
X120.496 Y77.788
X119.994 Y78.195
X119.867 Y78.294
X119.728 Y78.379
X119.574 Y78.432
X119.412 Y78.45
G3 X119.105 Y78.122 Z-0.792 I0.011 J-0.318
G1 X119.113 Y78.063
X119.131 Y78.007
X119.16 Y77.956
X119.197 Y77.91
X119.205 Y77.902
X123.877 Y73.147
G3 X124.238 Y73.082 I0.227 J0.223
X124.392 Y73.505 Z-0.995 I-0.134 J0.288
G1 X122.664 Y76.887
X122.429 Y77.295
X122.183 Y77.653
X121.818 Y78.101
X121.756 Y78.161
X121.694 Y78.208
X121.627 Y78.248
G3 X121.202 Y78.104 Z-0.792 I-0.14 J-0.285
X121.231 Y77.775 I0.285 J-0.141
G1 X122.12 Y76.565
G3 X122.511 Y76.465 I0.256 J0.188
X122.664 Y76.887 Z-0.995 I-0.135 J0.288
G1 X122.363 Y77.476
X122.299 Y77.596
X122.283 Y77.623
X122.185 Y77.77
X122.152 Y77.811
X122.06 Y77.917
X122.005 Y77.971
X121.903 Y78.064
X121.857 Y78.099
X121.71 Y78.202
X121.697 Y78.211
X121.563 Y78.282
X121.416 Y78.344
X121.38 Y78.358
X121.122 Y78.423
X121.086 Y78.431
X121.049 Y78.434
X120.534 Y78.45
X117.32
G3 X117.143 Y77.875 I0.011 J-0.318
G1 X117.201 Y77.835 Z-0.987
X117.255 Y77.795 Z-0.964
X117.303 Y77.759 Z-0.926
X117.344 Y77.73 Z-0.876
X117.374 Y77.707 Z-0.815
X117.393 Y77.693 Z-0.748
X117.4 Y77.689 Z-0.678
G0 Z5.08
X115.831 Y25.457
Z-0.36
G1 Z-0.678 F1905
X115.838 Y25.453 Z-0.748
X115.859 Y25.441 Z-0.815
X115.891 Y25.421 Z-0.876
X115.934 Y25.396 Z-0.926
X115.986 Y25.365 Z-0.964
X116.044 Y25.331 Z-0.987
X116.104 Y25.295 Z-0.995
G3 X116.858 Y25.074 I0.809 J1.36
G1 X118.917 Y25.073
X119.193 Y25.087
X119.414 Y25.116
X119.661 Y25.169
X119.968 Y25.261
X120.32 Y25.398
X120.763 Y25.613
X121.321 Y25.941
X121.851 Y26.313
X122.36 Y26.713
X122.852 Y27.133
X123.33 Y27.569
X123.797 Y28.018
X124.253 Y28.477
X124.698 Y28.946
X125.134 Y29.425
X125.56 Y29.912
X125.977 Y30.407
X126.384 Y30.91
X126.782 Y31.421
X127.169 Y31.939
X127.547 Y32.465
X127.914 Y32.998
X128.272 Y33.537
X128.619 Y34.084
X128.955 Y34.637
X129.281 Y35.196
X129.596 Y35.761
X129.901 Y36.332
X130.194 Y36.909
X130.477 Y37.491
X130.749 Y38.079
X131.01 Y38.671
X131.259 Y39.268
X131.497 Y39.87
X131.725 Y40.476
X131.94 Y41.086
X132.144 Y41.7
X132.337 Y42.318
X132.518 Y42.94
X132.688 Y43.564
X132.846 Y44.192
X132.992 Y44.822
X133.126 Y45.455
X133.248 Y46.091
X133.359 Y46.729
X133.457 Y47.368
X133.544 Y48.01
X133.618 Y48.653
X133.68 Y49.297
X133.73 Y49.942
X133.767 Y50.588
X133.792 Y51.235
X133.805 Y51.882
X133.806 Y52.529
X133.794 Y53.177
X133.77 Y53.823
X133.734 Y54.47
X133.686 Y55.115
X133.678 Y55.202
X133.663 Y55.294
X133.637 Y55.384
X133.6 Y55.47
X131.855 Y58.886
G3 X131.265 Y58.783 I-0.277 J-0.154
G1 X131.253 Y58.713 Z-0.987
X131.242 Y58.647 Z-0.964
X131.233 Y58.587 Z-0.926
X131.225 Y58.538 Z-0.876
X131.219 Y58.501 Z-0.815
X131.215 Y58.477 Z-0.748
X131.214 Y58.469 Z-0.678
G0 Z5.08
X117.89 Y25.457
Z-0.36
G1 Z-0.678 F1905
X117.897 Y25.453 Z-0.748
X117.917 Y25.441 Z-0.815
X117.95 Y25.421 Z-0.876
X117.993 Y25.396 Z-0.926
X118.045 Y25.365 Z-0.964
X118.102 Y25.331 Z-0.987
X118.163 Y25.295 Z-0.995
G3 X118.917 Y25.074 I0.809 J1.36
G1 X120.975 Y25.073
X121.127 Y25.081
X121.331 Y25.109
X121.566 Y25.16
X121.85 Y25.247
X122.173 Y25.375
X122.572 Y25.572
X123.068 Y25.867
X123.595 Y26.243
X124.097 Y26.651
X124.58 Y27.083
X125.046 Y27.531
X125.5 Y27.993
X125.942 Y28.466
X126.373 Y28.948
X126.795 Y29.439
X127.206 Y29.939
X127.608 Y30.446
X128 Y30.961
X128.382 Y31.484
X128.755 Y32.013
X129.117 Y32.549
X129.47 Y33.092
X129.813 Y33.641
X130.145 Y34.196
X130.468 Y34.757
X130.78 Y35.324
X131.082 Y35.897
X131.373 Y36.475
X131.654 Y37.058
X131.924 Y37.646
X132.183 Y38.239
X132.432 Y38.836
X132.67 Y39.438
X132.897 Y40.044
X133.113 Y40.655
X133.318 Y41.268
X133.512 Y41.886
X133.694 Y42.507
X133.866 Y43.131
X134.026 Y43.758
X134.175 Y44.388
X134.313 Y45.02
X134.439 Y45.655
X134.554 Y46.292
X134.657 Y46.931
X134.748 Y47.572
X134.827 Y48.214
X134.895 Y48.858
X134.951 Y49.503
X134.995 Y50.148
X135.027 Y50.795
X135.047 Y51.442
X135.056 Y52.089
X135.054 Y52.447
X135.045 Y52.562
X135.017 Y52.674
X134.973 Y52.78
X133.6 Y55.47
G3 X133.008 Y55.367 I-0.278 J-0.155
G1 X132.998 Y55.297 Z-0.987
X132.987 Y55.23 Z-0.964
X132.977 Y55.171 Z-0.926
X132.969 Y55.121 Z-0.876
X132.963 Y55.084 Z-0.815
X132.959 Y55.061 Z-0.748
X132.958 Y55.053 Z-0.678
G0 Z5.08
X119.949 Y25.457
Z-0.36
G1 Z-0.678 F1905
X119.956 Y25.453 Z-0.748
X119.976 Y25.441 Z-0.815
X120.008 Y25.421 Z-0.876
X120.052 Y25.396 Z-0.926
X120.103 Y25.365 Z-0.964
X120.161 Y25.331 Z-0.987
X120.222 Y25.295 Z-0.995
G3 X120.975 Y25.074 I0.808 J1.36
G1 X122.74 Y25.073
X122.963 Y25.084
X123.148 Y25.109
X123.368 Y25.156
X123.63 Y25.234
X123.924 Y25.349
X124.282 Y25.522
X124.719 Y25.779
X125.248 Y26.152
X125.747 Y26.564
X126.223 Y27.003
X126.68 Y27.461
X127.123 Y27.933
X127.553 Y28.416
X127.972 Y28.91
X128.38 Y29.412
X128.778 Y29.922
X129.167 Y30.44
X129.546 Y30.965
X129.915 Y31.496
X130.274 Y32.034
X130.624 Y32.579
X130.964 Y33.13
X131.295 Y33.686
X131.615 Y34.249
X131.926 Y34.816
X132.226 Y35.39
X132.516 Y35.968
X132.797 Y36.552
X133.066 Y37.14
X133.326 Y37.733
X133.575 Y38.33
X133.814 Y38.932
X134.042 Y39.537
X134.26 Y40.147
X134.467 Y40.76
X134.663 Y41.377
X134.849 Y41.997
X135.024 Y42.62
X135.188 Y43.246
X135.341 Y43.875
X135.483 Y44.506
X135.613 Y45.14
X135.733 Y45.776
X135.841 Y46.414
X135.938 Y47.054
X136.024 Y47.696
X136.099 Y48.339
X136.162 Y48.983
X136.213 Y49.628
X136.241 Y50.071
X136.237 Y50.202
X136.21 Y50.331
X136.161 Y50.453
X134.973 Y52.78
G3 X134.381 Y52.677 I-0.278 J-0.154
G1 X134.371 Y52.607 Z-0.987
X134.36 Y52.541 Z-0.964
X134.35 Y52.482 Z-0.926
X134.342 Y52.432 Z-0.876
X134.336 Y52.395 Z-0.815
X134.332 Y52.372 Z-0.748
X134.331 Y52.364 Z-0.678
G0 Z5.08
X121.713 Y25.457
Z-0.36
G1 Z-0.678 F1905
X121.72 Y25.453 Z-0.748
X121.74 Y25.441 Z-0.815
X121.773 Y25.421 Z-0.876
X121.816 Y25.396 Z-0.926
X121.868 Y25.365 Z-0.964
X121.925 Y25.331 Z-0.987
X121.986 Y25.295 Z-0.995
G3 X122.74 Y25.074 I0.809 J1.36
G1 X124.504 Y25.073
X124.729 Y25.085
X124.908 Y25.108
X125.124 Y25.154
X125.365 Y25.226
X125.644 Y25.335
X125.973 Y25.495
X126.373 Y25.73
X126.851 Y26.066
X127.349 Y26.48
X127.82 Y26.924
X128.27 Y27.389
X128.704 Y27.87
X129.123 Y28.362
X129.531 Y28.865
X129.927 Y29.377
X130.314 Y29.896
X130.69 Y30.422
X131.057 Y30.956
X131.414 Y31.495
X131.762 Y32.041
X132.1 Y32.593
X132.429 Y33.15
X132.748 Y33.714
X133.057 Y34.282
X133.357 Y34.856
X133.647 Y35.434
X133.927 Y36.018
X134.197 Y36.606
X134.458 Y37.198
X134.708 Y37.795
X134.948 Y38.396
X135.178 Y39.001
X135.398 Y39.61
X135.607 Y40.223
X135.806 Y40.838
X135.995 Y41.457
X136.174 Y42.08
X136.341 Y42.705
X136.498 Y43.333
X136.645 Y43.963
X136.78 Y44.596
X136.905 Y45.231
X137.019 Y45.868
X137.122 Y46.507
X137.214 Y47.148
X137.295 Y47.79
X137.311 Y47.934
X137.313 Y48.078
X137.287 Y48.218
X137.234 Y48.352
X136.161 Y50.453
G3 X135.571 Y50.35 I-0.277 J-0.154
G1 X135.559 Y50.28 Z-0.987
X135.548 Y50.214 Z-0.964
X135.539 Y50.155 Z-0.926
X135.53 Y50.105 Z-0.876
X135.524 Y50.068 Z-0.815
X135.521 Y50.045 Z-0.748
X135.519 Y50.037 Z-0.678
G0 Z5.08
X123.478 Y25.457
Z-0.36
G1 Z-0.678 F1905
X123.485 Y25.453 Z-0.748
X123.505 Y25.441 Z-0.815
X123.537 Y25.421 Z-0.876
X123.581 Y25.396 Z-0.926
X123.632 Y25.365 Z-0.964
X123.69 Y25.331 Z-0.987
X123.751 Y25.295 Z-0.995
G3 X124.504 Y25.074 I0.809 J1.36
G1 X126.269 Y25.073
X126.431 Y25.081
X126.609 Y25.105
X126.822 Y25.15
X127.044 Y25.217
X127.315 Y25.322
X127.62 Y25.47
X127.992 Y25.689
X128.425 Y25.994
X128.924 Y26.407
X129.39 Y26.855
X129.834 Y27.327
X130.259 Y27.815
X130.669 Y28.316
X131.066 Y28.827
X131.452 Y29.346
X131.827 Y29.874
X132.193 Y30.408
X132.548 Y30.949
X132.894 Y31.495
X133.231 Y32.048
X133.559 Y32.606
X133.877 Y33.17
X134.185 Y33.739
X134.484 Y34.313
X134.774 Y34.892
X135.054 Y35.475
X135.325 Y36.063
X135.586 Y36.655
X135.837 Y37.252
X136.079 Y37.852
X136.31 Y38.457
X136.532 Y39.065
X136.744 Y39.676
X136.946 Y40.291
X137.138 Y40.909
X137.32 Y41.53
X137.491 Y42.154
X137.652 Y42.781
X137.803 Y43.411
X137.943 Y44.043
X138.073 Y44.677
X138.192 Y45.313
X138.302 Y45.954
X138.309 Y46.108
X138.285 Y46.26
X138.229 Y46.403
X137.234 Y48.352
G3 X136.644 Y48.248 I-0.277 J-0.155
G1 X136.632 Y48.179 Z-0.987
X136.621 Y48.112 Z-0.964
X136.612 Y48.053 Z-0.926
X136.604 Y48.003 Z-0.876
X136.598 Y47.966 Z-0.815
X136.594 Y47.943 Z-0.748
X136.593 Y47.935 Z-0.678
G0 Z5.08
X125.242 Y25.457
Z-0.36
G1 Z-0.678 F1905
X125.249 Y25.453 Z-0.748
X125.269 Y25.441 Z-0.815
X125.302 Y25.421 Z-0.876
X125.345 Y25.396 Z-0.926
X125.397 Y25.365 Z-0.964
X125.455 Y25.331 Z-0.987
X125.515 Y25.295 Z-0.995
G3 X126.269 Y25.074 I0.809 J1.36
G1 X127.886 Y25.073
X128.096 Y25.084
X128.273 Y25.107
X128.473 Y25.15
X128.689 Y25.214
X128.952 Y25.317
X129.236 Y25.455
X129.584 Y25.66
X129.985 Y25.941
X130.483 Y26.355
X130.946 Y26.807
X131.383 Y27.284
X131.801 Y27.779
X132.202 Y28.287
X132.589 Y28.805
X132.965 Y29.332
X133.33 Y29.867
X133.684 Y30.408
X134.029 Y30.956
X134.365 Y31.509
X134.691 Y32.068
X135.008 Y32.632
X135.316 Y33.201
X135.615 Y33.776
X135.905 Y34.354
X136.185 Y34.938
X136.456 Y35.526
X136.717 Y36.118
X136.969 Y36.714
X137.212 Y37.314
X137.445 Y37.917
X137.669 Y38.525
X137.883 Y39.136
X138.088 Y39.75
X138.282 Y40.367
X138.467 Y40.987
X138.642 Y41.61
X138.807 Y42.236
X138.961 Y42.865
X139.106 Y43.496
X139.23 Y44.08
X139.246 Y44.247
X139.224 Y44.413
X139.165 Y44.57
X138.229 Y46.403
G3 X137.639 Y46.3 I-0.277 J-0.154
G1 X137.627 Y46.23 Z-0.987
X137.616 Y46.164 Z-0.964
X137.607 Y46.105 Z-0.926
X137.599 Y46.055 Z-0.876
X137.592 Y46.018 Z-0.815
X137.589 Y45.995 Z-0.748
X137.587 Y45.987 Z-0.678
G0 Z5.08
X126.86 Y25.457
Z-0.36
G1 Z-0.678 F1905
X126.867 Y25.453 Z-0.748
X126.887 Y25.441 Z-0.815
X126.919 Y25.421 Z-0.876
X126.963 Y25.396 Z-0.926
X127.014 Y25.365 Z-0.964
X127.072 Y25.331 Z-0.987
X127.133 Y25.295 Z-0.995
G3 X127.886 Y25.074 I0.809 J1.36
G1 X129.504 Y25.073
X129.719 Y25.084
X129.896 Y25.107
X130.083 Y25.147
X130.294 Y25.21
X130.55 Y25.31
X130.818 Y25.44
X131.15 Y25.635
X131.523 Y25.898
X131.982 Y26.279
X132.445 Y26.731
X132.879 Y27.211
X133.291 Y27.71
X133.685 Y28.224
X134.065 Y28.748
X134.432 Y29.281
X134.788 Y29.822
X135.133 Y30.369
X135.469 Y30.922
X135.796 Y31.481
X136.113 Y32.045
X136.421 Y32.614
X136.72 Y33.188
X137.011 Y33.767
X137.292 Y34.35
X137.564 Y34.937
X137.827 Y35.528
X138.081 Y36.124
X138.325 Y36.723
X138.561 Y37.326
X138.787 Y37.932
X139.004 Y38.542
X139.212 Y39.155
X139.41 Y39.771
X139.598 Y40.39
X139.777 Y41.012
X139.946 Y41.637
X140.105 Y42.264
X140.118 Y42.317
X140.138 Y42.489
X140.117 Y42.662
X140.057 Y42.825
X139.165 Y44.57
G3 X138.575 Y44.467 I-0.277 J-0.154
G1 X138.563 Y44.397 Z-0.987
X138.552 Y44.331 Z-0.964
X138.543 Y44.272 Z-0.926
X138.534 Y44.222 Z-0.876
X138.528 Y44.185 Z-0.815
X138.525 Y44.161 Z-0.748
X138.523 Y44.154 Z-0.678
G0 Z5.08
X128.477 Y25.457
Z-0.36
G1 Z-0.678 F1905
X128.484 Y25.453 Z-0.748
X128.504 Y25.441 Z-0.815
X128.537 Y25.421 Z-0.876
X128.58 Y25.396 Z-0.926
X128.632 Y25.365 Z-0.964
X128.69 Y25.331 Z-0.987
X128.75 Y25.295 Z-0.995
G3 X129.504 Y25.074 I0.809 J1.36
G1 X131.121 Y25.073
X131.308 Y25.083
X131.48 Y25.105
X131.656 Y25.143
X131.867 Y25.206
X132.111 Y25.301
X132.372 Y25.428
X132.688 Y25.614
X133.045 Y25.864
X133.472 Y26.219
X133.935 Y26.671
X134.366 Y27.154
X134.773 Y27.657
X135.16 Y28.176
X135.533 Y28.705
X135.892 Y29.244
X136.239 Y29.79
X136.576 Y30.343
X136.903 Y30.901
X137.221 Y31.465
X137.53 Y32.034
X137.829 Y32.607
X138.12 Y33.186
X138.402 Y33.768
X138.675 Y34.355
X138.939 Y34.946
X139.195 Y35.54
X139.441 Y36.139
X139.679 Y36.741
X139.907 Y37.347
X140.127 Y37.955
X140.337 Y38.567
X140.538 Y39.183
X140.73 Y39.801
X140.913 Y40.422
X140.966 Y40.614
X140.993 Y40.795
X140.974 Y40.977
X140.912 Y41.149
X140.057 Y42.825
G3 X139.465 Y42.721 I-0.278 J-0.155
G1 X139.454 Y42.652 Z-0.987
X139.444 Y42.585 Z-0.964
X139.434 Y42.526 Z-0.926
X139.426 Y42.476 Z-0.876
X139.42 Y42.439 Z-0.815
X139.416 Y42.416 Z-0.748
X139.415 Y42.408 Z-0.678
G0 Z5.08
X130.095 Y25.457
Z-0.36
G1 Z-0.678 F1905
X130.102 Y25.453 Z-0.748
X130.122 Y25.441 Z-0.815
X130.154 Y25.421 Z-0.876
X130.198 Y25.396 Z-0.926
X130.249 Y25.365 Z-0.964
X130.307 Y25.331 Z-0.987
X130.368 Y25.295 Z-0.995
G3 X131.121 Y25.074 I0.809 J1.36
G1 X132.739 Y25.073
X132.891 Y25.081
X133.052 Y25.104
X133.233 Y25.145
X133.45 Y25.214
X133.683 Y25.308
X133.949 Y25.441
X134.254 Y25.627
X134.612 Y25.885
X135.025 Y26.237
X135.482 Y26.695
X135.905 Y27.184
X136.304 Y27.694
X136.683 Y28.219
X137.045 Y28.755
X137.395 Y29.3
X137.733 Y29.852
X138.06 Y30.41
X138.377 Y30.974
X138.685 Y31.543
X138.984 Y32.117
X139.275 Y32.696
X139.556 Y33.279
X139.829 Y33.866
X140.093 Y34.456
X140.348 Y35.051
X140.595 Y35.649
X140.833 Y36.251
X141.062 Y36.857
X141.283 Y37.465
X141.495 Y38.077
X141.697 Y38.691
X141.785 Y38.973
X141.819 Y39.161
X141.802 Y39.351
X141.738 Y39.531
X140.912 Y41.149
G3 X140.32 Y41.046 I-0.278 J-0.154
G1 X140.31 Y40.976 Z-0.987
X140.299 Y40.91 Z-0.964
X140.289 Y40.851 Z-0.926
X140.281 Y40.801 Z-0.876
X140.275 Y40.764 Z-0.815
X140.271 Y40.74 Z-0.748
X140.27 Y40.733 Z-0.678
G0 Z5.08
X131.712 Y25.457
Z-0.36
G1 Z-0.678 F1905
X131.719 Y25.453 Z-0.748
X131.739 Y25.441 Z-0.815
X131.772 Y25.421 Z-0.876
X131.815 Y25.396 Z-0.926
X131.867 Y25.365 Z-0.964
X131.925 Y25.331 Z-0.987
X131.985 Y25.295 Z-0.995
G3 X132.739 Y25.074 I0.809 J1.36
G1 X134.209 Y25.073
X134.403 Y25.083
X134.565 Y25.104
X134.734 Y25.14
X134.938 Y25.201
X135.169 Y25.292
X135.415 Y25.411
X135.711 Y25.585
X136.033 Y25.811
X136.419 Y26.131
X136.882 Y26.583
X137.308 Y27.071
X137.705 Y27.582
X138.081 Y28.108
X138.439 Y28.647
X138.784 Y29.195
X139.116 Y29.751
X139.437 Y30.313
X139.748 Y30.88
X140.05 Y31.453
X140.342 Y32.03
X140.626 Y32.612
X140.901 Y33.198
X141.168 Y33.787
X141.426 Y34.381
X141.676 Y34.978
X141.917 Y35.579
X142.15 Y36.183
X142.374 Y36.79
X142.58 Y37.375
X142.621 Y37.571
X142.607 Y37.77
X142.541 Y37.958
X141.738 Y39.531
G3 X141.148 Y39.428 I-0.277 J-0.154
G1 X141.136 Y39.358 Z-0.987
X141.125 Y39.292 Z-0.964
X141.116 Y39.232 Z-0.926
X141.108 Y39.183 Z-0.876
X141.101 Y39.145 Z-0.815
X141.098 Y39.122 Z-0.748
X141.096 Y39.114 Z-0.678
G0 Z5.08
X133.183 Y25.457
Z-0.36
G1 Z-0.678 F1905
X133.19 Y25.453 Z-0.748
X133.21 Y25.441 Z-0.815
X133.242 Y25.421 Z-0.876
X133.286 Y25.396 Z-0.926
X133.337 Y25.365 Z-0.964
X133.395 Y25.331 Z-0.987
X133.456 Y25.295 Z-0.995
G3 X134.209 Y25.074 I0.809 J1.36
G1 X135.761 Y25.073
X135.916 Y25.081
X136.067 Y25.101
X136.243 Y25.139
X136.454 Y25.202
X136.665 Y25.285
X136.915 Y25.407
X137.196 Y25.573
X137.518 Y25.8
X137.883 Y26.105
X138.327 Y26.54
X138.751 Y27.028
X139.145 Y27.542
X139.517 Y28.072
X139.869 Y28.614
X140.207 Y29.166
X140.533 Y29.726
X140.847 Y30.292
X141.151 Y30.863
X141.445 Y31.439
X141.731 Y32.02
X142.008 Y32.605
X142.276 Y33.194
X142.536 Y33.787
X142.787 Y34.383
X143.03 Y34.983
X143.265 Y35.586
X143.357 Y35.833
X143.401 Y36.032
X143.389 Y36.236
X143.323 Y36.429
X142.541 Y37.958
G3 X142.11 Y38.081 Z-0.792 I-0.277 J-0.154
G1 X142.059 Y38.047
X142.016 Y38.003
X141.982 Y37.951
X141.954 Y37.896
X135.539 Y25.631
X135.49 Y25.538
X135.465 Y25.472
X135.454 Y25.401
G3 X135.761 Y25.073 Z-0.995 I0.318 J-0.01
G1 X137.297
X137.449 Y25.081
X137.604 Y25.105
X137.79 Y25.15
X137.995 Y25.218
X138.212 Y25.31
X138.476 Y25.447
X138.75 Y25.618
X139.082 Y25.865
X139.453 Y26.191
X139.9 Y26.651
X140.312 Y27.15
X140.695 Y27.672
X141.055 Y28.21
X141.397 Y28.76
X141.725 Y29.318
X142.04 Y29.883
X142.344 Y30.454
X142.638 Y31.031
X142.923 Y31.612
X143.199 Y32.198
X143.466 Y32.787
X143.725 Y33.38
X143.976 Y33.977
X144.114 Y34.318
X144.164 Y34.523
X144.155 Y34.733
X144.086 Y34.932
X143.323 Y36.429
G3 X142.891 Y36.552 Z-0.792 I-0.278 J-0.155
G1 X142.841 Y36.517
X142.798 Y36.474
X142.764 Y36.422
X142.735 Y36.367
X137.076 Y25.63
X137.027 Y25.539
X137.008 Y25.495
X136.996 Y25.449
X136.991 Y25.401
G3 X137.297 Y25.074 Z-0.995 I0.317 J-0.01
G1 X138.768 Y25.073
X138.92 Y25.081
X139.071 Y25.104
X139.243 Y25.145
X139.449 Y25.211
X139.667 Y25.301
X139.908 Y25.425
X140.189 Y25.598
X140.495 Y25.823
X140.852 Y26.133
X141.275 Y26.564
X141.69 Y27.06
X142.073 Y27.582
X142.431 Y28.121
X142.77 Y28.672
X143.094 Y29.233
X143.404 Y29.801
X143.704 Y30.375
X143.993 Y30.954
X144.272 Y31.538
X144.543 Y32.126
X144.805 Y32.717
X144.861 Y32.856
X144.911 Y33.061
X144.901 Y33.271
X144.833 Y33.47
X144.086 Y34.932
G3 X143.655 Y35.055 Z-0.792 I-0.277 J-0.154
G1 X143.605 Y35.022
X143.563 Y34.979
X143.529 Y34.928
X143.498 Y34.871
X138.547 Y25.63
X138.499 Y25.54
X138.479 Y25.496
X138.467 Y25.449
X138.461 Y25.401
G3 X138.768 Y25.073 Z-0.995 I0.318 J-0.01
G1 X140.238
X140.39 Y25.081
X140.541 Y25.105
X140.718 Y25.148
X140.924 Y25.216
X141.131 Y25.304
X141.381 Y25.434
X141.65 Y25.603
X141.963 Y25.837
X142.307 Y26.14
X142.721 Y26.567
X143.132 Y27.067
X143.51 Y27.592
X143.863 Y28.135
X144.196 Y28.69
X144.514 Y29.254
X144.818 Y29.825
X145.11 Y30.402
X145.393 Y30.985
X145.579 Y31.387
X145.641 Y31.601
X145.636 Y31.824
X145.566 Y32.035
X144.833 Y33.47
G3 X144.402 Y33.593 Z-0.792 I-0.277 J-0.154
G1 X144.352 Y33.56
X144.31 Y33.517
X144.277 Y33.467
X144.245 Y33.408
X140.018 Y25.63
X139.97 Y25.542
X139.95 Y25.497
X139.937 Y25.45
X139.932 Y25.401
G3 X140.238 Y25.073 Z-0.995 I0.317 J-0.011
G1 X141.642
X141.795 Y25.081
X141.946 Y25.101
X142.111 Y25.137
X142.309 Y25.197
X142.509 Y25.276
X142.74 Y25.39
X143.005 Y25.548
X143.289 Y25.75
X143.618 Y26.026
X144.002 Y26.404
X144.425 Y26.894
X144.81 Y27.415
X145.166 Y27.955
X145.5 Y28.509
X145.817 Y29.073
X146.12 Y29.646
X146.283 Y29.978
X146.351 Y30.196
X146.349 Y30.424
X146.278 Y30.641
G3 X145.846 Y30.765 Z-0.792 I-0.278 J-0.154
G1 X145.799 Y30.733
X145.758 Y30.693
X145.672 Y30.592
X141.434 Y25.622
X141.412 Y25.597
X141.372 Y25.538
X141.347 Y25.472
X141.336 Y25.401
G3 X141.642 Y25.073 Z-0.995 I0.317 J-0.011
G1 X143.032
X143.225 Y25.083
X143.376 Y25.103
X143.55 Y25.141
X143.727 Y25.194
X143.931 Y25.274
X144.173 Y25.393
X144.415 Y25.536
X144.709 Y25.745
X145.018 Y26.003
X145.386 Y26.365
X145.81 Y26.854
X146.194 Y27.375
X146.548 Y27.917
X146.879 Y28.473
X146.961 Y28.635
X147.032 Y28.855
X147.031 Y29.086
X146.96 Y29.306
G3 X146.528 Y29.43 Z-0.792 I-0.278 J-0.154
G1 X146.489 Y29.404
X146.454 Y29.372
X146.347 Y29.262
X142.824 Y25.621
X142.815 Y25.611
X142.778 Y25.566
X142.751 Y25.515
X142.733 Y25.459
X142.726 Y25.401
G3 X143.032 Y25.073 Z-0.995 I0.317 J-0.011
G1 X144.502
X144.655 Y25.081
X144.806 Y25.101
X144.978 Y25.14
X145.152 Y25.193
X145.359 Y25.276
X145.596 Y25.393
X145.837 Y25.537
X146.128 Y25.745
X146.434 Y26.003
X146.793 Y26.359
X147.194 Y26.826
X147.451 Y27.178
X147.543 Y27.329
X147.626 Y27.521
X147.652 Y27.729
X147.619 Y27.935
G3 X147.215 Y28.131 Z-0.792 I-0.3 J-0.104
G1 X147.16 Y28.105
X147.111 Y28.07
X147.016 Y27.987
X144.305 Y25.63
G3 X144.196 Y25.401 I0.209 J-0.24
X144.502 Y25.072 Z-0.995 I0.318 J-0.011
G1 X145.532 Y25.073
X145.679 Y25.084
X145.826 Y25.098
X145.973 Y25.124
X146.12 Y25.152
X146.267 Y25.197
X146.424 Y25.26
X146.561 Y25.333
X146.695 Y25.407
X146.855 Y25.512
X146.913 Y25.554
X147.067 Y25.702
X147.149 Y25.786
X147.205 Y25.849
X147.296 Y25.96
X147.322 Y25.996
X147.424 Y26.143
X147.501 Y26.29
X147.563 Y26.437
X147.621 Y26.584
X147.668 Y26.731
X147.699 Y26.878
X147.713 Y27.025
X147.725 Y27.172
Y27.32
X147.724 Y27.467
X147.699 Y27.614
X147.673 Y27.761
X147.59 Y28.027
X147.579 Y28.055
X147.371 Y28.496
X147.296 Y28.646
X145.566 Y32.035
G3 X144.974 Y31.932 I-0.278 J-0.154
G1 X144.964 Y31.862 Z-0.987
X144.953 Y31.796 Z-0.964
X144.943 Y31.736 Z-0.926
X144.935 Y31.687 Z-0.876
X144.929 Y31.649 Z-0.815
X144.925 Y31.626 Z-0.748
X144.924 Y31.618 Z-0.678
G0 Z5.08
X95.681 Y78.066
Z-0.36
G1 Z-0.678 F1905
X95.674 Y78.071 Z-0.748
X95.654 Y78.083 Z-0.815
X95.621 Y78.102 Z-0.876
X95.578 Y78.128 Z-0.926
X95.526 Y78.158 Z-0.964
X95.468 Y78.193 Z-0.987
X95.408 Y78.229 Z-0.995
G3 X94.654 Y78.45 I-0.809 J-1.361
G1 X90.537
X90.008 Y78.424
X89.576 Y78.367
X89.005 Y78.245
X88.385 Y78.059
X87.778 Y77.835
X87.182 Y77.583
X86.595 Y77.31
X86.017 Y77.019
X85.447 Y76.712
X84.885 Y76.39
X84.332 Y76.055
X83.786 Y75.707
X83.249 Y75.346
X82.72 Y74.973
X82.2 Y74.588
X81.688 Y74.191
X81.186 Y73.783
X80.693 Y73.364
X80.21 Y72.933
X79.736 Y72.492
X79.273 Y72.04
X78.82 Y71.577
X78.378 Y71.105
X77.946 Y70.623
X77.525 Y70.131
X77.115 Y69.631
X76.717 Y69.121
X76.33 Y68.602
X75.954 Y68.075
X75.591 Y67.539
X75.24 Y66.995
X74.902 Y66.443
X74.576 Y65.884
X74.264 Y65.317
X73.964 Y64.743
X73.678 Y64.163
X73.404 Y63.576
X73.144 Y62.984
X72.897 Y62.385
X72.664 Y61.782
X72.445 Y61.173
X72.239 Y60.559
X72.047 Y59.941
X71.87 Y59.319
X71.706 Y58.692
X71.556 Y58.063
X71.42 Y57.43
X71.299 Y56.794
X71.191 Y56.156
X71.098 Y55.516
X71.019 Y54.873
X70.955 Y54.229
X70.905 Y53.584
X70.87 Y52.938
X70.849 Y52.291
X70.844 Y51.644
X70.853 Y50.996
X70.877 Y50.35
X70.915 Y49.704
X70.968 Y49.058
X71.036 Y48.415
X71.118 Y47.773
X71.215 Y47.133
X71.325 Y46.495
X71.451 Y45.86
X71.59 Y45.228
X71.744 Y44.599
X71.911 Y43.974
X72.093 Y43.353
X72.288 Y42.736
X72.497 Y42.123
X72.72 Y41.516
X72.956 Y40.913
X73.205 Y40.316
X73.467 Y39.724
X73.743 Y39.139
X74.032 Y38.56
X74.334 Y37.987
X74.65 Y37.422
X74.978 Y36.864
X75.318 Y36.314
X75.671 Y35.771
X76.036 Y35.237
X76.413 Y34.711
X76.802 Y34.193
X77.202 Y33.685
X77.614 Y33.185
X78.037 Y32.695
X78.47 Y32.215
X78.915 Y31.744
X79.37 Y31.284
X79.835 Y30.833
X80.309 Y30.393
X80.794 Y29.964
X81.287 Y29.546
X81.79 Y29.138
X82.302 Y28.742
X82.823 Y28.358
X83.352 Y27.985
X83.889 Y27.624
X84.435 Y27.276
X84.988 Y26.94
X85.549 Y26.617
X86.117 Y26.307
X86.692 Y26.009
X87.273 Y25.725
X87.861 Y25.454
X88.455 Y25.196
X89.054 Y24.952
X89.659 Y24.721
X90.268 Y24.504
X90.883 Y24.3
X91.501 Y24.11
X92.124 Y23.935
X92.639 Y23.805
X92.943 Y23.755
X93.22 Y23.731
X93.434 Y23.73
X93.656 Y23.746
X93.664 Y23.748
X93.869 Y23.813
X94.044 Y23.937
X94.175 Y24.108
X94.247 Y24.31
X94.256 Y24.525
G3 X93.688 Y24.721 I-0.318 J-0.001
G1 X93.645 Y24.665 Z-0.987
X93.603 Y24.612 Z-0.964
X93.566 Y24.565 Z-0.926
X93.535 Y24.525 Z-0.876
X93.512 Y24.495 Z-0.815
X93.497 Y24.477 Z-0.748
X93.492 Y24.471 Z-0.678
G0 Z5.08
X91.563 Y78.067
Z-0.36
G1 Z-0.678 F1905
X91.557 Y78.071 Z-0.748
X91.536 Y78.083 Z-0.815
X91.504 Y78.102 Z-0.876
X91.461 Y78.128 Z-0.926
X91.409 Y78.158 Z-0.964
X91.351 Y78.193 Z-0.987
X91.29 Y78.229 Z-0.995
G3 X90.537 Y78.45 I-0.808 J-1.36
G1 X87.449
X87.103 Y78.433
X86.775 Y78.39
X86.373 Y78.304
X85.86 Y78.15
X85.257 Y77.915
X84.672 Y77.639
X84.101 Y77.333
X83.543 Y77.006
X82.995 Y76.662
X82.456 Y76.303
X81.927 Y75.931
X81.407 Y75.546
X80.895 Y75.149
X80.393 Y74.742
X79.899 Y74.323
X79.415 Y73.893
X78.94 Y73.453
X78.475 Y73.003
X78.02 Y72.543
X77.575 Y72.073
X77.14 Y71.594
X76.716 Y71.105
X76.302 Y70.608
X75.899 Y70.101
X75.507 Y69.586
X75.126 Y69.063
X74.757 Y68.531
X74.399 Y67.992
X74.053 Y67.445
X73.72 Y66.89
X73.398 Y66.328
X73.089 Y65.76
X72.792 Y65.184
X72.508 Y64.603
X72.237 Y64.015
X71.978 Y63.422
X71.732 Y62.824
X71.499 Y62.22
X71.279 Y61.611
X71.072 Y60.998
X70.879 Y60.38
X70.699 Y59.758
X70.532 Y59.133
X70.379 Y58.504
X70.239 Y57.872
X70.113 Y57.237
X70 Y56.6
X69.901 Y55.96
X69.816 Y55.319
X69.745 Y54.676
X69.688 Y54.031
X69.645 Y53.385
X69.616 Y52.739
X69.601 Y52.091
X69.6 Y51.444
X69.613 Y50.797
X69.64 Y50.151
X69.682 Y49.505
X69.737 Y48.86
X69.806 Y48.216
X69.889 Y47.574
X69.985 Y46.934
X70.096 Y46.297
X70.22 Y45.661
X70.358 Y45.029
X70.509 Y44.4
X70.674 Y43.774
X70.852 Y43.152
X71.043 Y42.533
X71.248 Y41.919
X71.466 Y41.31
X71.696 Y40.705
X71.94 Y40.105
X72.196 Y39.511
X72.466 Y38.923
X72.748 Y38.34
X73.042 Y37.764
X73.349 Y37.194
X73.669 Y36.631
X74 Y36.075
X74.344 Y35.527
X74.699 Y34.986
X75.066 Y34.452
X75.444 Y33.927
X75.833 Y33.41
X76.234 Y32.902
X76.645 Y32.402
X77.067 Y31.912
X77.5 Y31.43
X77.943 Y30.958
X78.395 Y30.495
X78.858 Y30.043
X79.33 Y29.6
X79.811 Y29.167
X80.302 Y28.745
X80.801 Y28.333
X81.309 Y27.932
X81.826 Y27.543
X82.351 Y27.164
X82.884 Y26.797
X83.425 Y26.441
X83.973 Y26.098
X84.529 Y25.766
X85.092 Y25.447
X85.662 Y25.14
X86.238 Y24.845
X86.82 Y24.562
X87.408 Y24.293
X88.003 Y24.036
X88.602 Y23.792
X89.206 Y23.56
X89.816 Y23.342
X90.43 Y23.137
X91.048 Y22.946
X91.672 Y22.773
X92.189 Y22.666
X92.588 Y22.616
X92.897 Y22.602
X93.143 Y22.611
X93.356 Y22.636
X93.567 Y22.678
X93.737 Y22.726
X93.905 Y22.789
X94.065 Y22.864
X94.198 Y22.939
X94.287 Y23
X94.438 Y23.138
X94.545 Y23.314
X94.599 Y23.512
X94.595 Y23.717
X94.534 Y23.913
X94.42 Y24.084
G3 X94.163 Y24.216 I-0.258 J-0.186
G1 X94.162
X94.107 Y24.211
X94.053 Y24.197
X94.003 Y24.173
X93.964 Y24.135 Z-0.99
X93.927 Y24.098 Z-0.976
X93.891 Y24.064 Z-0.953
X93.877 Y24.017 Z-0.918
X93.865 Y23.977 Z-0.873
X93.855 Y23.946 Z-0.822
X93.849 Y23.925 Z-0.766
X93.845 Y23.914 Z-0.706
Y23.913 Z-0.678
G0 Z5.08
X88.475 Y78.067
Z-0.36
G1 Z-0.678 F1905
X88.469 Y78.071 Z-0.748
X88.448 Y78.083 Z-0.815
X88.416 Y78.102 Z-0.876
X88.373 Y78.128 Z-0.926
X88.321 Y78.158 Z-0.964
X88.263 Y78.193 Z-0.987
X88.203 Y78.229 Z-0.995
G3 X87.449 Y78.45 I-0.809 J-1.36
G1 X84.949
X84.614 Y78.433
X84.339 Y78.397
X84.018 Y78.329
X83.612 Y78.207
X83.099 Y78.007
X82.516 Y77.725
X81.955 Y77.403
X81.41 Y77.053
X80.879 Y76.684
X80.359 Y76.299
X79.849 Y75.9
X79.35 Y75.488
X78.859 Y75.066
X78.379 Y74.632
X77.907 Y74.189
X77.446 Y73.735
X76.993 Y73.272
X76.551 Y72.8
X76.118 Y72.319
X75.695 Y71.828
X75.283 Y71.329
X74.881 Y70.822
X74.49 Y70.307
X74.109 Y69.783
X73.74 Y69.252
X73.382 Y68.713
X73.035 Y68.166
X72.699 Y67.613
X72.375 Y67.052
X72.063 Y66.485
X71.763 Y65.912
X71.475 Y65.333
X71.199 Y64.747
X70.935 Y64.156
X70.684 Y63.56
X70.445 Y62.958
X70.219 Y62.352
X70.005 Y61.741
X69.804 Y61.125
X69.616 Y60.506
X69.441 Y59.883
X69.278 Y59.257
X69.128 Y58.627
X68.992 Y57.994
X68.868 Y57.359
X68.757 Y56.721
X68.66 Y56.082
X68.576 Y55.44
X68.505 Y54.797
X68.448 Y54.152
X68.404 Y53.506
X68.373 Y52.86
X68.356 Y52.213
X68.353 Y51.565
X68.363 Y50.918
X68.386 Y50.272
X68.423 Y49.625
X68.473 Y48.98
X68.537 Y48.336
X68.614 Y47.693
X68.705 Y47.053
X68.808 Y46.414
X68.925 Y45.777
X69.055 Y45.143
X69.199 Y44.512
X69.355 Y43.884
X69.524 Y43.259
X69.705 Y42.638
X69.9 Y42.02
X70.107 Y41.407
X70.326 Y40.798
X70.558 Y40.194
X70.803 Y39.595
X71.06 Y39.001
X71.329 Y38.412
X71.61 Y37.829
X71.903 Y37.252
X72.209 Y36.682
X72.526 Y36.118
X72.854 Y35.56
X73.195 Y35.009
X73.546 Y34.466
X73.909 Y33.93
X74.283 Y33.402
X74.668 Y32.882
X75.064 Y32.369
X75.47 Y31.866
X75.886 Y31.37
X76.313 Y30.883
X76.75 Y30.406
X77.196 Y29.937
X77.652 Y29.477
X78.117 Y29.027
X78.591 Y28.587
X79.074 Y28.156
X79.566 Y27.735
X80.066 Y27.325
X80.575 Y26.925
X81.092 Y26.535
X81.617 Y26.157
X82.15 Y25.789
X82.69 Y25.432
X83.237 Y25.087
X83.792 Y24.753
X84.353 Y24.431
X84.921 Y24.121
X85.495 Y23.822
X86.075 Y23.535
X86.662 Y23.261
X87.253 Y22.999
X87.85 Y22.749
X88.453 Y22.512
X89.059 Y22.287
X89.671 Y22.075
X90.287 Y21.877
X90.91 Y21.7
X91.541 Y21.556
X92.056 Y21.482
X92.481 Y21.454
X92.863 Y21.461
X93.211 Y21.494
X93.524 Y21.55
X93.795 Y21.622
X94.044 Y21.709
X94.245 Y21.798
X94.419 Y21.893
X94.587 Y22.003
X94.72 Y22.106
X94.85 Y22.224
X94.964 Y22.347
X95.099 Y22.517
X95.21 Y22.71
X95.258 Y22.928
X95.24 Y23.15
X95.156 Y23.356
X95.015 Y23.528
G3 X94.589 Y23.511 I-0.204 J-0.243
G1 X94.56 Y23.465 Z-0.99
X94.533 Y23.42 Z-0.976
X94.507 Y23.378 Z-0.953
X94.499 Y23.328 Z-0.916
X94.493 Y23.285 Z-0.871
Z-0.87
X94.497 Y23.25 Z-0.811
X94.499 Y23.228 Z-0.746
X94.5 Y23.22 Z-0.678
G0 Z5.08
X85.976 Y78.067
Z-0.36
G1 Z-0.678 F1905
X85.969 Y78.071 Z-0.748
X85.949 Y78.083 Z-0.815
X85.916 Y78.102 Z-0.876
X85.873 Y78.128 Z-0.926
X85.821 Y78.158 Z-0.964
X85.763 Y78.193 Z-0.987
X85.703 Y78.229 Z-0.995
G3 X84.949 Y78.45 I-0.809 J-1.36
G1 X82.596
X82.391 Y78.44
X82.146 Y78.408
X81.868 Y78.349
X81.52 Y78.244
X81.109 Y78.084
X80.578 Y77.827
X80.021 Y77.498
X79.485 Y77.136
X78.965 Y76.749
X78.46 Y76.345
X77.967 Y75.926
X77.484 Y75.494
X77.012 Y75.052
X76.55 Y74.599
X76.097 Y74.137
X75.653 Y73.665
X75.22 Y73.185
X74.796 Y72.696
X74.382 Y72.198
X73.978 Y71.692
X73.584 Y71.179
X73.201 Y70.657
X72.828 Y70.128
X72.466 Y69.592
X72.114 Y69.048
X71.774 Y68.498
X71.445 Y67.94
X71.128 Y67.376
X70.821 Y66.806
X70.526 Y66.23
X70.243 Y65.648
X69.972 Y65.061
X69.712 Y64.468
X69.464 Y63.87
X69.229 Y63.267
X69.005 Y62.66
X68.793 Y62.048
X68.594 Y61.432
X68.407 Y60.813
X68.232 Y60.19
X68.069 Y59.563
X67.919 Y58.934
X67.781 Y58.301
X67.656 Y57.666
X67.544 Y57.029
X67.444 Y56.389
X67.357 Y55.748
X67.282 Y55.105
X67.221 Y54.461
X67.172 Y53.816
X67.137 Y53.169
X67.114 Y52.522
X67.105 Y51.875
X67.108 Y51.228
X67.125 Y50.581
X67.154 Y49.935
X67.196 Y49.289
X67.252 Y48.644
X67.32 Y48
X67.401 Y47.358
X67.495 Y46.718
X67.601 Y46.079
X67.72 Y45.443
X67.852 Y44.809
X67.996 Y44.178
X68.153 Y43.551
X68.322 Y42.926
X68.503 Y42.304
X68.697 Y41.687
X68.902 Y41.073
X69.12 Y40.464
X69.35 Y39.859
X69.591 Y39.258
X69.845 Y38.663
X70.11 Y38.072
X70.387 Y37.487
X70.676 Y36.908
X70.977 Y36.335
X71.289 Y35.768
X71.612 Y35.207
X71.946 Y34.653
X72.292 Y34.106
X72.648 Y33.565
X73.015 Y33.032
X73.393 Y32.507
X73.781 Y31.989
X74.179 Y31.478
X74.587 Y30.976
X75.005 Y30.482
X75.433 Y29.997
X75.871 Y29.52
X76.317 Y29.051
X76.773 Y28.592
X77.238 Y28.141
X77.712 Y27.7
X78.194 Y27.269
X78.684 Y26.847
X79.183 Y26.434
X79.69 Y26.032
X80.205 Y25.64
X80.728 Y25.258
X81.258 Y24.886
X81.795 Y24.526
X82.34 Y24.176
X82.891 Y23.837
X83.449 Y23.509
X84.014 Y23.193
X84.585 Y22.888
X85.161 Y22.594
X85.744 Y22.312
X86.332 Y22.042
X86.925 Y21.783
X87.524 Y21.537
X88.127 Y21.302
X88.735 Y21.079
X89.347 Y20.871
X89.966 Y20.681
X90.592 Y20.515
X91.226 Y20.385
X91.831 Y20.306
X92.359 Y20.281
X92.831 Y20.296
X93.269 Y20.346
X93.661 Y20.423
X94.006 Y20.519
X94.32 Y20.635
X94.609 Y20.769
X94.875 Y20.919
X95.105 Y21.075
X95.317 Y21.245
X95.473 Y21.392
X95.609 Y21.542
X95.731 Y21.702
X95.823 Y21.843
X95.905 Y21.995
X95.92 Y22.029
X95.978 Y22.253
X95.966 Y22.483
X95.882 Y22.698
X95.737 Y22.878
G3 X95.311 Y22.861 I-0.204 J-0.244
G1 X95.283 Y22.815 Z-0.99
X95.255 Y22.77 Z-0.976
X95.229 Y22.727 Z-0.953
X95.222 Y22.677 Z-0.916
X95.216 Y22.635 Z-0.871
Y22.634 Z-0.87
X95.219 Y22.599 Z-0.811
X95.221 Y22.577 Z-0.746
X95.222 Y22.57 Z-0.678
G0 Z5.08
X83.623 Y78.067
Z-0.36
G1 Z-0.678 F1905
X83.616 Y78.071 Z-0.748
X83.596 Y78.083 Z-0.815
X83.563 Y78.102 Z-0.876
X83.52 Y78.128 Z-0.926
X83.468 Y78.159 Z-0.964
X83.411 Y78.193 Z-0.987
X83.35 Y78.229 Z-0.995
G3 X82.596 Y78.45 I-0.809 J-1.36
G1 X80.538
X80.329 Y78.44
X80.106 Y78.411
X79.857 Y78.357
X79.547 Y78.265
X79.192 Y78.126
X78.744 Y77.909
X78.186 Y77.581
X77.656 Y77.21
X77.147 Y76.81
X76.654 Y76.391
X76.175 Y75.956
X75.707 Y75.508
X75.251 Y75.049
X74.804 Y74.58
X74.368 Y74.102
X73.941 Y73.616
X73.525 Y73.121
X73.117 Y72.618
X72.72 Y72.107
X72.333 Y71.588
X71.956 Y71.062
X71.589 Y70.528
X71.233 Y69.988
X70.888 Y69.441
X70.553 Y68.887
X70.229 Y68.327
X69.916 Y67.76
X69.613 Y67.188
X69.322 Y66.61
X69.042 Y66.026
X68.774 Y65.438
X68.516 Y64.844
X68.271 Y64.245
X68.036 Y63.642
X67.814 Y63.034
X67.603 Y62.422
X67.403 Y61.806
X67.216 Y61.187
X67.04 Y60.564
X66.876 Y59.938
X66.724 Y59.309
X66.584 Y58.677
X66.457 Y58.042
X66.341 Y57.405
X66.237 Y56.767
X66.146 Y56.126
X66.067 Y55.483
X66.001 Y54.84
X65.947 Y54.195
X65.905 Y53.549
X65.877 Y52.902
X65.86 Y52.255
X65.856 Y51.608
X65.865 Y50.961
X65.886 Y50.314
X65.92 Y49.668
X65.966 Y49.022
X66.024 Y48.377
X66.095 Y47.734
X66.178 Y47.092
X66.273 Y46.452
X66.381 Y45.814
X66.501 Y45.178
X66.633 Y44.544
X66.776 Y43.913
X66.932 Y43.285
X67.1 Y42.66
X67.28 Y42.038
X67.471 Y41.42
X67.674 Y40.805
X67.889 Y40.195
X68.115 Y39.588
X68.353 Y38.986
X68.602 Y38.389
X68.863 Y37.797
X69.135 Y37.21
X69.419 Y36.628
X69.714 Y36.052
X70.02 Y35.481
X70.337 Y34.917
X70.664 Y34.359
X71.003 Y33.807
X71.352 Y33.262
X71.711 Y32.724
X72.081 Y32.192
X72.46 Y31.668
X72.85 Y31.152
X73.25 Y30.642
X73.659 Y30.141
X74.078 Y29.647
X74.506 Y29.162
X74.943 Y28.685
X75.389 Y28.216
X75.844 Y27.755
X76.307 Y27.304
X76.78 Y26.861
X77.26 Y26.427
X77.748 Y26.003
X78.245 Y25.588
X78.749 Y25.182
X79.261 Y24.786
X79.781 Y24.4
X80.308 Y24.025
X80.842 Y23.659
X81.383 Y23.304
X81.931 Y22.96
X82.486 Y22.626
X83.046 Y22.303
X83.613 Y21.99
X84.186 Y21.689
X84.765 Y21.399
X85.348 Y21.119
X85.938 Y20.852
X86.532 Y20.595
X87.131 Y20.35
X87.735 Y20.117
X88.343 Y19.897
X88.957 Y19.692
X89.577 Y19.507
X90.204 Y19.346
X90.839 Y19.218
X91.48 Y19.131
X92.104 Y19.093
X92.686 Y19.104
X93.225 Y19.158
X93.72 Y19.249
X94.169 Y19.368
X94.577 Y19.513
X94.956 Y19.683
X95.296 Y19.869
X95.598 Y20.068
X95.86 Y20.272
X96.09 Y20.484
X96.26 Y20.667
X96.417 Y20.866
X96.533 Y21.041
X96.623 Y21.202
X96.706 Y21.385
X96.749 Y21.599
X96.728 Y21.816
X96.644 Y22.018
X96.505 Y22.186
X96.419 Y22.264
G3 X95.993 Y22.247 I-0.204 J-0.243
G1 X95.964 Y22.201 Z-0.99
X95.937 Y22.156 Z-0.976
X95.911 Y22.114 Z-0.953
X95.903 Y22.063 Z-0.916
X95.897 Y22.021 Z-0.871
Z-0.87
X95.901 Y21.985 Z-0.811
X95.903 Y21.964 Z-0.746
X95.904 Y21.956 Z-0.678
G0 Z5.08
X81.564 Y78.067
Z-0.36
G1 Z-0.678 F1905
X81.557 Y78.071 Z-0.748
X81.537 Y78.083 Z-0.815
X81.505 Y78.102 Z-0.876
X81.462 Y78.128 Z-0.926
X81.41 Y78.159 Z-0.964
X81.352 Y78.193 Z-0.987
X81.291 Y78.229 Z-0.995
G3 X80.538 Y78.45 I-0.808 J-1.36
G1 X78.626
X78.388 Y78.438
X78.185 Y78.412
X77.953 Y78.362
X77.67 Y78.277
X77.351 Y78.153
X76.956 Y77.961
X76.465 Y77.672
X75.935 Y77.3
X75.431 Y76.894
X74.947 Y76.464
X74.479 Y76.017
X74.025 Y75.556
X73.582 Y75.085
X73.149 Y74.603
X72.728 Y74.112
X72.316 Y73.613
X71.914 Y73.106
X71.521 Y72.591
X71.139 Y72.068
X70.767 Y71.539
X70.405 Y71.003
X70.053 Y70.46
X69.711 Y69.91
X69.379 Y69.354
X69.058 Y68.792
X68.748 Y68.224
X68.448 Y67.651
X68.158 Y67.072
X67.88 Y66.488
X67.612 Y65.898
X67.356 Y65.304
X67.11 Y64.705
X66.875 Y64.102
X66.652 Y63.495
X66.44 Y62.883
X66.239 Y62.268
X66.05 Y61.649
X65.872 Y61.027
X65.705 Y60.401
X65.55 Y59.773
X65.406 Y59.142
X65.274 Y58.508
X65.154 Y57.872
X65.045 Y57.234
X64.949 Y56.594
X64.864 Y55.953
X64.792 Y55.31
X64.731 Y54.665
X64.683 Y54.02
X64.646 Y53.374
X64.622 Y52.727
X64.609 Y52.08
Y51.433
X64.621 Y50.785
X64.644 Y50.139
X64.68 Y49.492
X64.728 Y48.847
X64.787 Y48.202
X64.858 Y47.559
X64.942 Y46.917
X65.037 Y46.277
X65.144 Y45.639
X65.262 Y45.003
X65.393 Y44.369
X65.534 Y43.737
X65.688 Y43.108
X65.853 Y42.482
X66.029 Y41.86
X66.217 Y41.24
X66.416 Y40.624
X66.626 Y40.012
X66.848 Y39.404
X67.081 Y38.8
X67.325 Y38.201
X67.58 Y37.606
X67.846 Y37.016
X68.124 Y36.432
X68.412 Y35.852
X68.711 Y35.278
X69.02 Y34.709
X69.34 Y34.147
X69.67 Y33.59
X70.011 Y33.04
X70.361 Y32.496
X70.722 Y31.958
X71.093 Y31.428
X71.473 Y30.904
X71.863 Y30.387
X72.262 Y29.878
X72.671 Y29.376
X73.089 Y28.882
X73.515 Y28.395
X73.951 Y27.917
X74.395 Y27.446
X74.848 Y26.984
X75.31 Y26.53
X75.779 Y26.084
X76.257 Y25.647
X76.742 Y25.219
X77.236 Y24.801
X77.737 Y24.391
X78.245 Y23.991
X78.761 Y23.6
X79.284 Y23.219
X79.814 Y22.847
X80.351 Y22.486
X80.895 Y22.135
X81.445 Y21.794
X82.001 Y21.463
X82.563 Y21.142
X83.131 Y20.832
X83.705 Y20.532
X84.284 Y20.244
X84.869 Y19.966
X85.458 Y19.698
X86.053 Y19.442
X86.652 Y19.197
X87.256 Y18.965
X87.865 Y18.745
X88.479 Y18.541
X89.099 Y18.356
X89.726 Y18.195
X90.36 Y18.064
X91 Y17.967
X91.644 Y17.91
X92.291 Y17.896
X92.938 Y17.93
X93.55 Y18.011
X94.109 Y18.131
X94.625 Y18.286
X95.103 Y18.473
X95.543 Y18.687
X95.944 Y18.924
X96.293 Y19.17
X96.592 Y19.418
X96.847 Y19.667
X97.061 Y19.913
X97.212 Y20.119
X97.342 Y20.327
X97.431 Y20.501
X97.487 Y20.635
X97.542 Y20.856
X97.526 Y21.083
X97.443 Y21.295
X97.299 Y21.471
X96.505 Y22.186
G3 X96.079 Y22.169 I-0.204 J-0.243
G1 X96.05 Y22.124 Z-0.99
X96.023 Y22.079 Z-0.976
X95.997 Y22.036 Z-0.953
X95.989 Y21.986 Z-0.916
X95.983 Y21.944 Z-0.871
Y21.943 Z-0.87
X95.987 Y21.908 Z-0.811
X95.989 Y21.886 Z-0.746
X95.99 Y21.879 Z-0.678
G0 Z5.08
X79.653 Y78.067
Z-0.36
G1 Z-0.678 F1905
X79.646 Y78.071 Z-0.748
X79.626 Y78.083 Z-0.815
X79.593 Y78.102 Z-0.876
X79.55 Y78.128 Z-0.926
X79.498 Y78.159 Z-0.964
X79.441 Y78.193 Z-0.987
