%
(HAfinsOp1)
(T1 D=3.175 CR=0 - ZMIN=0 - flat end mill)
G90
G17
G21
G28 G91 Z0
G90

(Face2)
T1 M6
S24000 M3
G17 G90
G54
G0 X154.464 Y0.637
Z21.272
G0 Z11.112
G1 Z5.858 F508
G18 G3 X154.146 Z5.54 I-0.318 K0 F2286
G1 X153.998
X-1.598
G17 G2 Y2.837 I0 J1.1
G1 X153.998 Y2.838
G3 Y5.04 I0 J1.101
G1 X-1.598
G2 Y7.242 I0 J1.101
G1 X153.998
G3 Y9.444 I0 J1.101
G1 X-1.598
G2 Y11.646 I0 J1.101
G1 X153.998
G3 Y13.846 I0 J1.1
G1 X-1.598 Y13.847
G2 Y16.049 I0 J1.101
G1 X153.998
G3 Y18.251 I0 J1.101
G1 X-1.598
G2 Y20.453 I0 J1.101
G1 X153.998
G3 Y22.655 I0 J1.101
G1 X-1.598
G2 Y24.855 I0 J1.1
G1 X153.998 Y24.856
G3 Y27.058 I0 J1.101
G1 X-1.598
G2 Y29.26 I0 J1.101
G1 X153.998
G3 Y31.462 I0 J1.101
G1 X-1.598
G2 Y33.664 I0 J1.101
G1 X153.998
G3 Y35.864 I0 J1.1
G1 X-1.598 Y35.865
G2 Y38.067 I0 J1.101
G1 X153.998
G3 Y40.269 I0 J1.101
G1 X-1.598
G2 Y42.471 I0 J1.101
G1 X153.998
G3 Y44.673 I0 J1.101
G1 X-1.598
G2 Y46.873 I0 J1.1
G1 X153.998 Y46.874
G3 Y49.076 I0 J1.101
G1 X-1.598
G2 Y51.278 I0 J1.101
G1 X153.998
G3 Y53.48 I0 J1.101
G1 X-1.598
G2 Y55.682 I0 J1.101
G1 X153.998 Y55.681
G3 Y57.883 I0 J1.101
G1 X-1.598
G2 Y60.085 I0 J1.101
G1 X153.998
G3 Y62.287 I0 J1.101
G1 X-1.598
G2 Y64.489 I0 J1.101
G1 X153.998
G3 Y66.691 I0 J1.101
G1 X-1.598 Y66.69
G2 Y68.892 I0 J1.101
G1 X153.998
G3 Y71.094 I0 J1.101
G1 X-1.598
G2 Y73.296 I0 J1.101
G1 X153.998
G3 Y75.498 I0 J1.101
G1 X-1.598
G2 Y77.7 I0 J1.101
G1 X153.998 Y77.699
G3 Y79.901 I0 J1.101
G1 X-1.598
G2 Y82.103 I0 J1.101
G1 X153.998
G3 Y84.305 I0 J1.101
G1 X-1.598
G2 Y86.507 I0 J1.101
G1 X153.998
G3 Y88.709 I0 J1.101
G1 X-1.598 Y88.708
G2 Y90.91 I0 J1.101
G1 X153.998
G3 Y93.112 I0 J1.101
G1 X-1.598
G2 Y95.314 I0 J1.101
G1 X153.998
G3 Y97.516 I0 J1.101
G1 X-1.598
G2 Y99.718 I0 J1.101
G1 X153.998 Y99.717
G3 Y101.919 I0 J1.101
G1 X-1.598
G2 Y104.121 I0 J1.101
G1 X153.998
G3 Y106.323 I0 J1.101
G1 X-1.598
G2 Y108.525 I0 J1.101
G1 X153.998
G3 Y110.727 I0 J1.101
G1 X-1.598 Y110.726
G2 Y112.928 I0 J1.101
G1 X153.998
G3 Y115.13 I0 J1.101
G1 X-1.598
G2 Y117.332 I0 J1.101
G1 X153.998
G3 Y119.534 I0 J1.101
G1 X-1.598
G2 Y121.736 I0 J1.101
G1 X153.998 Y121.735
G3 Y123.937 I0 J1.101
G1 X-1.598
G2 Y126.139 I0 J1.101
G1 X153.998
G3 Y128.341 I0 J1.101
G1 X-1.598
G2 Y130.543 I0 J1.101
G1 X153.998
G3 Y132.745 I0 J1.101
G1 X-1.598 Y132.744
G2 Y134.946 I0 J1.101
G1 X153.998
G3 Y137.148 I0 J1.101
G1 X-1.598
G2 Y139.35 I0 J1.101
G1 X153.998
G3 Y141.552 I0 J1.101
G1 X-1.598
G2 Y143.754 I0 J1.101
G1 X153.998 Y143.753
G3 Y145.955 I0 J1.101
G1 X-1.598
G2 Y148.157 I0 J1.101
G1 X153.998
G3 Y150.359 I0 J1.101
G1 X-1.598
G2 Y152.561 I0 J1.101
G1 X153.998
G3 Y154.763 I0 J1.101
G1 X-1.598 Y154.762
G2 Y156.964 I0 J1.101
G1 X153.998
G3 Y159.166 I0 J1.101
G1 X-1.598
G2 Y161.368 I0 J1.101
G1 X153.998
G3 Y163.57 I0 J1.101
G1 X-1.598
G18 G3 X-1.916 Z5.857 I0 K0.318
G0 X-1.915 Z11.112
X-2.064 Y0.637
G1 Z4.588 F508
G2 X-1.746 Z4.27 I0.318 K0 F2286
G1 X-1.598
X153.998
G17 G3 Y2.837 I0 J1.1
G1 X-1.598 Y2.838
G2 Y5.04 I0 J1.101
G1 X153.998
G3 Y7.242 I0 J1.101
G1 X-1.598
G2 Y9.444 I0 J1.101
G1 X153.998
G3 Y11.646 I0 J1.101
G1 X-1.598
G2 Y13.846 I0 J1.1
G1 X153.998 Y13.847
G3 Y16.049 I0 J1.101
G1 X-1.598
G2 Y18.251 I0 J1.101
G1 X153.998
G3 Y20.453 I0 J1.101
G1 X-1.598
G2 Y22.655 I0 J1.101
G1 X153.998
G3 Y24.855 I0 J1.1
G1 X-1.598 Y24.856
G2 Y27.058 I0 J1.101
G1 X153.998
G3 Y29.26 I0 J1.101
G1 X-1.598
G2 Y31.462 I0 J1.101
G1 X153.998
G3 Y33.664 I0 J1.101
G1 X-1.598
G2 Y35.864 I0 J1.1
G1 X153.998 Y35.865
G3 Y38.067 I0 J1.101
G1 X-1.598
G2 Y40.269 I0 J1.101
G1 X153.998
G3 Y42.471 I0 J1.101
G1 X-1.598
G2 Y44.673 I0 J1.101
G1 X153.998
G3 Y46.873 I0 J1.1
G1 X-1.598 Y46.874
G2 Y49.076 I0 J1.101
G1 X153.998
G3 Y51.278 I0 J1.101
G1 X-1.598
G2 Y53.48 I0 J1.101
G1 X153.998
G3 Y55.682 I0 J1.101
G1 X-1.598 Y55.681
G2 Y57.883 I0 J1.101
G1 X153.998
G3 Y60.085 I0 J1.101
G1 X-1.598
G2 Y62.287 I0 J1.101
G1 X153.998
G3 Y64.489 I0 J1.101
G1 X-1.598
G2 Y66.691 I0 J1.101
G1 X153.998 Y66.69
G3 Y68.892 I0 J1.101
G1 X-1.598
G2 Y71.094 I0 J1.101
G1 X153.998
G3 Y73.296 I0 J1.101
G1 X-1.598
G2 Y75.498 I0 J1.101
G1 X153.998
G3 Y77.7 I0 J1.101
G1 X-1.598 Y77.699
G2 Y79.901 I0 J1.101
G1 X153.998
G3 Y82.103 I0 J1.101
G1 X-1.598
G2 Y84.305 I0 J1.101
G1 X153.998
G3 Y86.507 I0 J1.101
G1 X-1.598
G2 Y88.709 I0 J1.101
G1 X153.998 Y88.708
G3 Y90.91 I0 J1.101
G1 X-1.598
G2 Y93.112 I0 J1.101
G1 X153.998
G3 Y95.314 I0 J1.101
G1 X-1.598
G2 Y97.516 I0 J1.101
G1 X153.998
G3 Y99.718 I0 J1.101
G1 X-1.598 Y99.717
G2 Y101.919 I0 J1.101
G1 X153.998
G3 Y104.121 I0 J1.101
G1 X-1.598
G2 Y106.323 I0 J1.101
G1 X153.998
G3 Y108.525 I0 J1.101
G1 X-1.598
G2 Y110.727 I0 J1.101
G1 X153.998 Y110.726
G3 Y112.928 I0 J1.101
G1 X-1.598
G2 Y115.13 I0 J1.101
G1 X153.998
G3 Y117.332 I0 J1.101
G1 X-1.598
G2 Y119.534 I0 J1.101
G1 X153.998
G3 Y121.736 I0 J1.101
G1 X-1.598 Y121.735
G2 Y123.937 I0 J1.101
G1 X153.998
G3 Y126.139 I0 J1.101
G1 X-1.598
G2 Y128.341 I0 J1.101
G1 X153.998
G3 Y130.543 I0 J1.101
G1 X-1.598
G2 Y132.745 I0 J1.101
G1 X153.998 Y132.744
G3 Y134.946 I0 J1.101
G1 X-1.598
G2 Y137.148 I0 J1.101
G1 X153.998
G3 Y139.35 I0 J1.101
G1 X-1.598
G2 Y141.552 I0 J1.101
G1 X153.998
G3 Y143.754 I0 J1.101
G1 X-1.598 Y143.753
G2 Y145.955 I0 J1.101
G1 X153.998
G3 Y148.157 I0 J1.101
G1 X-1.598
G2 Y150.359 I0 J1.101
G1 X153.998
G3 Y152.561 I0 J1.101
G1 X-1.598
G2 Y154.763 I0 J1.101
G1 X153.998 Y154.762
G3 Y156.964 I0 J1.101
G1 X-1.598
G2 Y159.166 I0 J1.101
G1 X153.998
G3 Y161.368 I0 J1.101
G1 X-1.598
G2 Y163.57 I0 J1.101
G1 X153.998
G18 G2 X154.316 Z4.587 I0 K0.318
G0 X154.315 Z11.112
X154.464 Y0.637
G1 Z3.318 F508
G3 X154.146 Z3 I-0.318 K0 F2286
G1 X153.998
X-1.598
G17 G2 Y2.837 I0 J1.1
G1 X153.998 Y2.838
G3 Y5.04 I0 J1.101
G1 X-1.598
G2 Y7.242 I0 J1.101
G1 X153.998
G3 Y9.444 I0 J1.101
G1 X-1.598
G2 Y11.646 I0 J1.101
G1 X153.998
G3 Y13.846 I0 J1.1
G1 X-1.598 Y13.847
G2 Y16.049 I0 J1.101
G1 X153.998
G3 Y18.251 I0 J1.101
G1 X-1.598
G2 Y20.453 I0 J1.101
G1 X153.998
G3 Y22.655 I0 J1.101
G1 X-1.598
G2 Y24.855 I0 J1.1
G1 X153.998 Y24.856
G3 Y27.058 I0 J1.101
G1 X-1.598
G2 Y29.26 I0 J1.101
G1 X153.998
G3 Y31.462 I0 J1.101
G1 X-1.598
G2 Y33.664 I0 J1.101
G1 X153.998
G3 Y35.864 I0 J1.1
G1 X-1.598 Y35.865
G2 Y38.067 I0 J1.101
G1 X153.998
G3 Y40.269 I0 J1.101
G1 X-1.598
G2 Y42.471 I0 J1.101
G1 X153.998
G3 Y44.673 I0 J1.101
G1 X-1.598
G2 Y46.873 I0 J1.1
G1 X153.998 Y46.874
G3 Y49.076 I0 J1.101
G1 X-1.598
G2 Y51.278 I0 J1.101
G1 X153.998
G3 Y53.48 I0 J1.101
G1 X-1.598
G2 Y55.682 I0 J1.101
G1 X153.998 Y55.681
G3 Y57.883 I0 J1.101
G1 X-1.598
G2 Y60.085 I0 J1.101
G1 X153.998
G3 Y62.287 I0 J1.101
G1 X-1.598
G2 Y64.489 I0 J1.101
G1 X153.998
G3 Y66.691 I0 J1.101
G1 X-1.598 Y66.69
G2 Y68.892 I0 J1.101
G1 X153.998
G3 Y71.094 I0 J1.101
G1 X-1.598
G2 Y73.296 I0 J1.101
G1 X153.998
G3 Y75.498 I0 J1.101
G1 X-1.598
G2 Y77.7 I0 J1.101
G1 X153.998 Y77.699
G3 Y79.901 I0 J1.101
G1 X-1.598
G2 Y82.103 I0 J1.101
G1 X153.998
G3 Y84.305 I0 J1.101
G1 X-1.598
G2 Y86.507 I0 J1.101
G1 X153.998
G3 Y88.709 I0 J1.101
G1 X-1.598 Y88.708
G2 Y90.91 I0 J1.101
G1 X153.998
G3 Y93.112 I0 J1.101
G1 X-1.598
G2 Y95.314 I0 J1.101
G1 X153.998
G3 Y97.516 I0 J1.101
G1 X-1.598
G2 Y99.718 I0 J1.101
G1 X153.998 Y99.717
G3 Y101.919 I0 J1.101
G1 X-1.598
G2 Y104.121 I0 J1.101
G1 X153.998
G3 Y106.323 I0 J1.101
G1 X-1.598
G2 Y108.525 I0 J1.101
G1 X153.998
G3 Y110.727 I0 J1.101
G1 X-1.598 Y110.726
G2 Y112.928 I0 J1.101
G1 X153.998
G3 Y115.13 I0 J1.101
G1 X-1.598
G2 Y117.332 I0 J1.101
G1 X153.998
G3 Y119.534 I0 J1.101
G1 X-1.598
G2 Y121.736 I0 J1.101
G1 X153.998 Y121.735
G3 Y123.937 I0 J1.101
G1 X-1.598
G2 Y126.139 I0 J1.101
G1 X153.998
G3 Y128.341 I0 J1.101
G1 X-1.598
G2 Y130.543 I0 J1.101
G1 X153.998
G3 Y132.745 I0 J1.101
G1 X-1.598 Y132.744
G2 Y134.946 I0 J1.101
G1 X153.998
G3 Y137.148 I0 J1.101
G1 X-1.598
G2 Y139.35 I0 J1.101
G1 X153.998
G3 Y141.552 I0 J1.101
G1 X-1.598
G2 Y143.754 I0 J1.101
G1 X153.998 Y143.753
G3 Y145.955 I0 J1.101
G1 X-1.598
G2 Y148.157 I0 J1.101
G1 X153.998
G3 Y150.359 I0 J1.101
G1 X-1.598
G2 Y152.561 I0 J1.101
G1 X153.998
G3 Y154.763 I0 J1.101
G1 X-1.598 Y154.762
G2 Y156.964 I0 J1.101
G1 X153.998
G3 Y159.166 I0 J1.101
G1 X-1.598
G2 Y161.368 I0 J1.101
G1 X153.998
G3 Y163.57 I0 J1.101
G1 X-1.598
G18 G3 X-1.916 Z3.317 I0 K0.318
G0 X-1.915 Z21.272
G17

(2D Contour1)
G0 X76.518 Y-2.54
Z19
Z9
G1 Z4.635 F508
Z3.301
G19 G3 Y-2.223 Z2.985 J0.317 K0.001 F1905
G1 Y-1.905 Z2.984
G17 G3 X76.2 Y-1.587 I-0.318 J0
G1 X0
G2 X-1.587 Y0 I0 J1.587
G1 Y165.1
G2 X0 Y166.687 I1.587 J0
G1 X152.4 Y166.688
G2 X153.988 Y165.1 I0 J-1.588
G1 Y0
G2 X152.4 Y-1.588 I-1.588 J0
G1 X76.2 Y-1.587
G3 X75.882 Y-1.905 I0 J-0.318
G1 Y-2.223
G19 G2 Y-2.541 Z3.301 J0 K0.318
G0 Y-2.54 Z9
X76.518
G1 Z3.619 F508
Z2.285
G3 Y-2.223 Z1.969 J0.317 K0.001 F1905
G1 Y-1.905 Z1.968
G17 G3 X76.2 Y-1.587 I-0.318 J0
G1 X0
G2 X-1.587 Y0 I0 J1.587
G1 Y165.1
G2 X0 Y166.687 I1.587 J0
G1 X152.4 Y166.688
G2 X153.988 Y165.1 I0 J-1.588
G1 Y0
G2 X152.4 Y-1.588 I-1.588 J0
G1 X76.2 Y-1.587
G3 X75.882 Y-1.905 I0 J-0.318
G1 Y-2.223
G19 G2 Y-2.541 Z2.285 J0 K0.318
G0 Y-2.54 Z9
X76.518
G1 Z2.603 F508
Z1.269
G3 Y-2.223 Z0.953 J0.317 K0.001 F1905
G1 Y-1.905 Z0.952
G17 G3 X76.2 Y-1.587 I-0.318 J0
G1 X0
G2 X-1.587 Y0 I0 J1.587
G1 Y165.1
G2 X0 Y166.687 I1.587 J0
G1 X152.4 Y166.688
G2 X153.988 Y165.1 I0 J-1.588
G1 Y0
G2 X152.4 Y-1.588 I-1.588 J0
G1 X76.2 Y-1.587
G3 X75.882 Y-1.905 I0 J-0.318
G1 Y-2.223
G19 G2 Y-2.541 Z1.269 J0 K0.318
G0 Y-2.54 Z9
X76.518
G1 Z1.587 F508
Z0.317
G3 Y-2.223 Z0 J0.317 K0 F1905
G1 Y-1.905
G17 G3 X76.2 Y-1.587 I-0.318 J0
G1 X0
G2 X-1.587 Y0 I0 J1.587
G1 Y165.1
G2 X0 Y166.687 I1.587 J0
G1 X152.4 Y166.688
G2 X153.988 Y165.1 I0 J-1.588
G1 Y0
G2 X152.4 Y-1.588 I-1.588 J0
G1 X76.2 Y-1.587
G3 X75.882 Y-1.905 I0 J-0.318
G1 Y-2.223
G19 G2 Y-2.54 Z0.317 J0 K0.317
G0 Z19
G17

(Adaptive1)
G0 Z19.24
X93.091 Y55.061
Z19.24
Z9.08
Z5.545
G3 X91.398 Y56.943 Z5.442 I-1.525 J0.331 F508
X90.148 Y54.745 Z5.339 I0.168 J-1.55
X92.626 Y54.254 Z5.236 I1.416 J0.648
X92.31 Y56.756 Z5.132 I-1.06 J1.137
X90.038 Y55.668 Z5.029 I-0.744 J-1.363
X91.786 Y53.857 Z4.926 I1.527 J-0.275
X92.952 Y56.087 Z4.823 I-0.221 J1.535
X90.471 Y56.487 Z4.72 I-1.385 J-0.695
X90.874 Y54.011 Z4.617 I1.094 J-1.093
X93.092 Y55.173 Z4.514 I0.69 J1.381
X91.292 Y56.909 Z4.411 I-1.526 J0.219
X90.215 Y54.655 Z4.308 I0.274 J-1.515
X92.69 Y54.346 Z4.205 I1.349 J0.738
X92.203 Y56.787 Z4.101 I-1.124 J1.045
X90.042 Y55.556 Z3.998 I-0.637 J-1.394
X91.891 Y53.896 Z3.895 I1.523 J-0.163
X92.882 Y56.173 Z3.792 I-0.326 J1.496
X90.411 Y56.393 Z3.689 I-1.315 J-0.781
X90.982 Y53.984 Z3.586 I1.154 J-0.999
X93.085 Y55.284 Z3.483 I0.583 J1.408
X91.189 Y56.868 Z3.38 I-1.519 J0.108
X90.286 Y54.571 Z3.277 I0.377 J-1.474
X92.747 Y54.44 Z3.174 I1.278 J0.822
X92.095 Y56.812 Z3.07 I-1.181 J0.951
X90.053 Y55.447 Z2.967 I-0.529 J-1.419
X91.991 Y53.941 Z2.864 I1.512 J-0.054
X92.806 Y56.253 Z2.761 I-0.426 J1.45
X90.359 Y56.296 Z2.658 I-1.239 J-0.86
X91.09 Y53.965 Z2.555 I1.206 J-0.902
X93.069 Y55.392 Z2.452 I0.475 J1.427
X90.061 I-1.504 J0
X93.069 I1.504 J0
G1 X93.09 Y56.039 F1905
X93.118 Y56.115
X93.152 Y56.263
X93.154 Y56.416
X93.131 Y56.566
X93.086 Y56.712
X93.023 Y56.851
X92.944 Y56.981
X92.852 Y57.102
X92.748 Y57.213
X92.633 Y57.314
X92.51 Y57.404
X92.38 Y57.483
X92.243 Y57.55
X92.1 Y57.607
X91.948 Y57.653
X91.79 Y57.688
X91.627 Y57.711
X91.459 Y57.72
X91.288 Y57.716
X91.116 Y57.698
X90.943 Y57.665
X90.771 Y57.619
X90.602 Y57.558
X90.437 Y57.483
X90.278 Y57.394
X90.124 Y57.292
X89.979 Y57.178
X89.842 Y57.051
X89.715 Y56.913
X89.6 Y56.765
X89.496 Y56.607
X89.405 Y56.441
X89.327 Y56.268
X89.263 Y56.088
X89.214 Y55.904
X89.179 Y55.716
X89.16 Y55.525
X89.156 Y55.333
X89.168 Y55.141
X89.195 Y54.951
X89.237 Y54.763
X89.294 Y54.578
X89.366 Y54.399
X89.452 Y54.227
X89.552 Y54.061
X89.665 Y53.904
X89.79 Y53.757
X89.926 Y53.619
X90.074 Y53.494
X90.23 Y53.38
X90.396 Y53.28
X90.569 Y53.193
X90.748 Y53.12
X90.933 Y53.062
X91.122 Y53.018
X91.314 Y52.99
X91.507 Y52.978
X91.701 Y52.981
X91.894 Y53
X92.085 Y53.034
X92.272 Y53.083
X92.455 Y53.147
X92.633 Y53.226
X92.803 Y53.319
X92.965 Y53.425
X93.119 Y53.543
X93.262 Y53.674
X93.394 Y53.816
X93.515 Y53.968
X93.623 Y54.129
X93.729 Y54.319
X93.89 Y54.67
X94.022 Y55.031
X94.1 Y55.314
X94.149 Y55.571
X94.175 Y55.812
X94.182 Y56.039
X94.17 Y56.256
X94.143 Y56.464
X94.099 Y56.668
X94.038 Y56.867
X93.962 Y57.062
X93.871 Y57.249
X93.764 Y57.43
X93.643 Y57.601
X93.507 Y57.765
X93.356 Y57.918
X93.192 Y58.061
X93.014 Y58.192
X92.823 Y58.31
X92.621 Y58.414
X92.408 Y58.503
X92.185 Y58.575
X91.954 Y58.63
X91.716 Y58.667
X91.473 Y58.684
X91.227 Y58.682
X90.979 Y58.66
X90.732 Y58.618
X90.486 Y58.556
X90.245 Y58.473
X90.009 Y58.371
X89.781 Y58.249
X89.561 Y58.109
X89.353 Y57.95
X89.157 Y57.774
X88.975 Y57.582
X88.808 Y57.376
X88.658 Y57.155
X88.525 Y56.923
X88.411 Y56.679
X88.317 Y56.427
X88.243 Y56.167
X88.19 Y55.902
X88.158 Y55.632
X88.148 Y55.361
X88.16 Y55.089
X88.194 Y54.818
X88.249 Y54.551
X88.326 Y54.289
X88.424 Y54.033
X88.542 Y53.787
X88.679 Y53.55
X88.835 Y53.324
X89.009 Y53.112
X89.2 Y52.915
X89.405 Y52.733
X89.625 Y52.568
X89.857 Y52.422
X90.101 Y52.294
X90.354 Y52.187
X90.615 Y52.1
X90.882 Y52.034
X91.153 Y51.99
X91.427 Y51.968
X91.702
X91.976 Y51.99
X92.248 Y52.034
X92.515 Y52.099
X92.776 Y52.186
X93.03 Y52.294
X93.273 Y52.421
X93.506 Y52.568
X93.727 Y52.733
X93.937 Y52.918
X94.157 Y53.146
X94.371 Y53.407
X94.57 Y53.694
X94.75 Y54.002
X94.902 Y54.321
X95.026 Y54.645
X95.121 Y54.967
X95.187 Y55.286
X95.227 Y55.602
X95.241 Y55.915
X95.23 Y56.224
X95.195 Y56.528
X95.136 Y56.826
X95.053 Y57.116
X95.035 Y57.165
X94.931 Y57.354
X94.777 Y57.504
X94.587 Y57.605
X94.546 Y57.619
X94.507 Y57.637
X94.434 Y57.678
X94.397 Y57.704
X94.36 Y57.732
X94.321 Y57.766
X94.264 Y57.828
X94.213 Y57.889
X94.197 Y57.913
X94.152 Y57.987
X94.118 Y58.06
X94.105 Y58.105
X94.055 Y58.249
X93.958 Y58.406
X93.847 Y58.559
X93.712 Y58.715
X93.555 Y58.871
X93.38 Y59.019
X93.187 Y59.156
X92.971 Y59.285
X92.734 Y59.402
X92.479 Y59.503
X92.208 Y59.587
X91.925 Y59.649
X91.632 Y59.69
X91.329 Y59.707
X91.241 Y59.705
X91.068 Y59.68
X90.906 Y59.615
X90.763 Y59.515
X87.941 Y56.974
X87.833 Y56.867
X87.732 Y56.746
X87.633 Y56.608
X87.54 Y56.451
X87.449 Y56.268
X87.372 Y56.073
X87.304 Y55.854
X87.251 Y55.611
X87.215 Y55.354
X87.2 Y55.087
X87.207 Y54.803
X87.237 Y54.506
X87.294 Y54.202
X87.377 Y53.894
X87.487 Y53.587
X87.624 Y53.285
X87.787 Y52.991
X87.975 Y52.707
X88.188 Y52.436
X88.424 Y52.181
X88.683 Y51.943
X88.961 Y51.725
X89.258 Y51.529
X89.571 Y51.357
X89.897 Y51.21
X90.235 Y51.09
X90.582 Y50.997
X90.936 Y50.932
X91.295 Y50.895
X91.656 Y50.888
X91.708 Y50.891
X91.872 Y50.919
X92.025 Y50.983
X92.16 Y51.08
X95.338 Y53.942
X95.511 Y54.113
X95.621 Y54.243
X95.735 Y54.399
X95.843 Y54.578
X95.943 Y54.777
X96.037 Y55.008
X96.116 Y55.256
X96.177 Y55.524
X96.22 Y55.817
X96.24 Y56.13
X96.236 Y56.393
X96.211 Y56.648
X96.174 Y56.857
X96.125 Y57.044
X96.104 Y57.105
X95.995 Y57.31
X95.83 Y57.474
X95.624 Y57.581
X95.395 Y57.622
X95.164 Y57.593
G3 X94.944 Y57.304 Z2.61 I0.097 J-0.302
G1 X94.939 Y57.192 Z2.655
X94.929 Y56.945
X94.818 Y54.21
X94.817 Y54.198
X94.82 Y54.14
X94.834 Y54.083
X94.858 Y54.029
X94.891 Y53.981
G3 X95.338 Y53.942 Z2.452 I0.243 J0.204
G1 X96.155 Y54.677
X96.272 Y54.777
X96.337 Y54.824
X96.456 Y54.919
X96.567 Y55.024
X96.667 Y55.139
X96.755 Y55.264
X96.835 Y55.399
X96.914 Y55.559
X96.982 Y55.731
X97.039 Y55.918
X97.083 Y56.119
X97.108 Y56.306
X97.118 Y56.494
X97.114 Y56.683
X97.096 Y56.843
X97.066 Y57.002
X97.021 Y57.167
X96.97 Y57.31
X96.906 Y57.449
X96.827 Y57.588
X96.78 Y57.657
X96.632 Y57.818
X96.443 Y57.929
X96.229 Y57.979
X96.01 Y57.965
X95.978 Y57.958
X95.831 Y57.908
X95.786 Y57.892
G3 X95.588 Y57.565 Z2.619 I0.118 J-0.295
G1 X95.597 Y57.478 Z2.655
X95.622 Y57.232
X95.836 Y55.148
X95.845 Y55.056
X95.855 Y55.006
X95.872 Y54.957
X95.897 Y54.912
G3 X96.337 Y54.824 Z2.452 I0.264 J0.177
G1 X96.676 Y55.068
X96.694 Y55.077
X97.007 Y55.184
X97.148 Y55.241
X97.278 Y55.322
X97.395 Y55.419
X97.5 Y55.529
X97.594 Y55.65
X97.676 Y55.778
X97.746 Y55.913
X97.807 Y56.059
X97.859 Y56.218
X97.899 Y56.385
X97.927 Y56.559
X97.94 Y56.74
X97.939 Y56.928
X97.924 Y57.11
X97.895 Y57.281
X97.85 Y57.459
X97.825 Y57.535
X97.718 Y57.739
X97.555 Y57.9
X97.35 Y58.003
X97.123 Y58.038
X96.566
X96.419 Y58.03
X96.272 Y58.018
X96.125 Y57.99
X96.01 Y57.965
G3 X95.78 Y57.58 Z2.655 I0.078 J-0.308
G1 X95.792 Y57.544
X95.866 Y57.348
X96.522 Y55.626
X96.61 Y55.395
X96.618 Y55.375 Z2.646
G3 X97.007 Y55.185 Z2.452 I0.296 J0.113
G1 X97.08 Y55.21
X97.099 Y55.214
X97.448 Y55.24
X97.529 Y55.243
X97.681 Y55.256
X97.826 Y55.302
X97.963 Y55.369
X98.089 Y55.454
X98.206 Y55.553
X98.311 Y55.663
X98.406 Y55.782
X98.49 Y55.909
X98.568 Y56.053
X98.637 Y56.207
X98.696 Y56.371
X98.744 Y56.551
X98.775 Y56.725
X98.792 Y56.895
X98.796 Y57.077
X98.787 Y57.233
X98.765 Y57.384
X98.747 Y57.462
X98.678 Y57.649
X98.561 Y57.809
X98.405 Y57.934
X98.222 Y58.012
X98.025 Y58.038
X97.123
G3 X96.817 Y57.71 Z2.655 I0.011 J-0.317
G1 X96.822 Y57.664
X96.858 Y57.467
X97.161 Y55.801
X97.205 Y55.558
X97.215 Y55.503 Z2.633
G3 X97.529 Y55.243 Z2.452 I0.312 J0.057
G1 X97.595 Y55.245
X98.228
X98.38 Y55.253
X98.528 Y55.288
X98.67 Y55.344
X98.803 Y55.418
X98.927 Y55.506
X99.042 Y55.606
X99.148 Y55.716
X99.244 Y55.835
X99.336 Y55.971
X99.42 Y56.119
X99.494 Y56.277
X99.556 Y56.444
X99.602 Y56.604
X99.636 Y56.779
X99.655 Y56.941
X99.66 Y57.093
X99.653 Y57.256
X99.633 Y57.407
X99.623 Y57.453
X99.555 Y57.642
X99.438 Y57.805
X99.282 Y57.932
X99.098 Y58.011
X98.899 Y58.038
X98.025
G3 X97.719 Y57.71 Z2.655 I0.011 J-0.317
G1 X97.72 Y57.691
X97.741 Y57.464
X97.896 Y55.819
X97.919 Y55.573
X97.923 Y55.533 Z2.639
G3 X98.228 Y55.246 Z2.452 I0.316 J0.03
G1 X98.999 Y55.245
X99.152 Y55.253
X99.301 Y55.281
X99.446 Y55.33
X99.583 Y55.397
X99.711 Y55.478
X99.832 Y55.572
X99.942 Y55.677
X100.045 Y55.792
X100.142 Y55.918
X100.23 Y56.056
X100.311 Y56.209
X100.382 Y56.374
X100.437 Y56.534
X100.478 Y56.694
X100.506 Y56.863
X100.519 Y57.014
X100.52 Y57.169
X100.508 Y57.322
X100.483 Y57.478
X100.411 Y57.66
X100.294 Y57.817
X100.139 Y57.937
X99.959 Y58.013
X99.765 Y58.038
X98.899
G3 X98.593 Y57.71 Z2.655 I0.011 J-0.317
G1 Y57.706
X98.604 Y57.463
X98.681 Y55.82
X98.692 Y55.574
X98.693 Y55.548 Z2.645
G3 X98.999 Y55.246 Z2.452 I0.317 J0.015
G1 X99.882 Y55.245
X100.034 Y55.253
X100.182 Y55.287
X100.325 Y55.341
X100.46 Y55.411
X100.588 Y55.495
X100.706 Y55.591
X100.816 Y55.697
X100.917 Y55.812
X101.013 Y55.94
X101.102 Y56.083
X101.183 Y56.239
X101.253 Y56.405
X101.306 Y56.566
X101.344 Y56.721
X101.37 Y56.889
X101.382 Y57.041
Y57.193
X101.368 Y57.347
X101.356 Y57.421
X101.293 Y57.619
X101.178 Y57.791
X101.019 Y57.925
X100.83 Y58.009
X100.625 Y58.038
X99.765
G3 X99.459 Y57.71 Z2.655 I0.011 J-0.317
G1 Y57.704
X99.472 Y57.464
X99.561 Y55.82
X99.574 Y55.574
X99.576 Y55.546 Z2.644
G3 X99.882 Y55.246 Z2.452 I0.317 J0.017
G1 X100.683 Y55.245
X100.835 Y55.253
X100.985 Y55.278
X101.131 Y55.325
X101.269 Y55.389
X101.399 Y55.468
X101.521 Y55.559
X101.635 Y55.661
X101.739 Y55.773
X101.839 Y55.899
X101.931 Y56.036
X102.014 Y56.184
X102.088 Y56.344
X102.144 Y56.499
X102.19 Y56.665
X102.222 Y56.829
X102.238 Y56.981
X102.242 Y57.138
X102.234 Y57.291
X102.213 Y57.442
X102.208 Y57.464
X102.138 Y57.65
X102.021 Y57.81
X101.865 Y57.934
X101.683 Y58.012
X101.486 Y58.038
X100.625
G3 X100.319 Y57.713 Z2.654 I0.011 J-0.317
G1 Y57.71 Z2.655
X100.325 Y57.463
X100.37 Y55.821
X100.376 Y55.574
X100.377 Y55.554 Z2.647
G3 X100.683 Y55.246 Z2.452 I0.317 J0.009
G1 X101.565 Y55.245
X101.717 Y55.253
X101.867 Y55.282
X102.011 Y55.332
X102.148 Y55.398
X102.277 Y55.479
X102.398 Y55.572
X102.51 Y55.676
X102.613 Y55.789
X102.71 Y55.913
X102.801 Y56.053
X102.884 Y56.205
X102.957 Y56.369
X103.014 Y56.529
X103.055 Y56.683
X103.085 Y56.852
X103.1 Y57.004
X103.102 Y57.156
X103.092 Y57.312
X103.07 Y57.462
X103.068 Y57.471
X102.996 Y57.655
X102.879 Y57.814
X102.724 Y57.935
X102.543 Y58.012
X102.347 Y58.038
X101.486
G3 X101.18 Y57.71 Z2.655 I0.011 J-0.317
G1 X101.189 Y57.463
X101.249 Y55.82
X101.258 Y55.574
X101.259 Y55.551 Z2.646
G3 X101.565 Y55.246 Z2.452 I0.317 J0.012
G1 X102.448 Y55.245
X102.6 Y55.253
X102.749 Y55.286
X102.892 Y55.338
X103.028 Y55.407
X103.156 Y55.49
X103.275 Y55.585
X103.385 Y55.69
X103.488 Y55.804
X103.584 Y55.932
X103.674 Y56.073
X103.757 Y56.228
X103.828 Y56.393
X103.882 Y56.553
X103.921 Y56.708
X103.949 Y56.875
X103.962 Y57.027
X103.963 Y57.18
X103.951 Y57.333
X103.938 Y57.415
X103.876 Y57.614
X103.761 Y57.788
X103.603 Y57.923
X103.413 Y58.009
X103.206 Y58.038
X102.347
G3 X102.041 Y57.71 Z2.655 I0.011 J-0.317
G1 Y57.706
X102.053 Y57.464
X102.129 Y55.82
X102.14 Y55.574
X102.141 Y55.548 Z2.645
G3 X102.448 Y55.245 Z2.452 I0.318 J0.015
G1 X103.33
X103.482 Y55.253
X103.63 Y55.289
X103.772 Y55.344
X103.907 Y55.415
X104.034 Y55.5
X104.152 Y55.596
X104.261 Y55.703
X104.363 Y55.819
X104.459 Y55.949
X104.548 Y56.093
X104.629 Y56.249
X104.696 Y56.409
X104.746 Y56.564
X104.788 Y56.736
X104.812 Y56.891
X104.823 Y57.043
X104.822 Y57.205
X104.808 Y57.356
X104.796 Y57.426
X104.732 Y57.623
X104.617 Y57.793
X104.459 Y57.926
X104.27 Y58.01
X104.066 Y58.038
X103.206
G3 X102.9 Y57.71 Z2.655 I0.011 J-0.317
G1 Y57.703
X102.914 Y57.464
X103.008 Y55.82
X103.022 Y55.574
X103.024 Y55.545 Z2.643
G3 X103.33 Y55.246 Z2.452 I0.317 J0.018
G1 X104.146 Y55.245
X104.298 Y55.253
X104.448 Y55.282
X104.592 Y55.332
X104.729 Y55.398
X104.858 Y55.479
X104.979 Y55.572
X105.091 Y55.675
X105.194 Y55.788
X105.293 Y55.915
X105.385 Y56.055
X105.467 Y56.206
X105.538 Y56.367
X105.593 Y56.521
X105.637 Y56.689
X105.666 Y56.851
X105.681 Y57.003
X105.683 Y57.161
X105.673 Y57.313
X105.65 Y57.464
X105.648 Y57.474
X105.576 Y57.657
X105.459 Y57.815
X105.304 Y57.936
X105.123 Y58.012
X104.928 Y58.038
X104.066
G3 X103.76 Y57.71 Z2.655 I0.011 J-0.317
G1 Y57.709
X103.769 Y57.463
X103.83 Y55.82
X103.839 Y55.574
X103.84 Y55.551 Z2.646
G3 X104.146 Y55.246 Z2.452 I0.317 J0.012
G1 X105.028 Y55.245
X105.18 Y55.253
X105.329 Y55.286
X105.472 Y55.338
X105.608 Y55.407
X105.736 Y55.489
X105.856 Y55.584
X105.966 Y55.689
X106.069 Y55.804
X106.165 Y55.93
X106.255 Y56.072
X106.337 Y56.227
X106.409 Y56.392
X106.463 Y56.553
X106.502 Y56.706
X106.53 Y56.874
X106.543 Y57.026
X106.544 Y57.179
X106.532 Y57.333
X106.519 Y57.415
X106.457 Y57.614
X106.342 Y57.788
X106.184 Y57.923
X105.994 Y58.009
X105.787 Y58.038
X104.928
G3 X104.622 Y57.71 Z2.655 I0.011 J-0.317
G1 Y57.706
X104.633 Y57.464
X104.71 Y55.82
X104.721 Y55.574
X104.722 Y55.548 Z2.645
G3 X105.028 Y55.246 Z2.452 I0.317 J0.015
G1 X105.91 Y55.245
X106.063 Y55.253
X106.211 Y55.289
X106.353 Y55.344
X106.488 Y55.415
X106.614 Y55.5
X106.733 Y55.596
X106.842 Y55.702
X106.943 Y55.819
X107.039 Y55.948
X107.129 Y56.092
X107.21 Y56.248
X107.277 Y56.408
X107.327 Y56.563
X107.369 Y56.736
X107.393 Y56.891
X107.404 Y57.043
X107.403 Y57.204
X107.389 Y57.356
X107.377 Y57.426
X107.313 Y57.622
X107.198 Y57.793
X107.04 Y57.926
X106.852 Y58.01
X106.647 Y58.038
X105.787
G3 X105.481 Y57.71 Z2.655 I0.011 J-0.317
G1 Y57.703
X105.495 Y57.464
X105.589 Y55.82
X105.603 Y55.574
X105.605 Y55.545 Z2.643
G3 X105.91 Y55.246 Z2.452 I0.317 J0.018
G1 X106.712 Y55.245
X106.864 Y55.253
X107.014 Y55.28
X107.159 Y55.327
X107.297 Y55.392
X107.427 Y55.471
X107.549 Y55.563
X107.662 Y55.665
X107.766 Y55.777
X107.865 Y55.904
X107.957 Y56.041
X108.04 Y56.19
X108.113 Y56.351
X108.169 Y56.507
X108.214 Y56.672
X108.245 Y56.836
X108.261 Y56.988
X108.264 Y57.144
X108.255 Y57.297
X108.234 Y57.448
X108.23 Y57.467
X108.159 Y57.652
X108.042 Y57.811
X107.887 Y57.935
X107.705 Y58.012
X107.508 Y58.038
X106.647
G3 X106.341 Y57.712 Z2.655 I0.011 J-0.317
G1 Y57.71
X106.349 Y57.463
X106.398 Y55.821
X106.405 Y55.574
X106.406 Y55.553 Z2.647
G3 X106.712 Y55.246 Z2.452 I0.317 J0.01
G1 X107.594 Y55.245
X107.746 Y55.253
X107.896 Y55.283
X108.04 Y55.334
X108.176 Y55.401
X108.305 Y55.482
X108.425 Y55.576
X108.537 Y55.68
X108.64 Y55.793
X108.736 Y55.919
X108.827 Y56.059
X108.91 Y56.212
X108.983 Y56.376
X109.039 Y56.536
X109.079 Y56.69
X109.108 Y56.859
X109.123 Y57.011
X109.125 Y57.163
X109.114 Y57.318
X109.09 Y57.474
X109.018 Y57.657
X108.901 Y57.815
X108.746 Y57.936
X108.565 Y58.012
X108.37 Y58.038
X107.508
G3 X107.203 Y57.71 Z2.655 I0.012 J-0.317
G1 X107.202 Y57.709
X107.212 Y57.463
X107.277 Y55.82
X107.287 Y55.574
X107.288 Y55.55 Z2.646
G3 X107.594 Y55.246 Z2.452 I0.317 J0.013
G1 X108.476 Y55.245
X108.629 Y55.253
X108.777 Y55.287
X108.92 Y55.34
X109.056 Y55.41
X109.183 Y55.493
X109.302 Y55.588
X109.412 Y55.694
X109.514 Y55.809
X109.611 Y55.937
X109.701 Y56.079
X109.782 Y56.234
X109.853 Y56.4
X109.907 Y56.56
X109.945 Y56.715
X109.973 Y56.882
X109.985 Y57.034
Y57.186
X109.973 Y57.34
X109.96 Y57.418
X109.898 Y57.616
X109.783 Y57.789
X109.625 Y57.924
X109.435 Y58.009
X109.229 Y58.038
X108.37
G3 X108.064 Y57.71 Z2.655 I0.011 J-0.317
G1 Y57.706
X108.076 Y57.464
X108.157 Y55.82
X108.169 Y55.574
X108.17 Y55.547 Z2.644
G3 X108.476 Y55.246 Z2.452 I0.317 J0.016
G1 X109.292 Y55.245
X109.445 Y55.253
X109.595 Y55.28
X109.739 Y55.327
X109.877 Y55.392
X110.007 Y55.472
X110.129 Y55.563
X110.242 Y55.666
X110.346 Y55.778
X110.446 Y55.904
X110.538 Y56.042
X110.621 Y56.191
X110.694 Y56.351
X110.75 Y56.505
X110.795 Y56.673
X110.826 Y56.836
X110.842 Y56.987
X110.846 Y57.146
X110.837 Y57.298
X110.815 Y57.449
X110.811 Y57.467
X110.74 Y57.652
X110.623 Y57.812
X110.468 Y57.935
X110.286 Y58.012
X110.09 Y58.038
X109.229
G3 X108.923 Y57.712 Z2.654 I0.011 J-0.317
G1 Y57.71 Z2.655
X108.93 Y57.463
X108.978 Y55.821
X108.986 Y55.574
Y55.553 Z2.647
G3 X109.292 Y55.245 Z2.452 I0.318 J0.01
G1 X110.175
X110.327 Y55.253
X110.476 Y55.283
X110.62 Y55.334
X110.757 Y55.401
X110.886 Y55.482
X111.006 Y55.576
X111.118 Y55.68
X111.22 Y55.793
X111.317 Y55.918
X111.408 Y56.058
X111.491 Y56.212
X111.564 Y56.376
X111.62 Y56.536
X111.66 Y56.69
X111.69 Y56.858
X111.704 Y57.01
X111.706 Y57.162
X111.695 Y57.318
X111.671 Y57.474
X111.599 Y57.657
X111.482 Y57.815
X111.327 Y57.936
X111.146 Y58.012
X110.951 Y58.039
X110.09 Y58.038
G3 X109.784 Y57.71 Z2.655 I0.011 J-0.317
G1 Y57.709
X109.793 Y57.463
X109.858 Y55.82
X109.868 Y55.574
X109.869 Y55.55 Z2.646
G3 X110.175 Y55.246 Z2.452 I0.317 J0.013
G1 X111.057 Y55.245
X111.209 Y55.253
X111.358 Y55.287
X111.501 Y55.34
X111.636 Y55.41
X111.764 Y55.493
X111.883 Y55.588
X111.993 Y55.693
X112.095 Y55.808
X112.192 Y55.936
X112.282 Y56.078
X112.363 Y56.234
X112.434 Y56.399
X112.488 Y56.559
X112.526 Y56.714
X112.554 Y56.881
X112.567 Y57.033
Y57.186
X112.554 Y57.339
X112.541 Y57.417
X112.479 Y57.616
X112.364 Y57.789
X112.206 Y57.924
X112.016 Y58.009
X111.81 Y58.039
X110.951
G3 X110.645 Y57.71 Z2.655 I0.012 J-0.318
G1 Y57.706
X110.657 Y57.464
X110.738 Y55.82
X110.75 Y55.574
X110.751 Y55.547 Z2.644
G3 X111.057 Y55.246 Z2.452 I0.317 J0.016
G1 X111.903 Y55.245
X112.055 Y55.253
X112.204 Y55.284
X112.348 Y55.336
X112.484 Y55.404
X112.613 Y55.486
X112.733 Y55.58
X112.844 Y55.684
X112.946 Y55.797
X113.044 Y55.926
X113.136 Y56.067
X113.218 Y56.22
X113.287 Y56.38
X113.34 Y56.533
X113.384 Y56.704
X113.412 Y56.863
X113.426 Y57.015
X113.427 Y57.176
X113.415 Y57.328
X113.391 Y57.48
X113.318 Y57.661
X113.201 Y57.817
X113.047 Y57.937
X112.866 Y58.013
X112.673 Y58.039
X111.81
G3 X111.503 Y57.71 Z2.655 I0.011 J-0.318
G1 X111.504 Y57.708
X111.515 Y57.464
X111.585 Y55.82
X111.596 Y55.574
X111.597 Y55.549 Z2.645
G3 X111.903 Y55.246 Z2.452 I0.317 J0.014
G1 X112.741 Y55.245
X112.893 Y55.253
X113.043 Y55.281
X113.187 Y55.329
X113.325 Y55.395
X113.455 Y55.475
X113.576 Y55.567
X113.688 Y55.67
X113.792 Y55.782
X113.89 Y55.908
X113.983 Y56.048
X114.066 Y56.198
X114.138 Y56.359
X114.198 Y56.526
X114.239 Y56.677
X114.27 Y56.844
X114.285 Y56.997
X114.289 Y57.15
X114.279 Y57.307
X114.257 Y57.457
X114.254 Y57.468
X114.184 Y57.653
X114.066 Y57.812
X113.911 Y57.935
X113.729 Y58.012
X113.533 Y58.039
X112.673
G3 X112.366 Y57.711 Z2.655 I0.011 J-0.318
G1 X112.367 Y57.71
X112.374 Y57.463
X112.426 Y55.821
X112.434 Y55.574
Y55.553 Z2.647
G3 X112.741 Y55.245 Z2.452 I0.318 J0.01
G1 X113.623
X113.775 Y55.253
X113.924 Y55.284
X114.068 Y55.336
X114.204 Y55.403
X114.333 Y55.485
X114.453 Y55.579
X114.564 Y55.684
X114.666 Y55.797
X114.764 Y55.924
X114.854 Y56.065
X114.937 Y56.218
X115.009 Y56.383
X115.065 Y56.543
X115.104 Y56.697
X115.133 Y56.865
X115.147 Y57.017
X115.149 Y57.169
X115.138 Y57.324
X115.114 Y57.476
X115.042 Y57.659
X114.924 Y57.816
X114.77 Y57.937
X114.589 Y58.013
X114.395 Y58.039
X113.533
G3 X113.226 Y57.71 Z2.655 I0.011 J-0.318
G1 X113.227 Y57.708
X113.237 Y57.463
X113.306 Y55.82
X113.316 Y55.574
X113.317 Y55.55 Z2.645
G3 X113.623 Y55.246 Z2.452 I0.317 J0.013
G1 X114.505 Y55.245
X114.657 Y55.253
X114.806 Y55.288
X114.948 Y55.342
X115.084 Y55.412
X115.211 Y55.496
X115.33 Y55.591
X115.44 Y55.697
X115.542 Y55.812
X115.638 Y55.941
X115.728 Y56.084
X115.809 Y56.239
X115.88 Y56.405
X115.933 Y56.565
X115.971 Y56.72
X115.998 Y56.887
X116.01 Y57.039
Y57.191
X115.997 Y57.344
X115.984 Y57.419
X115.922 Y57.617
X115.807 Y57.79
X115.648 Y57.924
X115.459 Y58.009
X115.254 Y58.039
X114.395
G3 X114.088 Y57.71 Z2.655 I0.011 J-0.318
G1 X114.089 Y57.705
X114.101 Y57.464
X114.185 Y55.82
X114.198 Y55.574
X114.199 Y55.546 Z2.644
G3 X114.505 Y55.246 Z2.452 I0.317 J0.017
G1 X115.321 Y55.245
X115.474 Y55.253
X115.623 Y55.281
X115.768 Y55.329
X115.906 Y55.394
X116.035 Y55.474
X116.157 Y55.566
X116.27 Y55.668
X116.374 Y55.781
X116.473 Y55.908
X116.565 Y56.047
X116.648 Y56.196
X116.72 Y56.356
X116.776 Y56.51
X116.821 Y56.678
X116.851 Y56.84
X116.867 Y56.992
X116.87 Y57.151
X116.861 Y57.303
X116.839 Y57.454
X116.835 Y57.469
X116.764 Y57.654
X116.647 Y57.813
X116.492 Y57.935
X116.31 Y58.012
X116.115 Y58.039
X115.254
G3 X114.947 Y57.711 Z2.655 I0.011 J-0.318
G1 Y57.71
X114.955 Y57.463
X115.007 Y55.821
X115.014 Y55.574
X115.015 Y55.553 Z2.647
G3 X115.321 Y55.246 Z2.452 I0.317 J0.01
G1 X116.204 Y55.245
X116.356 Y55.253
X116.505 Y55.284
X116.649 Y55.335
X116.785 Y55.403
X116.914 Y55.484
X117.034 Y55.578
X117.145 Y55.682
X117.248 Y55.796
X117.344 Y55.922
X117.435 Y56.062
X117.518 Y56.216
X117.59 Y56.38
X117.646 Y56.541
X117.686 Y56.694
X117.715 Y56.863
X117.729 Y57.015
X117.731 Y57.167
X117.719 Y57.322
X117.696 Y57.476
X117.624 Y57.658
X117.506 Y57.815
X117.352 Y57.936
X117.171 Y58.013
X116.976 Y58.039
X116.115
G3 X115.808 Y57.71 Z2.655 I0.011 J-0.318
G1 X115.809 Y57.708
X115.819 Y57.463
X115.886 Y55.82
X115.896 Y55.574
X115.897 Y55.55 Z2.645
G3 X116.204 Y55.245 Z2.452 I0.318 J0.013
G1 X117.086
X117.238 Y55.253
X117.387 Y55.287
X117.529 Y55.341
X117.665 Y55.411
X117.792 Y55.495
X117.911 Y55.59
X118.021 Y55.696
X118.123 Y55.811
X118.219 Y55.94
X118.309 Y56.082
X118.39 Y56.238
X118.461 Y56.404
X118.514 Y56.564
X118.552 Y56.718
X118.58 Y56.886
X118.592 Y57.038
Y57.19
X118.579 Y57.343
X118.566 Y57.419
X118.504 Y57.617
X118.389 Y57.79
X118.23 Y57.924
X118.041 Y58.009
X117.835 Y58.039
X116.976
G3 X116.669 Y57.71 Z2.655 I0.011 J-0.318
G1 X116.67 Y57.705
X116.683 Y57.464
X116.766 Y55.82
X116.779 Y55.574
X116.78 Y55.547 Z2.644
G3 X117.086 Y55.246 Z2.452 I0.317 J0.016
G1 X117.932 Y55.245
X118.084 Y55.253
X118.233 Y55.285
X118.376 Y55.337
X118.512 Y55.405
X118.641 Y55.488
X118.76 Y55.582
X118.871 Y55.686
X118.974 Y55.8
X119.072 Y55.929
X119.163 Y56.071
X119.245 Y56.224
X119.314 Y56.384
X119.367 Y56.537
X119.41 Y56.709
X119.437 Y56.867
X119.451 Y57.019
Y57.18
X119.44 Y57.332
X119.426 Y57.416
X119.365 Y57.615
X119.25 Y57.789
X119.091 Y57.924
X118.901 Y58.009
X118.695 Y58.039
X117.835
G3 X117.528 Y57.71 Z2.655 I0.011 J-0.318
G1 X117.529 Y57.707
X117.54 Y57.464
X117.613 Y55.82
X117.625 Y55.574
X117.626 Y55.549 Z2.645
G3 X117.932 Y55.246 Z2.452 I0.317 J0.014
G1 X118.77 Y55.245
X118.922 Y55.253
X119.072 Y55.281
X119.216 Y55.33
X119.353 Y55.396
X119.483 Y55.476
X119.604 Y55.569
X119.716 Y55.672
X119.819 Y55.784
X119.918 Y55.911
X120.01 Y56.051
X120.093 Y56.202
X120.164 Y56.361
X120.219 Y56.515
X120.264 Y56.685
X120.294 Y56.846
X120.309 Y56.997
X120.312 Y57.157
X120.302 Y57.31
X120.279 Y57.46
X120.276 Y57.473
X120.205 Y57.656
X120.088 Y57.814
X119.933 Y57.936
X119.752 Y58.012
X119.557 Y58.039
X118.695
G3 X118.388 Y57.71 Z2.655 I0.011 J-0.318
G1 X118.389
X118.397 Y57.463
X118.454 Y55.82
X118.463 Y55.574
Y55.552 Z2.646
G3 X118.77 Y55.245 Z2.452 I0.318 J0.011
G1 X119.652
X119.804 Y55.253
X119.953 Y55.285
X120.096 Y55.337
X120.233 Y55.405
X120.361 Y55.487
X120.481 Y55.582
X120.591 Y55.686
X120.694 Y55.8
X120.79 Y55.927
X120.881 Y56.068
X120.963 Y56.222
X121.035 Y56.387
X121.09 Y56.548
X121.129 Y56.701
X121.158 Y56.87
X121.171 Y57.021
X121.172 Y57.174
X121.161 Y57.328
X121.147 Y57.413
X121.086 Y57.613
X120.971 Y57.787
X120.813 Y57.923
X120.622 Y58.009
X120.416 Y58.039
X119.557
G3 X119.25 Y57.71 Z2.655 I0.011 J-0.318
G1 Y57.707
X119.261 Y57.464
X119.334 Y55.82
X119.345 Y55.574
X119.346 Y55.549 Z2.645
G3 X119.652 Y55.246 Z2.452 I0.317 J0.014
G1 X120.534 Y55.245
X120.686 Y55.253
X120.835 Y55.288
X120.977 Y55.343
X121.112 Y55.413
X121.239 Y55.498
X121.357 Y55.594
X121.467 Y55.7
X121.569 Y55.816
X121.665 Y55.945
X121.754 Y56.088
X121.835 Y56.244
X121.903 Y56.404
X121.954 Y56.558
X121.996 Y56.731
X122.02 Y56.886
X122.032 Y57.038
X122.031 Y57.2
X122.018 Y57.352
X122.005 Y57.424
X121.942 Y57.621
X121.827 Y57.793
X121.669 Y57.926
X121.48 Y58.01
X121.276 Y58.039
X120.416
G3 X120.109 Y57.71 Z2.655 I0.011 J-0.318
G1 X120.11 Y57.704
X120.123 Y57.464
X120.213 Y55.82
X120.227 Y55.574
X120.228 Y55.545 Z2.644
G3 X120.534 Y55.246 Z2.452 I0.317 J0.018
G1 X121.35 Y55.245
X121.502 Y55.253
X121.652 Y55.281
X121.797 Y55.33
X121.934 Y55.396
X122.063 Y55.476
X122.185 Y55.569
X122.297 Y55.672
X122.4 Y55.784
X122.499 Y55.911
X122.591 Y56.051
X122.673 Y56.201
X122.745 Y56.361
X122.8 Y56.516
X122.845 Y56.683
X122.875 Y56.846
X122.89 Y56.998
X122.892 Y57.156
X122.883 Y57.308
X122.86 Y57.459
X122.857 Y57.472
X122.786 Y57.655
X122.669 Y57.814
X122.514 Y57.936
X122.332 Y58.012
X122.137 Y58.039
X121.276
G3 X120.969 Y57.71 Z2.655 I0.011 J-0.318
G1 X120.978 Y57.463
X121.035 Y55.82
X121.043 Y55.574
X121.044 Y55.552 Z2.646
G3 X121.35 Y55.246 Z2.452 I0.317 J0.011
G1 X122.232 Y55.245
X122.385 Y55.253
X122.534 Y55.285
X122.677 Y55.337
X122.813 Y55.405
X122.942 Y55.487
X123.061 Y55.582
X123.172 Y55.686
X123.274 Y55.8
X123.371 Y55.927
X123.462 Y56.068
X123.544 Y56.222
X123.616 Y56.387
X123.671 Y56.547
X123.71 Y56.701
X123.739 Y56.869
X123.752 Y57.021
X123.753 Y57.174
X123.741 Y57.328
X123.728 Y57.413
X123.667 Y57.613
X123.552 Y57.787
X123.393 Y57.923
X123.203 Y58.009
X122.996 Y58.039
X122.137
G3 X121.83 Y57.71 Z2.655 I0.011 J-0.318
G1 X121.831 Y57.707
X121.842 Y57.464
X121.914 Y55.82
X121.925 Y55.574
X121.926 Y55.549 Z2.645
G3 X122.232 Y55.245 Z2.452 I0.318 J0.014
G1 X123.115
X123.267 Y55.253
X123.415 Y55.288
X123.558 Y55.343
X123.693 Y55.413
X123.82 Y55.498
X123.938 Y55.594
X124.048 Y55.7
X124.149 Y55.815
X124.245 Y55.945
X124.335 Y56.088
X124.416 Y56.244
X124.484 Y56.404
X124.535 Y56.558
X124.577 Y56.731
X124.601 Y56.886
X124.613 Y57.038
X124.612 Y57.2
X124.599 Y57.352
X124.586 Y57.424
X124.523 Y57.621
X124.408 Y57.793
X124.249 Y57.926
X124.061 Y58.01
X123.856 Y58.039
X122.996
G3 X122.689 Y57.71 Z2.655 I0.011 J-0.318
G1 X122.69 Y57.704
X122.704 Y57.464
X122.794 Y55.82
X122.807 Y55.574
X122.809 Y55.545 Z2.644
G3 X123.115 Y55.246 Z2.452 I0.317 J0.018
G1 X123.916 Y55.245
X124.068 Y55.253
X124.219 Y55.279
X124.363 Y55.326
X124.502 Y55.39
X124.632 Y55.469
X124.754 Y55.56
X124.867 Y55.663
X124.971 Y55.774
X125.071 Y55.9
X125.163 Y56.037
X125.246 Y56.186
X125.319 Y56.346
X125.376 Y56.502
X125.422 Y56.667
X125.453 Y56.832
X125.469 Y56.983
X125.473 Y57.14
X125.465 Y57.292
X125.444 Y57.443
X125.439 Y57.465
X125.369 Y57.65
X125.252 Y57.811
X125.096 Y57.934
X124.914 Y58.012
X124.717 Y58.039
X123.856
G3 X123.549 Y57.712 Z2.654 I0.011 J-0.318
G1 X123.55 Y57.71 Z2.655
X123.557 Y57.463
X123.602 Y55.821
X123.609 Y55.574
X123.61 Y55.554 Z2.647
G3 X123.916 Y55.246 Z2.452 I0.317 J0.009
G1 X124.798 Y55.245
X124.951 Y55.253
X125.1 Y55.283
X125.244 Y55.333
X125.381 Y55.399
X125.51 Y55.48
X125.631 Y55.574
X125.742 Y55.677
X125.845 Y55.79
X125.942 Y55.915
X126.033 Y56.055
X126.117 Y56.208
X126.189 Y56.371
X126.246 Y56.532
X126.286 Y56.686
X126.316 Y56.854
X126.331 Y57.006
X126.333 Y57.158
X126.323 Y57.314
X126.3 Y57.465
X126.299 Y57.472
X126.227 Y57.656
X126.11 Y57.814
X125.955 Y57.936
X125.774 Y58.012
X125.579 Y58.039
X124.717
G3 X124.41 Y57.71 Z2.655 I0.011 J-0.318
G1 X124.411 Y57.709
X124.42 Y57.463
X124.482 Y55.82
X124.491 Y55.574
X124.492 Y55.551 Z2.646
G3 X124.798 Y55.246 Z2.452 I0.317 J0.012
G1 X125.681 Y55.245
X125.833 Y55.253
X125.982 Y55.286
X126.125 Y55.339
X126.26 Y55.408
X126.388 Y55.491
X126.507 Y55.586
X126.618 Y55.691
X126.72 Y55.806
X126.817 Y55.933
X126.907 Y56.075
X126.989 Y56.23
X127.06 Y56.395
X127.114 Y56.555
X127.153 Y56.71
X127.181 Y56.878
X127.194 Y57.029
Y57.182
X127.182 Y57.335
X127.169 Y57.416
X127.107 Y57.615
X126.992 Y57.789
X126.834 Y57.924
X126.644 Y58.009
X126.437 Y58.039
X125.579
G3 X125.272 Y57.71 Z2.655 I0.011 J-0.318
G1 X125.273 Y57.706
X125.284 Y57.464
X125.362 Y55.82
X125.373 Y55.574
X125.375 Y55.548 Z2.645
G3 X125.681 Y55.246 Z2.452 I0.317 J0.015
G1 X126.497 Y55.245
X126.649 Y55.253
X126.799 Y55.279
X126.944 Y55.326
X127.082 Y55.391
X127.212 Y55.47
X127.334 Y55.561
X127.448 Y55.663
X127.552 Y55.774
X127.652 Y55.901
X127.744 Y56.039
X127.827 Y56.187
X127.9 Y56.347
X127.956 Y56.501
X128.003 Y56.669
X128.034 Y56.832
X128.05 Y56.983
X128.054 Y57.142
X128.045 Y57.294
X128.025 Y57.445
X128.02 Y57.466
X127.949 Y57.651
X127.832 Y57.811
X127.677 Y57.934
X127.495 Y58.012
X127.298 Y58.039
X126.437
G3 X126.131 Y57.713 Z2.654 I0.012 J-0.318
G1 Y57.71 Z2.655
X126.138 Y57.463
X126.183 Y55.821
X126.19 Y55.574
Y55.554 Z2.647
G3 X126.497 Y55.245 Z2.452 I0.318 J0.009
G1 X127.379
X127.531 Y55.253
X127.681 Y55.283
X127.825 Y55.333
X127.962 Y55.399
X128.091 Y55.48
X128.211 Y55.574
X128.323 Y55.677
X128.426 Y55.79
X128.523 Y55.915
X128.614 Y56.055
X128.697 Y56.208
X128.77 Y56.371
X128.827 Y56.532
X128.867 Y56.685
X128.897 Y56.854
X128.912 Y57.006
X128.914 Y57.158
X128.904 Y57.314
X128.881 Y57.465
X128.879 Y57.472
X128.808 Y57.656
X128.691 Y57.814
X128.536 Y57.936
X128.355 Y58.012
X128.159 Y58.039
X127.298
G3 X126.991 Y57.71 Z2.655 I0.011 J-0.318
G1 X126.992 Y57.709
X127.001 Y57.464
X127.063 Y55.82
X127.072 Y55.574
X127.073 Y55.551 Z2.646
G3 X127.379 Y55.246 Z2.452 I0.317 J0.012
G1 X128.261 Y55.245
X128.414 Y55.253
X128.562 Y55.286
X128.705 Y55.339
X128.841 Y55.408
X128.969 Y55.491
X129.088 Y55.586
X129.199 Y55.691
X129.301 Y55.806
X129.397 Y55.933
X129.488 Y56.075
X129.569 Y56.23
X129.641 Y56.395
X129.695 Y56.555
X129.734 Y56.71
X129.762 Y56.877
X129.775 Y57.029
Y57.182
X129.763 Y57.335
X129.75 Y57.416
X129.688 Y57.615
X129.573 Y57.789
X129.415 Y57.924
X129.225 Y58.009
X129.018 Y58.039
X128.159
G3 X127.853 Y57.71 Z2.655 I0.012 J-0.318
G1 Y57.706
X127.865 Y57.464
X127.942 Y55.82
X127.954 Y55.574
X127.955 Y55.548 Z2.645
G3 X128.261 Y55.246 Z2.452 I0.317 J0.015
G1 X129.144 Y55.245
X129.296 Y55.253
X129.444 Y55.289
X129.586 Y55.345
X129.72 Y55.416
X129.847 Y55.501
X129.965 Y55.597
X130.074 Y55.704
X130.176 Y55.82
X130.272 Y55.95
X130.361 Y56.094
X130.442 Y56.251
X130.508 Y56.411
X130.559 Y56.565
X130.6 Y56.738
X130.624 Y56.893
X130.635 Y57.045
X130.634 Y57.206
X130.62 Y57.358
X130.608 Y57.427
X130.544 Y57.623
X130.429 Y57.794
X130.271 Y57.926
X130.082 Y58.01
X129.878 Y58.039
X129.018
G3 X128.711 Y57.71 Z2.655 I0.011 J-0.318
G1 X128.712 Y57.703
X128.726 Y57.464
X128.822 Y55.82
X128.836 Y55.574
X128.838 Y55.544 Z2.643
G3 X129.144 Y55.246 Z2.452 I0.317 J0.019
G1 X129.945 Y55.245
X130.097 Y55.253
X130.247 Y55.28
X130.392 Y55.328
X130.53 Y55.393
X130.66 Y55.472
X130.781 Y55.564
X130.894 Y55.667
X130.998 Y55.779
X131.098 Y55.905
X131.189 Y56.043
X131.272 Y56.192
X131.345 Y56.353
X131.401 Y56.509
X131.446 Y56.674
X131.476 Y56.838
X131.492 Y56.99
X131.495 Y57.147
X131.486 Y57.299
X131.465 Y57.45
X131.461 Y57.468
X131.39 Y57.652
X131.273 Y57.812
X131.118 Y57.935
X130.936 Y58.012
X130.74 Y58.039
X129.878
G3 X129.571 Y57.711 Z2.655 I0.011 J-0.318
G1 X129.572 Y57.71
X129.58 Y57.463
X129.63 Y55.821
X129.638 Y55.574
X129.639 Y55.553 Z2.647
G3 X129.945 Y55.246 Z2.452 I0.317 J0.01
G1 X130.827 Y55.245
X130.979 Y55.253
X131.129 Y55.284
X131.272 Y55.334
X131.409 Y55.402
X131.538 Y55.483
X131.658 Y55.577
X131.769 Y55.681
X131.872 Y55.795
X131.969 Y55.92
X132.06 Y56.06
X132.142 Y56.214
X132.215 Y56.378
X132.27 Y56.539
X132.31 Y56.693
X132.34 Y56.861
X132.354 Y57.013
X132.356 Y57.165
X132.345 Y57.32
X132.321 Y57.475
X132.249 Y57.658
X132.132 Y57.815
X131.977 Y57.936
X131.796 Y58.013
X131.601 Y58.039
X130.74
G3 X130.433 Y57.71 Z2.655 I0.011 J-0.318
G1 Y57.708
X130.443 Y57.464
X130.51 Y55.82
X130.52 Y55.574
X130.521 Y55.55 Z2.645
G3 X130.827 Y55.246 Z2.452 I0.317 J0.013
G1 X131.71 Y55.245
X131.862 Y55.253
X132.01 Y55.287
X132.153 Y55.341
X132.288 Y55.41
X132.416 Y55.494
X132.535 Y55.589
X132.645 Y55.695
X132.747 Y55.81
X132.843 Y55.938
X132.933 Y56.081
X133.015 Y56.236
X133.085 Y56.402
X133.139 Y56.562
X133.177 Y56.717
X133.204 Y56.884
X133.217 Y57.036
Y57.188
X133.204 Y57.342
X133.191 Y57.418
X133.129 Y57.617
X133.014 Y57.79
X132.856 Y57.924
X132.666 Y58.009
X132.46 Y58.039
X131.601
G3 X131.294 Y57.71 Z2.655 I0.011 J-0.318
G1 X131.295 Y57.705
X131.307 Y57.464
X131.39 Y55.82
X131.402 Y55.574
X131.404 Y55.547 Z2.644
G3 X131.71 Y55.246 Z2.452 I0.317 J0.016
G1 X132.526 Y55.245
X132.678 Y55.253
X132.828 Y55.28
X132.972 Y55.328
X133.11 Y55.393
X133.24 Y55.473
X133.362 Y55.564
X133.475 Y55.667
X133.579 Y55.779
X133.679 Y55.906
X133.771 Y56.044
X133.853 Y56.193
X133.926 Y56.353
X133.981 Y56.507
X134.027 Y56.675
X134.058 Y56.838
X134.074 Y56.989
X134.077 Y57.148
X134.068 Y57.3
X134.046 Y57.451
X134.042 Y57.468
X133.971 Y57.653
X133.854 Y57.812
X133.699 Y57.935
X133.517 Y58.012
X133.321 Y58.039
X132.46
G3 X132.153 Y57.712 Z2.655 I0.011 J-0.318
G1 X132.154 Y57.71
X132.161 Y57.463
X132.211 Y55.821
X132.219 Y55.574
Y55.553 Z2.647
G3 X132.526 Y55.245 Z2.452 I0.318 J0.01
G1 X133.408
X133.56 Y55.253
X133.709 Y55.284
X133.853 Y55.334
X133.99 Y55.402
X134.119 Y55.483
X134.239 Y55.577
X134.35 Y55.681
X134.453 Y55.794
X134.549 Y55.92
X134.641 Y56.06
X134.724 Y56.214
X134.796 Y56.378
X134.852 Y56.538
X134.892 Y56.692
X134.921 Y56.86
X134.936 Y57.012
X134.937 Y57.164
X134.926 Y57.32
X134.902 Y57.475
X134.831 Y57.658
X134.713 Y57.815
X134.559 Y57.936
X134.378 Y58.013
X134.183 Y58.039
X133.321
G3 X133.014 Y57.71 Z2.655 I0.011 J-0.318
G1 X133.015 Y57.709
X133.025 Y57.464
X133.091 Y55.82
X133.101 Y55.574
X133.102 Y55.55 Z2.646
G3 X133.408 Y55.246 Z2.452 I0.317 J0.013
G1 X134.29 Y55.245
X134.442 Y55.253
X134.591 Y55.287
X134.734 Y55.341
X134.869 Y55.41
X134.997 Y55.494
X135.116 Y55.589
X135.226 Y55.694
X135.328 Y55.81
X135.424 Y55.938
X135.514 Y56.08
X135.596 Y56.235
X135.666 Y56.401
X135.72 Y56.561
X135.758 Y56.716
X135.786 Y56.883
X135.798 Y57.035
Y57.188
X135.785 Y57.341
X135.773 Y57.418
X135.711 Y57.616
X135.596 Y57.79
X135.437 Y57.924
X135.248 Y58.009
X135.042 Y58.039
X134.183
G3 X133.876 Y57.71 Z2.655 I0.011 J-0.318
G1 X133.877 Y57.706
X133.889 Y57.464
X133.971 Y55.82
X133.983 Y55.574
X133.984 Y55.547 Z2.644
G3 X134.29 Y55.246 Z2.452 I0.317 J0.016
G1 X135.136 Y55.245
X135.288 Y55.253
X135.437 Y55.285
X135.581 Y55.336
X135.717 Y55.404
X135.845 Y55.486
X135.965 Y55.581
X136.076 Y55.685
X136.179 Y55.799
X136.277 Y55.927
X136.368 Y56.069
X136.45 Y56.222
X136.52 Y56.381
X136.572 Y56.535
X136.616 Y56.706
X136.643 Y56.865
X136.657 Y57.017
X136.658 Y57.178
X136.647 Y57.33
X136.622 Y57.481
X136.55 Y57.662
X136.432 Y57.818
X136.278 Y57.938
X136.098 Y58.013
X135.904 Y58.039
X135.042
G3 X134.735 Y57.71 Z2.655 I0.011 J-0.318
G1 X134.736 Y57.707
X134.746 Y57.464
X134.818 Y55.82
X134.829 Y55.574
X134.83 Y55.549 Z2.645
G3 X135.136 Y55.246 Z2.452 I0.317 J0.014
G1 X135.974 Y55.245
X136.126 Y55.253
X136.276 Y55.281
X136.42 Y55.33
X136.558 Y55.395
X136.687 Y55.475
X136.809 Y55.568
X136.921 Y55.671
X137.024 Y55.783
X137.123 Y55.909
X137.215 Y56.049
X137.298 Y56.2
X137.371 Y56.36
X137.43 Y56.527
X137.471 Y56.678
X137.501 Y56.846
X137.517 Y56.999
X137.52 Y57.151
X137.51 Y57.308
X137.488 Y57.459
X137.486 Y57.469
X137.415 Y57.653
X137.298 Y57.812
X137.143 Y57.935
X136.961 Y58.012
X136.765 Y58.039
X135.904
G3 X135.598 Y57.711 Z2.655 I0.012 J-0.318
G1 Y57.71
X135.606 Y57.463
X135.659 Y55.821
X135.667 Y55.574
X135.668 Y55.553 Z2.647
G3 X135.974 Y55.246 Z2.452 I0.317 J0.01
G1 X136.856 Y55.245
X137.008 Y55.253
X137.157 Y55.285
X137.301 Y55.336
X137.437 Y55.404
X137.566 Y55.486
X137.685 Y55.58
X137.797 Y55.685
X137.899 Y55.798
X137.996 Y55.925
X138.087 Y56.066
X138.17 Y56.22
X138.241 Y56.384
X138.297 Y56.545
X138.336 Y56.699
X138.365 Y56.867
X138.379 Y57.018
X138.381 Y57.171
X138.369 Y57.325
X138.345 Y57.477
X138.273 Y57.659
X138.156 Y57.816
X138.001 Y57.937
X137.821 Y58.013
X137.627 Y58.039
X136.765
G3 X136.458 Y57.71 Z2.655 I0.011 J-0.318
G1 X136.459 Y57.708
X136.469 Y57.464
X136.539 Y55.82
X136.549 Y55.574
X136.55 Y55.549 Z2.645
G3 X136.856 Y55.246 Z2.452 I0.317 J0.014
G1 X137.738 Y55.245
X137.891 Y55.253
X138.039 Y55.288
X138.181 Y55.342
X138.317 Y55.412
X138.444 Y55.496
X138.562 Y55.592
X138.672 Y55.698
X138.774 Y55.813
X138.87 Y55.942
X138.96 Y56.085
X139.042 Y56.241
X139.112 Y56.407
X139.165 Y56.567
X139.203 Y56.721
X139.23 Y56.889
X139.242 Y57.041
X139.241 Y57.193
X139.228 Y57.346
X139.216 Y57.42
X139.153 Y57.618
X139.038 Y57.791
X138.88 Y57.925
X138.691 Y58.01
X138.485 Y58.039
X137.627
G3 X137.32 Y57.71 Z2.655 I0.011 J-0.318
G1 X137.321 Y57.705
X137.333 Y57.464
X137.418 Y55.82
X137.431 Y55.574
X137.432 Y55.546 Z2.644
G3 X137.738 Y55.246 Z2.452 I0.317 J0.017
G1 X138.554 Y55.245
X138.707 Y55.253
X138.857 Y55.281
X139.001 Y55.329
X139.139 Y55.395
X139.268 Y55.475
X139.39 Y55.567
X139.502 Y55.669
X139.606 Y55.782
X139.706 Y55.909
X139.798 Y56.048
X139.88 Y56.197
X139.953 Y56.357
X140.008 Y56.511
X140.053 Y56.68
X140.083 Y56.842
X140.099 Y56.993
X140.102 Y57.152
X140.092 Y57.304
X140.071 Y57.455
X140.067 Y57.47
X139.996 Y57.654
X139.879 Y57.813
X139.724 Y57.935
X139.542 Y58.012
X139.347 Y58.039
X138.485
G3 X138.178 Y57.711 Z2.655 I0.011 J-0.318
G1 X138.179 Y57.71
X138.187 Y57.463
X138.24 Y55.821
X138.248 Y55.574
Y55.553 Z2.647
G3 X138.554 Y55.245 Z2.452 I0.318 J0.01
G1 X139.437
X139.589 Y55.253
X139.738 Y55.284
X139.882 Y55.335
X140.018 Y55.403
X140.147 Y55.485
X140.267 Y55.579
X140.378 Y55.683
X140.48 Y55.797
X140.577 Y55.923
X140.668 Y56.063
X140.751 Y56.217
X140.823 Y56.382
X140.878 Y56.542
X140.918 Y56.696
X140.947 Y56.864
X140.961 Y57.016
X140.963 Y57.168
X140.951 Y57.323
X140.927 Y57.476
X140.855 Y57.659
X140.738 Y57.816
X140.583 Y57.937
X140.403 Y58.013
X140.208 Y58.039
X139.347
G3 X139.04 Y57.71 Z2.655 I0.011 J-0.318
G1 Y57.708
X139.051 Y57.464
X139.119 Y55.82
X139.13 Y55.574
X139.131 Y55.549 Z2.645
G3 X139.437 Y55.246 Z2.452 I0.317 J0.014
G1 X140.319 Y55.245
X140.471 Y55.253
X140.62 Y55.288
X140.762 Y55.342
X140.898 Y55.412
X141.025 Y55.495
X141.143 Y55.591
X141.253 Y55.697
X141.355 Y55.812
X141.452 Y55.941
X141.541 Y56.083
X141.623 Y56.239
X141.693 Y56.405
X141.747 Y56.565
X141.785 Y56.72
X141.812 Y56.887
X141.824 Y57.039
X141.823 Y57.191
X141.81 Y57.344
X141.798 Y57.42
X141.735 Y57.618
X141.62 Y57.79
X141.462 Y57.925
X141.273 Y58.01
X141.067 Y58.039
X140.208
G3 X139.901 Y57.71 Z2.655 I0.011 J-0.318
G1 X139.902 Y57.705
X139.915 Y57.464
X139.999 Y55.82
X140.012 Y55.574
X140.013 Y55.546 Z2.644
G3 X140.319 Y55.246 Z2.452 I0.317 J0.017
G1 X141.165 Y55.245
X141.317 Y55.253
X141.466 Y55.285
X141.609 Y55.337
X141.745 Y55.406
X141.874 Y55.488
X141.993 Y55.582
X142.104 Y55.687
X142.207 Y55.801
X142.305 Y55.93
X142.396 Y56.072
X142.477 Y56.225
X142.547 Y56.385
X142.599 Y56.539
X142.643 Y56.71
X142.669 Y56.868
X142.683 Y57.02
Y57.181
X142.672 Y57.333
X142.658 Y57.416
X142.596 Y57.615
X142.482 Y57.789
X142.323 Y57.924
X142.133 Y58.009
X141.927 Y58.039
X141.067
G3 X140.76 Y57.71 Z2.655 I0.011 J-0.318
G1 X140.761 Y57.707
X140.772 Y57.464
X140.846 Y55.82
X140.858 Y55.574
X140.859 Y55.548 Z2.645
G3 X141.165 Y55.246 Z2.452 I0.317 J0.015
G1 X141.562 Y55.245
X142.003 Y55.241
X142.155 Y55.247
X142.305 Y55.276
X142.449 Y55.326
X142.586 Y55.392
X142.715 Y55.472
X142.836 Y55.565
X142.948 Y55.668
X143.051 Y55.781
X143.15 Y55.908
X143.243 Y56.048
X143.326 Y56.2
X143.397 Y56.359
X143.452 Y56.514
X143.497 Y56.684
X143.527 Y56.845
X143.542 Y56.997
X143.544 Y57.157
X143.535 Y57.309
X143.512 Y57.46
X143.509 Y57.473
X143.438 Y57.656
X143.32 Y57.814
X143.166 Y57.936
X142.984 Y58.012
X142.789 Y58.039
X141.927
G3 X141.62 Y57.71 Z2.655 I0.011 J-0.318
G1 X141.621
X141.63 Y57.464
X141.69 Y55.82
X141.699 Y55.573
X141.7 Y55.547 Z2.645
G3 X142.003 Y55.241 Z2.452 I0.317 J0.011
G1 X142.076 Y55.24
X142.494 Y55.152
X142.51 Y55.147
X142.656 Y55.101
X142.807 Y55.089
X142.959 Y55.103
X143.108 Y55.137
X143.251 Y55.188
X143.388 Y55.255
X143.518 Y55.334
X143.641 Y55.425
X143.757 Y55.528
X143.871 Y55.647
X143.978 Y55.778
X144.077 Y55.92
X144.167 Y56.076
X144.247 Y56.244
X144.316 Y56.423
X144.364 Y56.587
X144.399 Y56.756
X144.419 Y56.924
X144.426 Y57.076
X144.42 Y57.237
X144.402 Y57.388
X144.39 Y57.446
X144.323 Y57.637
X144.207 Y57.802
X144.05 Y57.93
X143.864 Y58.011
X143.664 Y58.039
X142.789
G3 X142.483 Y57.743 Z2.642 I0.011 J-0.318
G1 X142.481 Y57.711 Z2.655
X142.465 Y57.464
X142.353 Y55.819
X142.336 Y55.573
X142.328 Y55.456 Z2.607
G3 X142.51 Y55.146 Z2.452 I0.317 J-0.022
G1 X142.591 Y55.112
X142.738 Y55.038
X142.885 Y54.949
X142.902 Y54.936
X143.023 Y54.843
X143.165 Y54.789
X143.315 Y54.76
X143.467 Y54.754
X143.619 Y54.768
X143.768 Y54.799
X143.914 Y54.845
X144.054 Y54.904
X144.189 Y54.975
X144.324 Y55.061
X144.462 Y55.166
X144.596 Y55.285
X144.723 Y55.418
X144.844 Y55.567
X144.957 Y55.731
X145.059 Y55.907
X145.148 Y56.095
X145.222 Y56.292
X145.277 Y56.481
X145.315 Y56.668
X145.337 Y56.855
X145.344 Y57.016
X145.337 Y57.188
X145.317 Y57.348
X145.287 Y57.498
X145.284 Y57.507
X145.208 Y57.681
X145.09 Y57.829
X144.938 Y57.943
X144.762 Y58.014
X144.573 Y58.039
X143.664
G3 X143.364 Y57.788 Z2.623 I0.011 J-0.318
G1 X143.348 Y57.712 Z2.655
X143.297 Y57.47
X142.907 Y55.647
X142.855 Y55.405
X142.817 Y55.225 Z2.58
G3 X142.902 Y54.936 Z2.452 I0.311 J-0.066
G1 X143.179 Y54.674
X143.197 Y54.656
X143.21 Y54.638
X143.305 Y54.519
X143.426 Y54.426
X143.562 Y54.357
X143.707 Y54.311
X143.857 Y54.284
X144.009 Y54.275
X144.161 Y54.283
X144.312 Y54.304
X144.461 Y54.339
X144.613 Y54.389
X144.772 Y54.455
X144.929 Y54.536
X145.089 Y54.635
X145.252 Y54.755
X145.411 Y54.894
X145.563 Y55.049
X145.707 Y55.222
X145.84 Y55.411
X145.961 Y55.615
X146.064 Y55.829
X146.152 Y56.052
X146.221 Y56.282
X146.27 Y56.511
X146.296 Y56.709
X146.307 Y56.916
X146.302 Y57.091
X146.283 Y57.268
X146.251 Y57.434
X146.234 Y57.494
X146.141 Y57.7
X145.991 Y57.869
X145.796 Y57.984
X145.576 Y58.035
X145.532 Y58.039
X144.573
G3 X144.287 Y57.835 Z2.603 I0.011 J-0.318
G1 X144.243 Y57.716 Z2.655
X144.154 Y57.485
X143.335 Y55.341
X143.247 Y55.111
X143.177 Y54.928 Z2.576
G3 X143.21 Y54.638 Z2.452 I0.297 J-0.113
G1 X143.288 Y54.53
X143.326 Y54.467
X143.426 Y54.273
X143.432 Y54.254
X143.484 Y54.111
X143.579 Y53.992
X143.694 Y53.892
X143.823 Y53.811
X143.962 Y53.749
X144.107 Y53.703
X144.257 Y53.672
X144.408 Y53.656
X144.561 Y53.652
X144.723 Y53.663
X144.895 Y53.687
X145.069 Y53.727
X145.255 Y53.785
X145.448 Y53.863
X145.64 Y53.959
X145.833 Y54.076
X146.028 Y54.217
X146.221 Y54.381
X146.407 Y54.566
X146.581 Y54.771
X146.742 Y54.995
X146.888 Y55.237
X147.015 Y55.49
X147.121 Y55.753
X147.204 Y56.019
X147.265 Y56.286
X147.301 Y56.535
X147.314 Y56.758
X147.312 Y56.872
X147.287 Y57.052
X147.219 Y57.22
X147.111 Y57.366
X147.012 Y57.472
X147.002 Y57.481
X146.855 Y57.6
X146.708 Y57.696
X146.561 Y57.778
X146.414 Y57.856
X146.267 Y57.915
X146.12 Y57.959
X145.973 Y57.988
X145.826 Y58.014
X145.679 Y58.027
X145.576 Y58.035
G3 X145.283 Y57.868 Z2.597 I-0.013 J-0.317
G1 X145.216 Y57.742 Z2.655
X145.099 Y57.524
X143.708 Y54.932
X143.591 Y54.714
X143.462 Y54.474 Z2.544
X143.44 Y54.422 Z2.521
X143.427 Y54.367 Z2.498
X143.425 Y54.311 Z2.475
X143.432 Y54.254 Z2.452
X143.538 Y53.85
Y53.832
X143.544 Y53.679
X143.606 Y53.54
X143.692 Y53.414
X143.797 Y53.304
X143.915 Y53.208
X144.044 Y53.126
X144.18 Y53.058
X144.323 Y53.004
X144.469 Y52.962
X144.631 Y52.929
X144.802 Y52.91
X144.983 Y52.903
X145.182 Y52.912
X145.39 Y52.938
X145.602 Y52.982
X145.828 Y53.048
X146.063 Y53.139
X146.299 Y53.252
X146.533 Y53.387
X146.71 Y53.51
X146.804 Y53.588
X146.884 Y53.679
X146.947 Y53.782
X147.329 Y54.53
X147.403 Y54.677
X147.443 Y54.762
X147.59 Y55.121
X147.648 Y55.266
X147.683 Y55.413
X147.714 Y55.56
X147.727 Y55.707
X147.728 Y55.854
X147.721 Y56.001
X147.711 Y56.148
X147.682 Y56.295
X147.65 Y56.442
X147.59 Y56.604
X147.538 Y56.737
X147.418 Y56.981
X147.385 Y57.031
X147.278 Y57.178
X147.149 Y57.326
X147.111 Y57.366
G3 X146.663 Y57.364 Z2.655 I-0.223 J-0.225
G1 X146.653 Y57.355
X146.496 Y57.182
X143.974 Y54.419
X143.807 Y54.237
X143.62 Y54.032 Z2.542
X143.587 Y53.988 Z2.52
X143.561 Y53.939 Z2.497
X143.545 Y53.886 Z2.474
X143.538 Y53.832 Z2.452
X143.535 Y53.446
X143.53 Y53.427
X143.497 Y53.278
X143.514 Y53.127
X143.56 Y52.982
X143.629 Y52.846
X143.716 Y52.72
X143.817 Y52.606
X143.929 Y52.504
X144.051 Y52.412
X144.181 Y52.332
X144.326 Y52.258
X144.481 Y52.194
X144.655 Y52.138
X144.848 Y52.092
X145.049 Y52.062
X145.27 Y52.046
X145.509 Y52.049
X145.682 Y52.065
X145.864 Y52.105
X146.03 Y52.189
X146.17 Y52.312
X146.275 Y52.465
X146.947 Y53.782
G3 X146.794 Y54.203 Z2.655 I-0.287 J0.134
G1 X146.73 Y54.226
X146.663 Y54.234
X146.595 Y54.227
X146.553 Y54.219
X144.169 Y53.726
X143.927 Y53.675
X143.769 Y53.643 Z2.589
G3 X143.53 Y53.427 Z2.452 I0.064 J-0.311
G1 X143.418 Y53.023
X143.4 Y52.986
X143.34 Y52.846
X143.323 Y52.694
X143.335 Y52.543
X143.371 Y52.394
X143.426 Y52.252
X143.497 Y52.117
X143.582 Y51.991
X143.678 Y51.873
X143.784 Y51.764
X143.907 Y51.656
X144.049 Y51.552
X144.203 Y51.456
X144.38 Y51.364
X144.571 Y51.284
X144.758 Y51.223
X144.949 Y51.178
X145.038 Y51.164
X145.269
X145.489 Y51.236
X145.676 Y51.372
X145.812 Y51.559
X146.275 Y52.465
G3 X146.122 Y52.888 Z2.655 I-0.288 J0.135
G1 X146.072 Y52.906
X146.02 Y52.916
X145.88 Y52.93
X144.081 Y53.114
X143.835 Y53.139
X143.712 Y53.152 Z2.605
G3 X143.4 Y52.986 Z2.452 I-0.032 J-0.316
G1 X143.291 Y52.765
X143.141 Y52.471
X143.079 Y52.332
X143.047 Y52.183
X143.04 Y52.031
X143.054 Y51.879
X143.087 Y51.73
X143.137 Y51.586
X143.199 Y51.447
X143.274 Y51.314
X143.365 Y51.181
X143.472 Y51.048
X143.594 Y50.92
X143.734 Y50.794
X143.876 Y50.685
X144.023 Y50.59
X144.185 Y50.504
X144.33 Y50.441
X144.474 Y50.391
X144.558 Y50.37
X144.756 Y50.347
X144.952 Y50.378
X145.133 Y50.46
X145.286 Y50.588
X145.4 Y50.751
X145.812 Y51.559
G3 X145.659 Y51.981 Z2.655 I-0.288 J0.134
G1 X145.615 Y51.998
X145.423 Y52.054
X143.812 Y52.531
X143.575 Y52.602
X143.509 Y52.621 Z2.627
G3 X143.142 Y52.471 Z2.452 I-0.09 J-0.304
G1 X142.818 Y51.838
X142.756 Y51.699
X142.718 Y51.552
X142.703 Y51.4
X142.708 Y51.248
X142.73 Y51.097
X142.767 Y50.949
X142.817 Y50.805
X142.879 Y50.666
X142.958 Y50.522
X143.052 Y50.38
X143.16 Y50.243
X143.28 Y50.111
X143.403 Y49.998
X143.543 Y49.887
X143.68 Y49.797
X143.813 Y49.723
X143.962 Y49.656
X144.092 Y49.609
X144.301 Y49.567
X144.513 Y49.587
X144.711 Y49.665
X144.878 Y49.797
X145.001 Y49.97
X145.4 Y50.751
G3 X145.247 Y51.174 Z2.655 I-0.288 J0.135
G1 X145.229 Y51.181
X145.017 Y51.265
X143.48 Y51.873
X143.251 Y51.964
X143.212 Y51.979 Z2.638
G3 X142.819 Y51.838 Z2.452 I-0.116 J-0.295
G1 X142.465 Y51.147
X142.403 Y51.008
X142.36 Y50.862
X142.339 Y50.711
X142.337 Y50.559
X142.351 Y50.407
X142.38 Y50.257
X142.423 Y50.111
X142.48 Y49.967
X142.549 Y49.824
X142.632 Y49.683
X142.732 Y49.541
X142.845 Y49.405
X142.962 Y49.285
X143.098 Y49.166
X143.225 Y49.073
X143.354 Y48.992
X143.5 Y48.918
X143.64 Y48.859
X143.786 Y48.813
X143.98 Y48.796
X144.172 Y48.83
X144.348 Y48.913
X144.497 Y49.039
X144.607 Y49.199
X145.001 Y49.97
G3 X144.848 Y50.393 Z2.655 I-0.288 J0.135
G1 X144.844 Y50.394
X144.623 Y50.494
X143.122 Y51.17
X142.897 Y51.272
X142.873 Y51.283 Z2.644
G3 X142.465 Y51.147 Z2.452 I-0.13 J-0.29
G1 X142.09 Y50.412
X142.027 Y50.273
X141.982 Y50.127
X141.958 Y49.977
X141.953 Y49.825
X141.965 Y49.673
X141.991 Y49.522
X142.031 Y49.375
X142.083 Y49.232
X142.15 Y49.087
X142.232 Y48.942
X142.328 Y48.799
X142.438 Y48.662
X142.56 Y48.532
X142.677 Y48.426
X142.812 Y48.322
X142.942 Y48.237
X143.076 Y48.165
X143.221 Y48.102
X143.365 Y48.053
X143.378 Y48.05
X143.575 Y48.028
X143.77 Y48.06
X143.951 Y48.142
X144.103 Y48.269
X144.215 Y48.432
X144.607 Y49.199
G3 X144.455 Y49.62 Z2.655 I-0.288 J0.134
G1 X144.454 Y49.621
X144.231 Y49.727
X142.745 Y50.43
X142.522 Y50.536
X142.503 Y50.545 Z2.647
G3 X142.089 Y50.412 Z2.452 I-0.136 J-0.287
G1 X141.688 Y49.624
X141.625 Y49.485
X141.585 Y49.338
X141.564 Y49.187
X141.562 Y49.035
X141.577 Y48.883
X141.606 Y48.734
X141.648 Y48.587
X141.702 Y48.444
X141.77 Y48.3
X141.854 Y48.155
X141.953 Y48.012
X142.066 Y47.873
X142.184 Y47.75
X142.303 Y47.645
X142.44 Y47.542
X142.568 Y47.46
X142.703 Y47.389
X142.846 Y47.329
X142.995 Y47.28
X143.19 Y47.261
X143.384 Y47.294
X143.562 Y47.377
X143.712 Y47.503
X143.824 Y47.664
X144.215 Y48.432
G3 X144.062 Y48.853 Z2.655 I-0.287 J0.134
G1 X144.061 Y48.855
X143.838 Y48.957
X142.344 Y49.645
X142.119 Y49.749
X142.098 Y49.759 Z2.645
G3 X141.687 Y49.625 Z2.452 I-0.133 J-0.289
G1 X141.299 Y48.864
X141.237 Y48.725
X141.195 Y48.579
X141.174 Y48.428
X141.172 Y48.275
X141.185 Y48.124
X141.213 Y47.974
X141.255 Y47.827
X141.308 Y47.684
X141.377 Y47.539
X141.46 Y47.394
X141.558 Y47.251
X141.67 Y47.112
X141.789 Y46.987
X141.907 Y46.882
X142.043 Y46.779
X142.171 Y46.697
X142.306 Y46.625
X142.45 Y46.564
X142.594 Y46.515
X142.6 Y46.514
X142.796 Y46.494
X142.99 Y46.527
X143.169 Y46.609
X143.32 Y46.736
X143.432 Y46.898
X143.824 Y47.664
G3 X143.671 Y48.087 Z2.655 I-0.288 J0.135
G1 X143.67
X143.447 Y48.191
X141.955 Y48.884
X141.731 Y48.989
X141.711 Y48.998 Z2.646
G3 X141.299 Y48.864 Z2.452 I-0.134 J-0.288
G1 X140.903 Y48.088
X140.841 Y47.949
X140.801 Y47.802
X140.781 Y47.651
X140.78 Y47.499
X140.794 Y47.347
X140.824 Y47.197
X140.866 Y47.051
X140.92 Y46.908
X140.989 Y46.764
X141.073 Y46.619
X141.173 Y46.475
X141.286 Y46.337
X141.404 Y46.213
X141.523 Y46.109
X141.659 Y46.006
X141.788 Y45.925
X141.923 Y45.854
X142.067 Y45.794
X142.213 Y45.746
X142.408 Y45.727
X142.601 Y45.76
X142.779 Y45.843
X142.929 Y45.969
X143.04 Y46.13
X143.432 Y46.898
G3 X143.279 Y47.32 Z2.655 I-0.288 J0.134
G1 X143.277 Y47.321
X143.054 Y47.423
X141.56 Y48.109
X141.335 Y48.213
X141.313 Y48.223 Z2.645
G3 X140.903 Y48.088 Z2.452 I-0.132 J-0.289
G1 X140.513 Y47.323
X140.45 Y47.184
X140.41 Y47.037
X140.39 Y46.886
X140.388 Y46.734
X140.403 Y46.582
X140.432 Y46.432
X140.474 Y46.286
X140.528 Y46.143
X140.597 Y45.998
X140.681 Y45.852
X140.78 Y45.709
X140.893 Y45.571
X141.012 Y45.447
X141.13 Y45.343
X141.267 Y45.24
X141.395 Y45.158
X141.53 Y45.088
X141.674 Y45.027
X141.82 Y44.979
X142.016 Y44.96
X142.209 Y44.993
X142.387 Y45.075
X142.537 Y45.202
X142.648 Y45.363
X143.04 Y46.13
G3 X142.887 Y46.552 Z2.655 I-0.287 J0.135
G1 X142.885 Y46.553
X142.663 Y46.656
X141.169 Y47.344
X140.944 Y47.447
X140.923 Y47.457 Z2.645
G3 X140.513 Y47.323 Z2.452 I-0.133 J-0.288
G1 X140.137 Y46.588
X140.075 Y46.449
X140.029 Y46.303
X140.004 Y46.153
X139.999 Y46.001
X140.009 Y45.849
X140.035 Y45.698
X140.074 Y45.551
X140.125 Y45.407
X140.191 Y45.262
X140.272 Y45.116
X140.367 Y44.974
X140.475 Y44.836
X140.596 Y44.705
X140.712 Y44.599
X140.846 Y44.494
X140.976 Y44.409
X141.109 Y44.335
X141.253 Y44.272
X141.397 Y44.221
X141.415 Y44.217
X141.613 Y44.194
X141.81 Y44.225
X141.991 Y44.307
X142.144 Y44.434
X142.258 Y44.598
X142.648 Y45.363
G3 X142.498 Y45.784 Z2.654 I-0.287 J0.135
G1 X142.495 Y45.785 Z2.655
X142.273 Y45.892
X140.791 Y46.605
X140.569 Y46.712
X140.552 Y46.72 Z2.648
G3 X140.137 Y46.587 Z2.452 I-0.137 J-0.286
G1 X139.72 Y45.771
X139.658 Y45.632
X139.621 Y45.484
X139.604 Y45.333
X139.605 Y45.181
X139.621 Y45.029
X139.652 Y44.88
X139.696 Y44.734
X139.753 Y44.588
X139.824 Y44.444
X139.909 Y44.301
X140.01 Y44.158
X140.126 Y44.019
X140.242 Y43.901
X140.366 Y43.794
X140.501 Y43.695
X140.63 Y43.615
X140.767 Y43.545
X140.908 Y43.487
X140.982 Y43.464
X141.187 Y43.429
X141.394 Y43.453
X141.585 Y43.533
X141.747 Y43.663
X141.867 Y43.833
X142.258 Y44.598
G3 X142.105 Y45.02 Z2.655 I-0.288 J0.134
G1 X142.1 Y45.022
X141.879 Y45.121
X140.378 Y45.795
X140.152 Y45.896
X140.128 Y45.907 Z2.644
G3 X139.72 Y45.771 Z2.452 I-0.13 J-0.29
G1 X139.331 Y45.009
X139.269 Y44.87
X139.231 Y44.723
X139.213 Y44.571
Y44.419
X139.229 Y44.267
X139.259 Y44.118
X139.302 Y43.972
X139.358 Y43.829
X139.429 Y43.684
X139.515 Y43.538
X139.615 Y43.395
X139.726 Y43.261
X139.839 Y43.145
X139.973 Y43.029
X140.101 Y42.934
X140.231 Y42.854
X140.374 Y42.78
X140.515 Y42.722
X140.592 Y42.698
X140.797 Y42.663
X141.003 Y42.687
X141.195 Y42.767
X141.356 Y42.897
X141.476 Y43.067
X141.867 Y43.833
G3 X141.714 Y44.255 Z2.655 I-0.288 J0.134
G1 X141.71 Y44.257
X141.489 Y44.356
X139.988 Y45.032
X139.763 Y45.134
X139.739 Y45.145 Z2.644
G3 X139.331 Y45.009 Z2.452 I-0.13 J-0.29
G1 X138.935 Y44.234
X138.873 Y44.095
X138.836 Y43.947
X138.82 Y43.796
X138.821 Y43.643
X138.837 Y43.492
X138.869 Y43.343
X138.913 Y43.197
X138.969 Y43.054
X139.041 Y42.91
X139.128 Y42.764
X139.229 Y42.621
X139.341 Y42.488
X139.455 Y42.372
X139.589 Y42.256
X139.717 Y42.163
X139.847 Y42.083
X139.991 Y42.01
X140.132 Y41.953
X140.205 Y41.93
X140.409 Y41.897
X140.614 Y41.921
X140.805 Y42.002
X140.966 Y42.132
X141.085 Y42.301
X141.476 Y43.067
G3 X141.323 Y43.489 Z2.655 I-0.288 J0.134
G1 X141.317 Y43.491
X141.097 Y43.589
X139.593 Y44.258
X139.367 Y44.359
X139.342 Y44.37 Z2.644
G3 X138.936 Y44.234 Z2.452 I-0.129 J-0.29
G1 X138.56 Y43.499
X138.497 Y43.36
X138.455 Y43.213
X138.434 Y43.062
X138.431 Y42.91
X138.444 Y42.758
X138.472 Y42.608
X138.514 Y42.462
X138.567 Y42.319
X138.636 Y42.173
X138.719 Y42.027
X138.816 Y41.886
X138.927 Y41.749
X139.039 Y41.631
X139.169 Y41.515
X139.3 Y41.415
X139.428 Y41.333
X139.57 Y41.259
X139.71 Y41.199
X139.854 Y41.151
X139.863 Y41.149
X140.059 Y41.129
X140.252 Y41.162
X140.431 Y41.245
X140.581 Y41.371
X140.693 Y41.533
X141.085 Y42.301
G3 X140.932 Y42.723 Z2.655 I-0.288 J0.134
G1 X140.931
X140.708 Y42.827
X139.216 Y43.519
X138.992 Y43.623
X138.971 Y43.633 Z2.646
G3 X138.559 Y43.499 Z2.452 I-0.134 J-0.288
G1 X138.18 Y42.754
X138.117 Y42.615
X138.071 Y42.47
X138.047 Y42.319
X138.041 Y42.167
X138.052 Y42.015
X138.078 Y41.865
X138.117 Y41.717
X138.169 Y41.574
X138.235 Y41.429
X138.316 Y41.283
X138.411 Y41.14
X138.52 Y41.002
X138.641 Y40.873
X138.756 Y40.767
X138.891 Y40.662
X139.021 Y40.577
X139.154 Y40.504
X139.299 Y40.44
X139.443 Y40.39
X139.46 Y40.385
X139.658 Y40.363
X139.854 Y40.394
X140.035 Y40.476
X140.188 Y40.603
X140.301 Y40.767
X140.693 Y41.533
G3 X140.542 Y41.954 Z2.654 I-0.288 J0.134
G1 X140.54 Y41.955 Z2.655
X140.317 Y42.062
X138.834 Y42.771
X138.611 Y42.878
X138.594 Y42.886 Z2.647
G3 X138.18 Y42.754 Z2.452 I-0.137 J-0.286
G1 X137.77 Y41.952
X137.708 Y41.813
X137.669 Y41.666
X137.65 Y41.515
X137.649 Y41.362
X137.664 Y41.21
X137.693 Y41.061
X137.736 Y40.915
X137.792 Y40.77
X137.861 Y40.627
X137.945 Y40.483
X138.044 Y40.34
X138.159 Y40.2
X138.276 Y40.08
X138.397 Y39.973
X138.533 Y39.872
X138.662 Y39.791
X138.797 Y39.721
X138.939 Y39.661
X139.084 Y39.614
X139.279 Y39.596
X139.471 Y39.629
X139.649 Y39.712
X139.798 Y39.838
X139.909 Y39.999
X140.301 Y40.767
G3 X140.148 Y41.188 Z2.655 I-0.287 J0.134
G1 X140.145 Y41.19
X139.924 Y41.291
X138.427 Y41.974
X138.202 Y42.077
X138.179 Y42.087 Z2.645
G3 X137.771 Y41.952 Z2.452 I-0.131 J-0.289
G1 X137.392 Y41.212
X137.33 Y41.073
X137.286 Y40.927
X137.263 Y40.776
X137.259 Y40.624
X137.271 Y40.472
X137.297 Y40.322
X137.337 Y40.175
X137.39 Y40.032
X137.457 Y39.886
X137.539 Y39.74
X137.635 Y39.598
X137.745 Y39.46
X137.867 Y39.331
X137.983 Y39.226
X138.118 Y39.122
X138.247 Y39.038
X138.381 Y38.966
X138.525 Y38.903
X138.669 Y38.854
X138.681 Y38.851
X138.878 Y38.829
X139.073 Y38.861
X139.253 Y38.943
X139.405 Y39.07
X139.518 Y39.233
X139.909 Y39.999
G3 X139.758 Y40.421 Z2.655 I-0.287 J0.135
G1 X139.756
X139.533 Y40.527
X138.047 Y41.23
X137.824 Y41.336
X137.805 Y41.345 Z2.647
G3 X137.392 Y41.211 Z2.452 I-0.135 J-0.287
G1 X137.003 Y40.45
X136.941 Y40.311
X136.896 Y40.165
X136.873 Y40.015
X136.868 Y39.863
X136.879 Y39.711
X136.905 Y39.56
X136.945 Y39.413
X136.997 Y39.27
X137.063 Y39.125
X137.145 Y38.979
X137.241 Y38.836
X137.351 Y38.697
X137.469 Y38.57
X137.586 Y38.464
X137.721 Y38.359
X137.849 Y38.275
X137.983 Y38.203
X138.127 Y38.139
X138.271 Y38.089
X138.287 Y38.085
X138.485 Y38.063
X138.681 Y38.095
X138.861 Y38.177
X139.014 Y38.304
X139.127 Y38.467
X139.518 Y39.233
G3 X139.367 Y39.654 Z2.654 I-0.288 J0.134
G1 X139.365 Y39.655 Z2.655
X139.142 Y39.761
X137.658 Y40.468
X137.435 Y40.574
X137.417 Y40.583 Z2.647
G3 X137.003 Y40.45 Z2.452 I-0.136 J-0.287
G1 X136.607 Y39.675
X136.545 Y39.536
X136.502 Y39.389
X136.48 Y39.239
X136.476 Y39.086
X136.488 Y38.934
X136.516 Y38.784
X136.556 Y38.638
X136.609 Y38.495
X136.676 Y38.351
X136.758 Y38.205
X136.855 Y38.062
X136.967 Y37.922
X137.084 Y37.798
X137.202 Y37.692
X137.338 Y37.587
X137.466 Y37.504
X137.6 Y37.432
X137.744 Y37.37
X137.888 Y37.321
X137.9 Y37.318
X138.096 Y37.297
X138.292 Y37.329
X138.471 Y37.411
X138.623 Y37.538
X138.736 Y37.701
X139.127 Y38.467
G3 X138.974 Y38.888 Z2.655 I-0.288 J0.134
G1 Y38.889
X138.75 Y38.994
X137.263 Y39.694
X137.039 Y39.799
X137.02 Y39.808 Z2.646
G3 X136.607 Y39.675 Z2.452 I-0.135 J-0.288
G1 X136.209 Y38.895
X136.146 Y38.756
X136.106 Y38.609
X136.086 Y38.458
X136.084 Y38.305
X136.098 Y38.154
X136.126 Y38.004
X136.168 Y37.857
X136.222 Y37.715
X136.291 Y37.571
X136.374 Y37.426
X136.473 Y37.282
X136.586 Y37.143
X136.704 Y37.02
X136.822 Y36.915
X136.959 Y36.812
X137.087 Y36.73
X137.222 Y36.659
X137.366 Y36.598
X137.514 Y36.549
X137.71 Y36.53
X137.904 Y36.563
X138.082 Y36.645
X138.232 Y36.772
X138.344 Y36.933
X138.736 Y37.701
G3 X138.583 Y38.123 Z2.655 I-0.288 J0.134
G1 X138.581
X138.358 Y38.226
X136.865 Y38.915
X136.641 Y39.019
X136.62 Y39.029 Z2.646
G3 X136.208 Y38.895 Z2.452 I-0.134 J-0.288
G1 X135.827 Y38.146
X135.764 Y38.007
X135.721 Y37.861
X135.698 Y37.711
X135.693 Y37.558
X135.705 Y37.406
X135.732 Y37.256
X135.772 Y37.109
X135.824 Y36.966
X135.891 Y36.821
X135.974 Y36.675
X136.07 Y36.532
X136.18 Y36.394
X136.3 Y36.266
X136.416 Y36.161
X136.552 Y36.056
X136.68 Y35.973
X136.814 Y35.9
X136.958 Y35.838
X137.103 Y35.788
X137.115 Y35.785
X137.312 Y35.764
X137.508 Y35.795
X137.688 Y35.877
X137.84 Y36.004
X137.953 Y36.167
X138.344 Y36.933
G3 X138.192 Y37.355 Z2.655 I-0.288 J0.135
G1 X138.191
X137.968 Y37.461
X136.482 Y38.165
X136.259 Y38.27
X136.24 Y38.279 Z2.647
G3 X135.827 Y38.146 Z2.452 I-0.136 J-0.287
G1 X135.439 Y37.387
X135.377 Y37.248
X135.332 Y37.103
X135.308 Y36.952
X135.302 Y36.8
X135.313 Y36.648
X135.339 Y36.498
X135.379 Y36.351
X135.43 Y36.207
X135.496 Y36.063
X135.578 Y35.917
X135.673 Y35.773
X135.783 Y35.634
X135.901 Y35.507
X136.017 Y35.401
X136.153 Y35.295
X136.281 Y35.211
X136.415 Y35.138
X136.559 Y35.075
X136.703 Y35.025
X136.721 Y35.02
X136.918 Y34.998
X137.114 Y35.029
X137.296 Y35.111
X137.448 Y35.238
X137.562 Y35.401
X137.953 Y36.167
G3 X137.802 Y36.589 Z2.654 I-0.288 J0.135
G1 X137.8 Z2.655
X137.577 Y36.696
X136.094 Y37.405
X135.871 Y37.512
X135.854 Y37.52 Z2.647
G3 X135.439 Y37.388 Z2.452 I-0.137 J-0.287
G1 X135.03 Y36.586
X134.968 Y36.447
X134.929 Y36.299
X134.91 Y36.148
X134.909 Y35.996
X134.924 Y35.844
X134.954 Y35.695
X134.997 Y35.548
X135.053 Y35.404
X135.122 Y35.26
X135.206 Y35.117
X135.305 Y34.973
X135.42 Y34.834
X135.537 Y34.714
X135.658 Y34.607
X135.794 Y34.506
X135.923 Y34.425
X136.058 Y34.355
X136.2 Y34.296
X136.281 Y34.269
X136.487 Y34.233
X136.695 Y34.256
X136.888 Y34.335
X137.051 Y34.466
X137.171 Y34.636
X137.562 Y35.401
G3 X137.409 Y35.824 Z2.655 I-0.288 J0.135
G1 X137.406 Y35.825
X137.184 Y35.926
X135.687 Y36.608
X135.462 Y36.71
X135.439 Y36.721 Z2.645
G3 X135.03 Y36.586 Z2.452 I-0.131 J-0.289
G1 X134.654 Y35.85
X134.592 Y35.711
X134.548 Y35.566
X134.524 Y35.415
X134.519 Y35.263
X134.531 Y35.111
X134.557 Y34.961
X134.597 Y34.814
X134.649 Y34.67
X134.716 Y34.524
X134.797 Y34.379
X134.893 Y34.237
X135.001 Y34.1
X135.113 Y33.98
X135.243 Y33.862
X135.373 Y33.761
X135.501 Y33.678
X135.641 Y33.603
X135.781 Y33.541
X135.925 Y33.492
X135.943 Y33.487
X136.14 Y33.466
X136.335 Y33.498
X136.515 Y33.58
X136.667 Y33.707
X136.779 Y33.87
X137.171 Y34.636
G3 X137.02 Y35.058 Z2.654 I-0.288 J0.135
G1 X137.018 Z2.655
X136.795 Y35.164
X135.31 Y35.869
X135.086 Y35.975
X135.068 Y35.983 Z2.647
G3 X134.654 Y35.85 Z2.452 I-0.136 J-0.287
G1 X134.241 Y35.04
X134.178 Y34.901
X134.142 Y34.753
X134.125 Y34.602
X134.126 Y34.449
X134.143 Y34.298
X134.174 Y34.148
X134.218 Y34.003
X134.275 Y33.858
X134.346 Y33.715
X134.431 Y33.57
X134.533 Y33.428
X134.649 Y33.289
X134.766 Y33.17
X134.889 Y33.064
X135.024 Y32.965
X135.154 Y32.885
X135.29 Y32.816
X135.431 Y32.759
X135.505 Y32.735
X135.71 Y32.701
X135.916 Y32.725
X136.107 Y32.805
X136.269 Y32.935
X136.389 Y33.105
X136.779 Y33.87
G3 X136.626 Y34.291 Z2.655 I-0.287 J0.134
G1 X136.621 Y34.294
X136.401 Y34.393
X134.898 Y35.064
X134.673 Y35.165
X134.648 Y35.176 Z2.644
G3 X134.24 Y35.04 Z2.452 I-0.13 J-0.29
G1 X133.862 Y34.299
X133.8 Y34.16
X133.758 Y34.013
X133.738 Y33.862
X133.736 Y33.71
X133.749 Y33.558
X133.778 Y33.408
X133.819 Y33.261
X133.874 Y33.118
X133.943 Y32.972
X134.026 Y32.827
X134.124 Y32.685
X134.234 Y32.549
X134.347 Y32.431
X134.478 Y32.314
X134.608 Y32.216
X134.737 Y32.135
X134.879 Y32.06
X135.019 Y32.001
X135.164 Y31.953
X135.17 Y31.952
X135.365 Y31.933
X135.558 Y31.966
X135.735 Y32.049
X135.885 Y32.175
X135.997 Y32.336
X136.389 Y33.105
G3 X136.236 Y33.527 Z2.655 I-0.288 J0.134
G1 X136.234
X136.011 Y33.63
X134.518 Y34.319
X134.294 Y34.423
X134.273 Y34.433 Z2.646
G3 X133.862 Y34.299 Z2.452 I-0.133 J-0.288
G1 X133.474 Y33.539
X133.412 Y33.4
X133.369 Y33.253
X133.348 Y33.102
X133.345 Y32.95
X133.358 Y32.798
X133.386 Y32.648
X133.427 Y32.502
X133.48 Y32.359
X133.548 Y32.214
X133.631 Y32.068
X133.729 Y31.925
X133.84 Y31.787
X133.96 Y31.661
X134.077 Y31.556
X134.213 Y31.453
X134.341 Y31.37
X134.476 Y31.298
X134.62 Y31.237
X134.764 Y31.188
X134.772 Y31.186
X134.968 Y31.166
X135.163 Y31.198
X135.342 Y31.281
X135.493 Y31.408
X135.605 Y31.57
X135.997 Y32.336
G3 X135.844 Y32.759 Z2.655 I-0.288 J0.135
G1 X135.843
X135.62 Y32.863
X134.13 Y33.558
X133.906 Y33.663
X133.886 Y33.672 Z2.646
G3 X133.475 Y33.538 Z2.452 I-0.134 J-0.287
G1 X133.077 Y32.762
X133.015 Y32.623
X132.975 Y32.476
X132.955 Y32.325
X132.953 Y32.172
X132.967 Y32.02
X132.996 Y31.871
X133.039 Y31.724
X133.093 Y31.582
X133.161 Y31.437
X133.245 Y31.292
X133.344 Y31.149
X133.458 Y31.01
X133.576 Y30.887
X133.694 Y30.782
X133.831 Y30.679
X133.96 Y30.598
X134.095 Y30.527
X134.238 Y30.466
X134.385 Y30.418
X134.58 Y30.399
X134.774 Y30.432
X134.952 Y30.515
X135.102 Y30.641
X135.213 Y30.802
X135.605 Y31.57
G3 X135.452 Y31.992 Z2.655 I-0.288 J0.134
G1 X135.45 Y31.993
X135.228 Y32.095
X133.734 Y32.783
X133.509 Y32.886
X133.488 Y32.896 Z2.645
G3 X133.077 Y32.762 Z2.452 I-0.133 J-0.289
G1 X132.702 Y32.026
X132.639 Y31.887
X132.594 Y31.742
X132.569 Y31.591
X132.563 Y31.439
X132.574 Y31.287
X132.6 Y31.137
X132.639 Y30.989
X132.69 Y30.846
X132.756 Y30.7
X132.837 Y30.554
X132.932 Y30.412
X133.04 Y30.274
X133.161 Y30.144
X133.277 Y30.038
X133.411 Y29.933
X133.541 Y29.848
X133.674 Y29.774
X133.818 Y29.711
X133.962 Y29.66
X133.98 Y29.656
X134.178 Y29.633
X134.375 Y29.664
X134.556 Y29.746
X134.709 Y29.873
X134.822 Y30.037
X135.213 Y30.802
G3 X135.063 Y31.223 Z2.654 I-0.287 J0.135
G1 X135.06 Y31.224 Z2.655
X134.838 Y31.331
X133.356 Y32.043
X133.134 Y32.15
X133.117 Y32.158 Z2.648
G3 X132.702 Y32.026 Z2.452 I-0.138 J-0.286
G1 X132.298 Y31.235
X132.235 Y31.096
X132.194 Y30.949
X132.173 Y30.798
X132.171 Y30.646
X132.184 Y30.494
X132.213 Y30.344
X132.254 Y30.198
X132.308 Y30.054
X132.376 Y29.91
X132.459 Y29.766
X132.557 Y29.622
X132.67 Y29.483
X132.787 Y29.361
X132.906 Y29.254
X133.042 Y29.151
X133.17 Y29.069
X133.305 Y28.997
X133.448 Y28.936
X133.592 Y28.888
X133.599 Y28.886
X133.795 Y28.866
X133.989 Y28.899
X134.168 Y28.982
X134.319 Y29.108
X134.431 Y29.27
X134.822 Y30.037
G3 X134.669 Y30.458 Z2.655 I-0.287 J0.134
G1 X134.668 Y30.459
X134.445 Y30.563
X132.954 Y31.255
X132.73 Y31.359
X132.709 Y31.369 Z2.646
G3 X132.297 Y31.235 Z2.452 I-0.134 J-0.288
G1 X131.909 Y30.474
X131.847 Y30.335
X131.805 Y30.189
X131.783 Y30.038
X131.78 Y29.886
X131.792 Y29.734
X131.82 Y29.584
X131.861 Y29.437
X131.914 Y29.294
X131.982 Y29.15
X132.065 Y29.004
X132.162 Y28.861
X132.273 Y28.722
X132.393 Y28.597
X132.51 Y28.491
X132.646 Y28.388
X132.774 Y28.305
X132.908 Y28.233
X133.052 Y28.171
X133.197 Y28.122
X133.205 Y28.12
X133.402 Y28.1
X133.596 Y28.132
X133.776 Y28.214
X133.927 Y28.341
X134.039 Y28.503
X134.431 Y29.27
G3 X134.278 Y29.692 Z2.655 I-0.288 J0.134
G1 X134.054 Y29.797
X132.565 Y30.494
X132.341 Y30.599
X132.322 Y30.608 Z2.646
G3 X131.909 Y30.475 Z2.452 I-0.135 J-0.288
G1 X131.5 Y29.673
X131.438 Y29.534
X131.402 Y29.386
X131.385 Y29.234
X131.386 Y29.082
X131.403 Y28.93
X131.435 Y28.781
X131.479 Y28.635
X131.536 Y28.491
X131.607 Y28.347
X131.693 Y28.203
X131.795 Y28.06
X131.911 Y27.921
X132.028 Y27.803
X132.15 Y27.697
X132.286 Y27.598
X132.416 Y27.518
X132.552 Y27.449
X132.693 Y27.392
X132.766 Y27.369
X132.97 Y27.335
X133.176 Y27.359
X133.368 Y27.439
X133.529 Y27.569
X133.649 Y27.739
X134.039 Y28.503
G3 X133.886 Y28.925 Z2.655 I-0.287 J0.135
G1 X133.881 Y28.928
X133.661 Y29.026
X132.158 Y29.697
X131.932 Y29.797
X131.907 Y29.809 Z2.644
G3 X131.5 Y29.673 Z2.452 I-0.129 J-0.29
G1 X131.125 Y28.937
X131.062 Y28.798
X131.02 Y28.652
X130.999 Y28.501
X130.996 Y28.349
X131.01 Y28.197
X131.037 Y28.047
X131.078 Y27.9
X131.132 Y27.757
X131.201 Y27.61
X131.284 Y27.465
X131.381 Y27.323
X131.491 Y27.187
X131.604 Y27.069
X131.734 Y26.952
X131.864 Y26.853
X131.993 Y26.771
X132.134 Y26.697
X132.274 Y26.637
X132.419 Y26.589
X132.428 Y26.587
X132.623 Y26.567
X132.817 Y26.6
X132.995 Y26.683
X133.145 Y26.809
X133.257 Y26.971
X133.649 Y27.739
G3 X133.496 Y28.161 Z2.655 I-0.288 J0.134
G1 X133.495
X133.272 Y28.265
X131.781 Y28.958
X131.556 Y29.062
X131.536 Y29.071 Z2.646
G3 X131.124 Y28.938 Z2.452 I-0.134 J-0.288
G1 X130.728 Y28.161
X130.666 Y28.022
X130.626 Y27.875
X130.606 Y27.724
X130.604 Y27.572
X130.619 Y27.42
X130.648 Y27.27
X130.69 Y27.124
X130.744 Y26.982
X130.813 Y26.838
X130.897 Y26.692
X130.997 Y26.549
X131.11 Y26.41
X131.229 Y26.287
X131.347 Y26.182
X131.483 Y26.08
X131.612 Y25.998
X131.747 Y25.927
X131.891 Y25.867
X132.037 Y25.819
X132.232 Y25.8
X132.426 Y25.833
X132.603 Y25.916
X132.753 Y26.042
X132.865 Y26.203
X133.257 Y26.971
G3 X133.104 Y27.393 Z2.655 I-0.288 J0.134
G1 X133.102 Y27.394
X132.879 Y27.496
X131.385 Y28.182
X131.16 Y28.286
X131.138 Y28.296 Z2.645
G3 X130.728 Y28.161 Z2.452 I-0.132 J-0.289
G1 X130.332 Y27.386
X130.27 Y27.247
X130.231 Y27.099
X130.213 Y26.948
X130.212 Y26.796
X130.228 Y26.644
X130.258 Y26.495
X130.301 Y26.348
X130.356 Y26.206
X130.426 Y26.061
X130.512 Y25.916
X130.612 Y25.772
X130.726 Y25.634
X130.845 Y25.512
X130.964 Y25.408
X131.101 Y25.306
X131.23 Y25.225
X131.365 Y25.156
X131.508 Y25.096
X131.586 Y25.071
X131.792 Y25.035
X131.999 Y25.058
X132.192 Y25.138
X132.354 Y25.268
X132.474 Y25.439
X132.865 Y26.203
G3 X132.712 Y26.626 Z2.655 I-0.288 J0.135
G1 X132.708 Y26.627
X132.487 Y26.728
X130.989 Y27.408
X130.764 Y27.51
X130.741 Y27.521 Z2.645
G3 X130.332 Y27.386 Z2.452 I-0.131 J-0.289
G1 X129.945 Y26.627
X129.883 Y26.488
X129.842 Y26.341
X129.823 Y26.19
X129.821 Y26.038
X129.836 Y25.886
X129.865 Y25.736
X129.907 Y25.59
X129.962 Y25.447
X130.031 Y25.302
X130.116 Y25.156
X130.214 Y25.013
X130.325 Y24.879
X130.437 Y24.762
X130.57 Y24.644
X130.698 Y24.548
X130.827 Y24.466
X130.97 Y24.392
X131.111 Y24.333
X131.258 Y24.285
X131.453 Y24.267
X131.645 Y24.301
X131.822 Y24.384
X131.971 Y24.51
X132.082 Y24.671
X132.474 Y25.439
G3 X132.321 Y25.86 Z2.655 I-0.287 J0.134
G1 X132.319 Y25.862
X132.097 Y25.964
X130.602 Y26.649
X130.377 Y26.752
X130.355 Y26.762 Z2.645
G3 X129.945 Y26.627 Z2.452 I-0.132 J-0.289
G1 X129.547 Y25.849
X129.485 Y25.71
X129.447 Y25.562
X129.429 Y25.411
Y25.258
X129.445 Y25.107
X129.476 Y24.957
X129.519 Y24.811
X129.575 Y24.669
X129.645 Y24.525
X129.73 Y24.379
X129.831 Y24.236
X129.946 Y24.098
X130.065 Y23.975
X130.184 Y23.872
X130.321 Y23.771
X130.451 Y23.69
X130.586 Y23.621
X130.729 Y23.562
X130.805 Y23.537
X131.011 Y23.502
X131.217 Y23.526
X131.409 Y23.605
X131.572 Y23.736
X131.692 Y23.906
X132.082 Y24.671
G3 X131.929 Y25.092 Z2.655 I-0.288 J0.134
G1 X131.925 Y25.094
X131.704 Y25.194
X130.205 Y25.871
X129.979 Y25.973
X129.956 Y25.984 Z2.644
G3 X129.547 Y25.849 Z2.452 I-0.131 J-0.29
G1 X129.172 Y25.113
X129.109 Y24.974
X129.066 Y24.828
X129.044 Y24.677
X129.04 Y24.525
X129.052 Y24.373
X129.079 Y24.223
X129.119 Y24.076
X129.172 Y23.933
X129.24 Y23.787
X129.322 Y23.641
X129.418 Y23.499
X129.527 Y23.363
X129.639 Y23.244
X129.769 Y23.126
X129.9 Y23.026
X130.027 Y22.944
X130.168 Y22.869
X130.308 Y22.808
X130.452 Y22.759
X130.467 Y22.755
X130.663 Y22.735
X130.857 Y22.767
X131.037 Y22.85
X131.188 Y22.977
X131.3 Y23.139
X131.692 Y23.906
G3 X131.539 Y24.328 Z2.655 I-0.288 J0.134
G1 X131.315 Y24.433
X129.827 Y25.132
X129.604 Y25.237
X129.585 Y25.246 Z2.646
G3 X129.171 Y25.113 Z2.452 I-0.136 J-0.287
G1 X128.769 Y24.323
X128.706 Y24.184
X128.667 Y24.037
X128.648 Y23.886
X128.647 Y23.733
X128.662 Y23.582
X128.692 Y23.432
X128.735 Y23.286
X128.79 Y23.143
X128.859 Y23
X128.943 Y22.855
X129.043 Y22.711
X129.157 Y22.572
X129.275 Y22.451
X129.395 Y22.346
X129.531 Y22.244
X129.66 Y22.163
X129.796 Y22.093
X129.938 Y22.033
X130.02 Y22.006
X130.225 Y21.97
X130.433 Y21.993
X130.626 Y22.073
X130.789 Y22.203
X130.909 Y22.374
X131.3 Y23.139
G3 X131.147 Y23.561 Z2.655 I-0.288 J0.134
G1 X131.144 Y23.562
X130.922 Y23.663
X129.425 Y24.345
X129.201 Y24.448
X129.178 Y24.458 Z2.645
G3 X128.768 Y24.324 Z2.452 I-0.132 J-0.289
G1 X128.38 Y23.561
X128.317 Y23.422
X128.277 Y23.275
X128.257 Y23.124
X128.256 Y22.972
X128.271 Y22.82
X128.3 Y22.671
X128.342 Y22.524
X128.396 Y22.382
X128.466 Y22.237
X128.55 Y22.091
X128.649 Y21.948
X128.759 Y21.813
X128.872 Y21.696
X129.005 Y21.579
X129.133 Y21.483
X129.262 Y21.401
X129.405 Y21.327
X129.546 Y21.268
X129.693 Y21.22
X129.887 Y21.202
X130.08 Y21.236
X130.257 Y21.319
X130.406 Y21.445
X130.517 Y21.605
X130.909 Y22.374
G3 X130.756 Y22.795 Z2.655 I-0.287 J0.134
G1 X130.754 Y22.797
X130.532 Y22.899
X129.036 Y23.583
X128.811 Y23.686
X128.789 Y23.696 Z2.645
G3 X128.379 Y23.562 Z2.452 I-0.132 J-0.289
G1 X127.999 Y22.816
X127.936 Y22.676
X127.893 Y22.53
X127.87 Y22.38
X127.866 Y22.227
X127.878 Y22.075
X127.905 Y21.926
X127.945 Y21.779
X127.998 Y21.636
X128.065 Y21.491
X128.148 Y21.344
X128.244 Y21.202
X128.354 Y21.064
X128.476 Y20.935
X128.592 Y20.83
X128.727 Y20.727
X128.856 Y20.643
X128.99 Y20.571
X129.135 Y20.508
X129.279 Y20.459
X129.289 Y20.457
X129.486 Y20.436
X129.681 Y20.467
X129.861 Y20.55
X130.013 Y20.677
X130.126 Y20.839
X130.517 Y21.605
G3 X130.365 Y22.028 Z2.655 I-0.288 J0.135
G1 X130.364 Y22.027
X130.14 Y22.133
X128.654 Y22.834
X128.43 Y22.94
X128.412 Y22.948 Z2.647
G3 X127.999 Y22.816 Z2.452 I-0.136 J-0.287
G1 X127.595 Y22.024
X127.532 Y21.885
X127.493 Y21.738
X127.474 Y21.587
Y21.434
X127.489 Y21.283
X127.518 Y21.133
X127.561 Y20.987
X127.616 Y20.844
X127.686 Y20.7
X127.77 Y20.555
X127.87 Y20.412
X127.984 Y20.273
X128.101 Y20.151
X128.221 Y20.046
X128.358 Y19.944
X128.487 Y19.863
X128.622 Y19.793
X128.764 Y19.734
X128.845 Y19.707
X129.051 Y19.671
X129.259 Y19.694
X129.452 Y19.773
X129.615 Y19.904
X129.735 Y20.074
X130.126 Y20.839
G3 X129.973 Y21.262 Z2.655 I-0.288 J0.135
G1 X129.97
X129.748 Y21.364
X128.251 Y22.046
X128.027 Y22.149
X128.004 Y22.159 Z2.645
G3 X127.594 Y22.025 Z2.452 I-0.132 J-0.289
G1 X127.219 Y21.289
X127.157 Y21.15
X127.112 Y21.004
X127.089 Y20.854
X127.084 Y20.701
X127.095 Y20.549
X127.121 Y20.399
X127.161 Y20.252
X127.213 Y20.109
X127.28 Y19.963
X127.362 Y19.817
X127.457 Y19.675
X127.565 Y19.538
X127.677 Y19.419
X127.807 Y19.301
X127.937 Y19.2
X128.064 Y19.117
X128.205 Y19.041
X128.344 Y18.98
X128.488 Y18.93
X128.507 Y18.925
X128.704 Y18.904
X128.899 Y18.936
X129.079 Y19.018
X129.231 Y19.145
X129.344 Y19.308
X129.735 Y20.074
G3 X129.584 Y20.496 Z2.654 I-0.288 J0.135
G1 X129.582 Z2.655
X129.359 Y20.602
X127.874 Y21.307
X127.651 Y21.413
X127.633 Y21.422 Z2.647
G3 X127.219 Y21.289 Z2.452 I-0.136 J-0.287
G1 X126.802 Y20.473
X126.74 Y20.334
X126.704 Y20.185
X126.689 Y20.034
X126.69 Y19.882
X126.707 Y19.73
X126.739 Y19.581
X126.784 Y19.435
X126.842 Y19.29
X126.913 Y19.147
X126.999 Y19.003
X127.101 Y18.86
X127.218 Y18.722
X127.335 Y18.604
X127.458 Y18.498
X127.594 Y18.399
X127.724 Y18.32
X127.861 Y18.251
X128.002 Y18.194
X128.072 Y18.172
X128.276 Y18.139
X128.482 Y18.163
X128.673 Y18.243
X128.834 Y18.373
X128.953 Y18.542
X129.344 Y19.308
G3 X129.191 Y19.73 Z2.655 I-0.288 J0.134
G1 X129.185 Y19.732
X128.965 Y19.83
X127.46 Y20.497
X127.234 Y20.597
X127.209 Y20.609 Z2.644
G3 X126.802 Y20.473 Z2.452 I-0.129 J-0.29
G1 X126.416 Y19.716
X126.353 Y19.577
X126.316 Y19.429
X126.298 Y19.278
X126.299 Y19.125
X126.315 Y18.974
X126.345 Y18.824
X126.389 Y18.678
X126.445 Y18.535
X126.516 Y18.389
X126.603 Y18.244
X126.703 Y18.102
X126.815 Y17.968
X126.928 Y17.852
X127.062 Y17.736
X127.19 Y17.641
X127.32 Y17.561
X127.464 Y17.488
X127.605 Y17.43
X127.679 Y17.407
X127.884 Y17.373
X128.09 Y17.397
X128.281 Y17.477
X128.443 Y17.607
X128.562 Y17.777
X128.953 Y18.542
G3 X128.8 Y18.965 Z2.655 I-0.288 J0.135
G1 X128.795 Y18.967
X128.574 Y19.066
X127.073 Y19.739
X126.848 Y19.84
X126.823 Y19.851 Z2.644
G3 X126.416 Y19.716 Z2.452 I-0.13 J-0.289
G1 X126.018 Y18.936
X125.955 Y18.797
X125.92 Y18.648
X125.904 Y18.497
X125.906 Y18.344
X125.924 Y18.193
X125.956 Y18.044
X126.001 Y17.898
X126.059 Y17.756
X126.13 Y17.611
X126.218 Y17.466
X126.321 Y17.322
X126.433 Y17.19
X126.548 Y17.075
X126.683 Y16.96
X126.81 Y16.867
X126.94 Y16.788
X127.085 Y16.716
X127.226 Y16.659
X127.294 Y16.639
X127.497 Y16.606
X127.702 Y16.631
X127.892 Y16.712
X128.052 Y16.842
X128.17 Y17.01
X128.562 Y17.777
G3 X128.409 Y18.199 Z2.655 I-0.288 J0.134
G1 X128.402 Y18.202
X128.183 Y18.298
X126.676 Y18.961
X126.45 Y19.06
X126.423 Y19.072 Z2.643
G3 X126.017 Y18.936 Z2.452 I-0.128 J-0.291
G1 X125.642 Y18.2
X125.58 Y18.061
X125.539 Y17.914
X125.519 Y17.763
X125.517 Y17.611
X125.531 Y17.459
X125.56 Y17.309
X125.602 Y17.163
X125.656 Y17.02
X125.726 Y16.874
X125.81 Y16.728
X125.908 Y16.587
X126.019 Y16.451
X126.132 Y16.333
X126.262 Y16.218
X126.393 Y16.119
X126.522 Y16.038
X126.664 Y15.964
X126.804 Y15.905
X126.953 Y15.857
X127.148 Y15.839
X127.34 Y15.872
X127.517 Y15.955
X127.667 Y16.081
X127.778 Y16.242
X128.17 Y17.01
G3 X128.017 Y17.432 Z2.655 I-0.287 J0.135
G1 X128.015 Y17.433
X127.793 Y17.535
X126.299 Y18.221
X126.074 Y18.325
X126.052 Y18.335 Z2.645
G3 X125.642 Y18.2 Z2.452 I-0.132 J-0.289
G1 X125.267 Y17.465
X125.204 Y17.326
X125.158 Y17.18
X125.134 Y17.03
X125.128 Y16.878
X125.138 Y16.726
X125.164 Y16.575
X125.203 Y16.428
X125.254 Y16.285
X125.32 Y16.139
X125.401 Y15.994
X125.496 Y15.851
X125.604 Y15.714
X125.726 Y15.583
X125.841 Y15.477
X125.976 Y15.372
X126.106 Y15.286
X126.239 Y15.213
X126.383 Y15.15
X126.527 Y15.099
X126.545 Y15.095
X126.743 Y15.072
X126.939 Y15.103
X127.121 Y15.185
X127.274 Y15.313
X127.387 Y15.476
X127.778 Y16.242
G3 X127.628 Y16.662 Z2.654 I-0.288 J0.134
G1 X127.625 Y16.664 Z2.655
X127.402 Y16.771
X125.921 Y17.482
X125.698 Y17.589
X125.681 Y17.597 Z2.648
G3 X125.267 Y17.465 Z2.452 I-0.137 J-0.286
G1 X124.85 Y16.648
X124.787 Y16.509
X124.751 Y16.362
X124.734 Y16.21
Y16.058
X124.751 Y15.906
X124.782 Y15.757
X124.826 Y15.611
X124.883 Y15.466
X124.954 Y15.321
X125.039 Y15.178
X125.14 Y15.036
X125.256 Y14.897
X125.372 Y14.779
X125.496 Y14.671
X125.631 Y14.572
X125.761 Y14.492
X125.898 Y14.423
X126.039 Y14.365
X126.112 Y14.342
X126.317 Y14.307
X126.523 Y14.331
X126.715 Y14.411
X126.877 Y14.541
X126.996 Y14.711
X127.387 Y15.476
G3 X127.234 Y15.898 Z2.655 I-0.288 J0.134
G1 X127.229 Y15.9
X127.009 Y15.999
X125.507 Y16.672
X125.282 Y16.773
X125.257 Y16.784 Z2.644
G3 X124.849 Y16.649 Z2.452 I-0.13 J-0.29
G1 X124.469 Y15.903
X124.407 Y15.764
X124.366 Y15.617
X124.346 Y15.466
X124.344 Y15.314
X124.358 Y15.162
X124.386 Y15.012
X124.428 Y14.866
X124.482 Y14.723
X124.552 Y14.577
X124.635 Y14.431
X124.733 Y14.289
X124.844 Y14.154
X124.956 Y14.036
X125.088 Y13.92
X125.218 Y13.822
X125.346 Y13.74
X125.489 Y13.666
X125.629 Y13.607
X125.778 Y13.558
X125.973 Y13.54
X126.166 Y13.573
X126.343 Y13.656
X126.493 Y13.782
X126.604 Y13.943
X126.996 Y14.711
G3 X126.843 Y15.132 Z2.655 I-0.287 J0.134
G1 X126.842 Y15.134
X126.619 Y15.236
X125.125 Y15.924
X124.901 Y16.028
X124.88 Y16.037 Z2.645
G3 X124.47 Y15.903 Z2.452 I-0.133 J-0.288
G1 X124.065 Y15.111
X124.002 Y14.972
X123.966 Y14.824
X123.95 Y14.673
X123.951 Y14.52
X123.968 Y14.369
X123.999 Y14.22
X124.044 Y14.074
X124.101 Y13.931
X124.171 Y13.787
X124.258 Y13.642
X124.36 Y13.499
X124.476 Y13.361
X124.595 Y13.241
X124.715 Y13.137
X124.852 Y13.037
X124.982 Y12.957
X125.118 Y12.888
X125.26 Y12.831
X125.331 Y12.808
X125.536 Y12.774
X125.742 Y12.798
X125.933 Y12.878
X126.094 Y13.008
X126.214 Y13.178
X126.604 Y13.943
G3 X126.451 Y14.364 Z2.655 I-0.287 J0.134
G1 X126.446 Y14.367
X126.226 Y14.466
X124.723 Y15.135
X124.497 Y15.236
X124.472 Y15.247 Z2.644
G3 X124.064 Y15.112 Z2.452 I-0.13 J-0.29
G1 X123.689 Y14.376
X123.627 Y14.237
X123.585 Y14.09
X123.564 Y13.939
X123.561 Y13.787
X123.575 Y13.635
X123.602 Y13.485
X123.644 Y13.339
X123.697 Y13.195
X123.766 Y13.049
X123.85 Y12.903
X123.946 Y12.762
X124.057 Y12.626
X124.169 Y12.508
X124.3 Y12.391
X124.43 Y12.292
X124.558 Y12.21
X124.7 Y12.136
X124.84 Y12.076
X124.985 Y12.028
X124.993 Y12.026
X125.188 Y12.007
X125.382 Y12.04
X125.56 Y12.122
X125.71 Y12.249
X125.822 Y12.41
X126.214 Y13.178
G3 X126.061 Y13.6 Z2.655 I-0.288 J0.134
G1 X126.06
X125.836 Y13.704
X124.345 Y14.396
X124.121 Y14.5
X124.101 Y14.51 Z2.646
G3 X123.689 Y14.376 Z2.452 I-0.134 J-0.288
G1 X123.291 Y13.596
X123.229 Y13.457
X123.189 Y13.31
X123.17 Y13.159
X123.169 Y13.006
X123.184 Y12.855
X123.214 Y12.705
X123.256 Y12.559
X123.311 Y12.416
X123.38 Y12.273
X123.465 Y12.127
X123.565 Y11.984
X123.678 Y11.845
X123.797 Y11.722
X123.916 Y11.618
X124.052 Y11.516
X124.181 Y11.435
X124.317 Y11.365
X124.46 Y11.305
X124.541 Y11.278
X124.747 Y11.242
X124.954 Y11.264
X125.148 Y11.344
X125.311 Y11.475
X125.431 Y11.645
X125.822 Y12.41
G3 X125.669 Y12.833 Z2.655 I-0.288 J0.135
G1 X125.666 Y12.834
X125.444 Y12.935
X123.948 Y13.618
X123.723 Y13.72
X123.701 Y13.731 Z2.645
G3 X123.291 Y13.596 Z2.452 I-0.132 J-0.289
G1 X122.887 Y12.804
X122.824 Y12.665
X122.789 Y12.517
X122.774 Y12.365
X122.776 Y12.213
X122.794 Y12.062
X122.826 Y11.913
X122.872 Y11.767
X122.929 Y11.623
X123.001 Y11.479
X123.088 Y11.334
X123.191 Y11.191
X123.303 Y11.059
X123.418 Y10.944
X123.554 Y10.828
X123.68 Y10.737
X123.81 Y10.657
X123.955 Y10.585
X124.096 Y10.529
X124.164 Y10.508
X124.367 Y10.476
X124.572 Y10.501
X124.761 Y10.581
X124.922 Y10.711
X125.04 Y10.879
X125.431 Y11.645
G3 X125.278 Y12.068 Z2.655 I-0.288 J0.135
G1 X125.271 Y12.07
X125.052 Y12.167
X123.545 Y12.83
X123.319 Y12.929
X123.292 Y12.941 Z2.643
G3 X122.886 Y12.805 Z2.452 I-0.128 J-0.291
G1 X122.521 Y12.089
X122.459 Y11.95
X122.415 Y11.804
X122.392 Y11.653
X122.388 Y11.501
X122.399 Y11.349
X122.426 Y11.199
X122.466 Y11.052
X122.519 Y10.908
X122.586 Y10.762
X122.668 Y10.618
X122.763 Y10.477
X122.873 Y10.339
X122.987 Y10.218
X123.113 Y10.103
X123.246 Y10.001
X123.374 Y9.918
X123.512 Y9.844
X123.652 Y9.783
X123.796 Y9.734
X123.813 Y9.73
X124.009 Y9.709
X124.204 Y9.741
X124.384 Y9.823
X124.536 Y9.95
X124.648 Y10.112
X125.04 Y10.879
G3 X124.888 Y11.302 Z2.655 I-0.288 J0.135
G1 X124.887 Y11.301
X124.663 Y11.407
X123.177 Y12.108
X122.953 Y12.213
X122.934 Y12.222 Z2.647
G3 X122.522 Y12.089 Z2.452 I-0.135 J-0.287
G1 X122.112 Y11.287
X122.05 Y11.148
X122.012 Y11
X121.995 Y10.849
Y10.697
X122.011 Y10.545
X122.042 Y10.396
X122.085 Y10.25
X122.142 Y10.106
X122.212 Y9.963
X122.297 Y9.818
X122.398 Y9.675
X122.514 Y9.536
X122.631 Y9.417
X122.752 Y9.311
X122.888 Y9.211
X123.018 Y9.131
X123.154 Y9.061
X123.295 Y9.003
X123.372 Y8.979
X123.577 Y8.944
X123.783 Y8.967
X123.975 Y9.047
X124.138 Y9.177
X124.257 Y9.347
X124.648 Y10.112
G3 X124.495 Y10.534 Z2.655 I-0.287 J0.135
G1 X124.491 Y10.536
X124.27 Y10.636
X122.77 Y11.31
X122.544 Y11.412
X122.52 Y11.423 Z2.644
G3 X122.112 Y11.287 Z2.452 I-0.13 J-0.29
G1 X121.737 Y10.552
X121.674 Y10.413
X121.631 Y10.267
X121.609 Y10.116
X121.605 Y9.963
X121.618 Y9.812
X121.645 Y9.662
X121.686 Y9.515
X121.739 Y9.372
X121.807 Y9.225
X121.889 Y9.08
X121.985 Y8.938
X122.095 Y8.802
X122.207 Y8.683
X122.337 Y8.566
X122.467 Y8.466
X122.596 Y8.384
X122.737 Y8.309
X122.877 Y8.248
X123.021 Y8.199
X123.034 Y8.196
X123.23 Y8.176
X123.424 Y8.209
X123.603 Y8.291
X123.754 Y8.418
X123.866 Y8.58
X124.257 Y9.347
G3 X124.105 Y9.769 Z2.655 I-0.287 J0.135
G1 X124.104
X123.881 Y9.874
X122.392 Y10.571
X122.168 Y10.676
X122.149 Y10.685 Z2.646
G3 X121.737 Y10.552 Z2.452 I-0.135 J-0.287
G1 X121.338 Y9.772
X121.276 Y9.633
X121.235 Y9.486
X121.215 Y9.335
X121.213 Y9.182
X121.227 Y9.031
X121.256 Y8.881
X121.299 Y8.735
X121.353 Y8.592
X121.421 Y8.449
X121.505 Y8.303
X121.604 Y8.16
X121.717 Y8.021
X121.835 Y7.898
X121.953 Y7.793
X122.09 Y7.69
X122.219 Y7.608
X122.354 Y7.537
X122.497 Y7.477
X122.645 Y7.428
X122.84 Y7.409
X123.034 Y7.442
X123.212 Y7.525
X123.362 Y7.651
X123.474 Y7.813
X123.866 Y8.58
G3 X123.713 Y9.002 Z2.655 I-0.288 J0.134
G1 X123.711 Y9.003
X123.488 Y9.105
X121.995 Y9.793
X121.77 Y9.896
X121.749 Y9.906 Z2.645
G3 X121.339 Y9.772 Z2.452 I-0.133 J-0.288
G1 X120.94 Y8.991
X120.877 Y8.852
X120.839 Y8.704
X120.821 Y8.553
Y8.4
X120.837 Y8.249
X120.868 Y8.1
X120.911 Y7.954
X120.967 Y7.811
X121.037 Y7.666
X121.122 Y7.521
X121.223 Y7.378
X121.338 Y7.24
X121.457 Y7.118
X121.576 Y7.014
X121.713 Y6.913
X121.842 Y6.832
X121.978 Y6.763
X122.12 Y6.704
X122.197 Y6.679
X122.402 Y6.644
X122.609 Y6.667
X122.801 Y6.747
X122.964 Y6.878
X123.083 Y7.048
X123.474 Y7.813
G3 X123.321 Y8.235 Z2.655 I-0.288 J0.134
G1 X123.317 Y8.236
X123.096 Y8.336
X121.597 Y9.014
X121.372 Y9.115
X121.348 Y9.126 Z2.645
G3 X120.94 Y8.991 Z2.452 I-0.131 J-0.289
G1 X120.569 Y8.265
X120.506 Y8.126
X120.461 Y7.98
X120.438 Y7.829
X120.432 Y7.677
X120.443 Y7.525
X120.469 Y7.375
X120.509 Y7.228
X120.561 Y7.084
X120.628 Y6.938
X120.709 Y6.793
X120.803 Y6.651
X120.912 Y6.514
X121.024 Y6.394
X121.152 Y6.276
X121.283 Y6.175
X121.41 Y6.091
X121.55 Y6.016
X121.689 Y5.954
X121.833 Y5.904
X121.854 Y5.899
X122.051 Y5.878
X122.247 Y5.909
X122.427 Y5.991
X122.579 Y6.118
X122.692 Y6.281
X123.083 Y7.048
G3 X122.932 Y7.468 Z2.654 I-0.287 J0.134
G1 X122.93 Y7.47 Z2.655
X122.707 Y7.576
X121.224 Y8.282
X121.001 Y8.389
X120.983 Y8.397 Z2.647
G3 X120.568 Y8.265 Z2.452 I-0.137 J-0.287
G1 X120.159 Y7.463
X120.097 Y7.324
X120.058 Y7.177
X120.04 Y7.025
X120.039 Y6.873
X120.054 Y6.721
X120.084 Y6.572
X120.128 Y6.426
X120.183 Y6.281
X120.252 Y6.139
X120.337 Y5.994
X120.437 Y5.851
X120.552 Y5.712
X120.669 Y5.592
X120.79 Y5.486
X120.926 Y5.384
X121.055 Y5.304
X121.19 Y5.234
X121.332 Y5.175
X121.407 Y5.15
X121.598 Y5.115
X121.792 Y5.131
X121.975 Y5.196
X122.134 Y5.307
X122.26 Y5.456
G3 X122.221 Y5.833 Z2.617 I-0.274 J0.162
G1 X122.157 Y5.901 Z2.655
X121.991 Y6.083
X120.769 Y7.417
X120.671 Y7.523
X120.634 Y7.558
X120.591 Y7.587
G3 X120.159 Y7.463 Z2.452 I-0.154 J-0.278
G1 X119.784 Y6.728
X119.722 Y6.589
X119.677 Y6.443
X119.654 Y6.292
X119.65 Y6.14
X119.661 Y5.988
X119.688 Y5.838
X119.728 Y5.691
X119.78 Y5.548
X119.847 Y5.402
X119.929 Y5.256
X120.025 Y5.114
X120.133 Y4.978
X120.204 Y4.903
X120.367 Y4.772
X120.559 Y4.692
X120.767 Y4.669
G3 X121.063 Y5.006 Z2.655 I-0.021 J0.317
G1 X121.055 Y5.06
X121.038 Y5.111
X120.983 Y5.238
X120.368 Y6.664
X120.353 Y6.699
X120.319 Y6.759
X120.272 Y6.811
X120.215 Y6.851
G3 X119.785 Y6.727 Z2.452 I-0.153 J-0.278
G1 X119.381 Y5.938
X119.318 Y5.798
X119.278 Y5.651
X119.259 Y5.5
X119.257 Y5.348
X119.259 Y5.331
X119.311 Y5.12
X119.423 Y4.933
X119.584 Y4.787
X119.781 Y4.694
X119.996 Y4.662
G3 X120.302 Y4.99 Z2.655 I-0.011 J0.317
G1 X120.296 Y5.046
X120.279 Y5.099
X120.228 Y5.224
X119.964 Y5.874
X119.952 Y5.903
X119.928 Y5.951
X119.896 Y5.994
X119.857 Y6.031
X119.812 Y6.061
G3 X119.38 Y5.938 Z2.452 I-0.154 J-0.278
G1 X119.257 Y5.698
X119.18 Y5.551
X119.08 Y5.404
X119.002 Y5.273
X118.981 Y5.099
X119.025 Y4.93
X119.129 Y4.788
X119.277 Y4.695
X119.45 Y4.662
X119.523 Y4.67 Z2.482
X119.594 Y4.688 Z2.512
X119.662 Y4.716 Z2.542
G3 X119.86 Y4.905 Z2.655 I-0.207 J0.415
X119.517 Y5.591 I-0.405 J0.226
X119.08 Y5.404 Z2.452 I-0.062 J-0.46
G1 X119.064 Y5.379
X118.959 Y5.257
X118.917 Y5.213
X118.894 Y5.187
X118.876 Y5.161
X118.862 Y5.135
X118.85 Y5.11
X118.838 Y5.073
X118.831 Y5.036
X118.828 Y4.999
X118.829 Y4.963
X118.835 Y4.926
X118.845 Y4.889
X118.86 Y4.852
X118.881 Y4.815
X118.897 Y4.794
X118.917 Y4.772
X118.953 Y4.739
X118.99 Y4.712
X119.027 Y4.692
X119.064 Y4.677
X119.098 Y4.668
X119.126 Y4.664
X119.154 Y4.662
X120.534
X121.049 Y4.677
X121.086 Y4.681
X121.122 Y4.689
X121.269 Y4.725
X121.416 Y4.767
X121.535 Y4.815
X121.563 Y4.83
X121.71 Y4.91
X121.857 Y5.01
X122.005 Y5.138
X122.118 Y5.257
X122.152 Y5.299
X122.226 Y5.404
X122.299 Y5.517
X122.394 Y5.698
X122.692 Y6.281
G3 X122.261 Y6.7 I-0.288 J0.135
G1 X122.199 Y6.668 Z2.46
X122.139 Y6.638 Z2.483
X122.085 Y6.611 Z2.521
X122.04 Y6.588 Z2.571
X122.006 Y6.571 Z2.632
X121.985 Y6.56 Z2.699
X121.978 Y6.557 Z2.769
G0 Z9.08
X94.024 Y57.012
Z3.087
G1 Z2.769 F1905
X94.026 Y57.02 Z2.699
X94.032 Y57.042 Z2.632
X94.041 Y57.079 Z2.571
X94.054 Y57.128 Z2.521
X94.069 Y57.186 Z2.483
X94.086 Y57.251 Z2.46
X94.103 Y57.319 Z2.452
G3 X94.105 Y58.105 I-1.532 J0.396
G1 X94.075 Y58.207
X94.066 Y58.266
X94.06 Y58.354
X94.066 Y58.458
X94.072 Y58.502
X94.113 Y58.649
X94.13 Y58.689
X94.157 Y58.761
X94.135 Y58.911
X94.096 Y59.059
X94.04 Y59.201
X93.972 Y59.337
X93.891 Y59.469
X93.786 Y59.612
X93.667 Y59.75
X93.521 Y59.895
X93.353 Y60.037
X93.164 Y60.172
X92.944 Y60.303
X92.699 Y60.424
X92.453 Y60.522
X92.428 Y60.529
X92.24 Y60.561
X92.051 Y60.545
X91.872 Y60.48
X91.715 Y60.372
X90.763 Y59.515
G3 X90.754 Y59.066 Z2.655 I0.22 J-0.229
G1 X90.807 Y59.022
X90.867 Y58.991
X90.933 Y58.973
X90.975 Y58.966
X93.461 Y58.565
X93.705 Y58.525
X93.792 Y58.511 Z2.619
G3 X94.131 Y58.689 Z2.452 I0.051 J0.314
G1 X94.144 Y58.722
X94.186 Y58.796
X94.213 Y58.835
X94.305 Y58.943
X94.36 Y58.994
X94.466 Y59.09
X94.493 Y59.117
X94.514 Y59.268
Y59.42
X94.498 Y59.572
X94.466 Y59.721
X94.421 Y59.866
X94.361 Y60.017
X94.282 Y60.174
X94.187 Y60.332
X94.066 Y60.501
X93.926 Y60.666
X93.769 Y60.823
X93.62 Y60.951
X93.456 Y61.069
X93.311 Y61.157
X93.299 Y61.164
X93.089 Y61.232
X92.867 Y61.236
X92.655 Y61.174
X92.47 Y61.052
X91.715 Y60.372
G3 X91.706 Y59.923 Z2.655 I0.22 J-0.229
G1 X91.744 Y59.89
X91.786 Y59.863
X91.831 Y59.844
X91.924 Y59.811
X93.763 Y59.171
X93.997 Y59.089
X94.158 Y59.033 Z2.586
G3 X94.466 Y59.09 Z2.452 I0.104 J0.3
G1 X94.882 Y59.464
X94.936 Y59.518
X94.98 Y59.664
X95.005 Y59.814
X95.014 Y59.967
X95.008 Y60.119
X94.989 Y60.27
X94.955 Y60.433
X94.906 Y60.599
X94.84 Y60.768
X94.756 Y60.944
X94.655 Y61.118
X94.552 Y61.265
X94.439 Y61.402
X94.313 Y61.532
X94.196 Y61.635
X94.072 Y61.727
X94.044 Y61.745
X93.87 Y61.825
X93.682 Y61.858
X93.491 Y61.841
X93.312 Y61.776
X93.154 Y61.668
X92.47 Y61.052
G3 X92.463 Y60.603 Z2.655 I0.221 J-0.228
G1 X92.497 Y60.572
X92.535 Y60.547
X92.67 Y60.471
X94.207 Y59.608
X94.423 Y59.487
X94.522 Y59.431 Z2.609
G3 X94.882 Y59.464 Z2.452 I0.156 J0.277
G1 X95.342 Y59.878
X95.45 Y59.986
X95.508 Y60.126
X95.549 Y60.273
X95.574 Y60.423
X95.585 Y60.575
X95.583 Y60.728
X95.568 Y60.889
X95.538 Y61.054
X95.494 Y61.223
X95.434 Y61.395
X95.358 Y61.567
X95.276 Y61.718
X95.179 Y61.866
X95.077 Y61.998
X94.974 Y62.111
X94.854 Y62.223
X94.735 Y62.317
X94.72 Y62.328
X94.545 Y62.413
X94.353 Y62.45
X94.158 Y62.436
X93.974 Y62.372
X93.814 Y62.261
X93.154 Y61.668
G3 X93.147 Y61.219 Z2.655 I0.221 J-0.228
G1 X93.185 Y61.185
X93.342 Y61.068
X94.691 Y60.059
X94.889 Y59.911
X94.947 Y59.867 Z2.625
G3 X95.341 Y59.878 Z2.452 I0.19 J0.254
G1 X95.831 Y60.318
X95.939 Y60.426
X96.021 Y60.554
X96.085 Y60.692
X96.132 Y60.837
X96.164 Y60.986
X96.182 Y61.138
X96.186 Y61.29
X96.177 Y61.448
X96.155 Y61.61
X96.119 Y61.775
X96.067 Y61.944
X96 Y62.114
X95.927 Y62.262
X95.84 Y62.409
X95.745 Y62.542
X95.647 Y62.659
X95.534 Y62.772
X95.419 Y62.871
X95.388 Y62.893
X95.211 Y62.987
X95.015 Y63.031
X94.815 Y63.02
X94.625 Y62.955
X94.459 Y62.843
X93.814 Y62.261
G3 X93.806 Y61.813 Z2.655 I0.22 J-0.228
G1 X93.819 Y61.8
X93.987 Y61.645
X95.2 Y60.523
X95.382 Y60.355
X95.411 Y60.328 Z2.639
G3 X95.83 Y60.319 Z2.452 I0.215 J0.234
G1 X96.419 Y60.848
X96.527 Y60.955
X96.615 Y61.08
X96.685 Y61.215
X96.739 Y61.357
X96.778 Y61.505
X96.802 Y61.655
X96.812 Y61.807
X96.81 Y61.964
X96.794 Y62.125
X96.765 Y62.288
X96.721 Y62.456
X96.662 Y62.626
X96.595 Y62.777
X96.514 Y62.926
X96.423 Y63.065
X96.33 Y63.186
X96.224 Y63.301
X96.112 Y63.405
X96.054 Y63.451
X95.875 Y63.555
X95.674 Y63.606
X95.468 Y63.599
X95.271 Y63.535
X95.1 Y63.42
X94.459 Y62.843
G3 X94.451 Y62.393 Z2.655 I0.221 J-0.229
G1 X94.456 Y62.389
X94.626 Y62.22
X95.795 Y61.06
X95.971 Y60.886
X95.991 Y60.866 Z2.643
G3 X96.419 Y60.848 Z2.452 I0.224 J0.225
G1 X97.047 Y61.414
X97.155 Y61.521
X97.244 Y61.645
X97.316 Y61.779
X97.371 Y61.922
X97.41 Y62.069
X97.436 Y62.219
X97.448 Y62.371
X97.447 Y62.524
X97.433 Y62.686
X97.405 Y62.852
X97.362 Y63.02
X97.306 Y63.186
X97.242 Y63.335
X97.159 Y63.491
X97.072 Y63.627
X96.98 Y63.749
X96.872 Y63.868
X96.761 Y63.973
X96.698 Y64.024
X96.519 Y64.129
X96.317 Y64.181
X96.11 Y64.175
X95.912 Y64.112
X95.739 Y63.996
X95.1 Y63.42
G3 X95.091 Y62.971 Z2.655 I0.22 J-0.229
G1 X95.095 Y62.968
X95.266 Y62.795
X96.425 Y61.627
X96.599 Y61.452
X96.618 Y61.433 Z2.644
G3 X97.047 Y61.414 Z2.452 I0.225 J0.224
G1 X97.671 Y61.976
X97.779 Y62.083
X97.871 Y62.205
X97.944 Y62.338
X98.001 Y62.48
X98.043 Y62.626
X98.07 Y62.776
X98.084 Y62.928
X98.085 Y63.08
X98.073 Y63.241
X98.047 Y63.407
X98.006 Y63.575
X97.952 Y63.741
X97.889 Y63.891
X97.808 Y64.048
X97.722 Y64.186
X97.631 Y64.309
X97.525 Y64.429
X97.416 Y64.535
X97.298 Y64.631
X97.291 Y64.636
X97.115 Y64.723
X96.923 Y64.761
X96.727 Y64.748
X96.542 Y64.683
X96.38 Y64.573
X95.739 Y63.996
G3 X95.731 Y63.546 Z2.655 I0.221 J-0.229
G1 X95.732
X95.904 Y63.37
X97.051 Y62.191
X97.223 Y62.014
X97.24 Y61.997 Z2.646
G3 X97.671 Y61.976 Z2.452 I0.227 J0.222
G1 X98.33 Y62.569
X98.438 Y62.677
X98.526 Y62.801
X98.596 Y62.936
X98.651 Y63.079
X98.689 Y63.226
X98.714 Y63.377
X98.725 Y63.529
X98.724 Y63.683
X98.71 Y63.842
X98.681 Y64.008
X98.638 Y64.178
X98.579 Y64.348
X98.512 Y64.504
X98.437 Y64.644
X98.345 Y64.787
X98.253 Y64.908
X98.151 Y65.021
X98.038 Y65.127
X97.977 Y65.176
X97.798 Y65.281
X97.597 Y65.333
X97.389 Y65.327
X97.191 Y65.264
X97.019 Y65.148
X96.38 Y64.573
G3 X96.372 Y64.123 Z2.655 I0.221 J-0.229
G1 X96.376 Y64.12
X96.547 Y63.949
X97.708 Y62.782
X97.882 Y62.607
X97.901 Y62.588 Z2.644
G3 X98.33 Y62.569 Z2.452 I0.225 J0.224
G1 X98.955 Y63.132
X99.063 Y63.239
X99.154 Y63.362
X99.226 Y63.496
X99.282 Y63.638
X99.323 Y63.785
X99.35 Y63.935
X99.363 Y64.087
Y64.24
X99.35 Y64.401
X99.324 Y64.567
X99.283 Y64.735
X99.228 Y64.901
X99.165 Y65.05
X99.083 Y65.207
X98.997 Y65.344
X98.906 Y65.466
X98.799 Y65.586
X98.689 Y65.692
X98.568 Y65.79
X98.393 Y65.876
X98.201 Y65.914
X98.006 Y65.9
X97.821 Y65.835
X97.66 Y65.725
X97.019 Y65.148
G3 X97.011 Y64.698 Z2.655 I0.22 J-0.229
G1 X97.013 Y64.697
X97.184 Y64.522
X98.335 Y63.347
X98.507 Y63.17
X98.524 Y63.153 Z2.645
G3 X98.955 Y63.132 Z2.452 I0.227 J0.222
G1 X99.598 Y63.711
X99.706 Y63.818
X99.796 Y63.941
X99.868 Y64.076
X99.924 Y64.217
X99.964 Y64.364
X99.99 Y64.515
X100.003 Y64.666
Y64.819
X99.99 Y64.978
X99.963 Y65.145
X99.921 Y65.314
X99.865 Y65.483
X99.797 Y65.642
X99.724 Y65.782
X99.633 Y65.926
X99.542 Y66.048
X99.441 Y66.162
X99.328 Y66.27
X99.261 Y66.324
X99.082 Y66.432
X98.88 Y66.485
X98.671 Y66.479
X98.472 Y66.416
X98.298 Y66.299
X97.66 Y65.725
G3 X97.651 Y65.276 Z2.655 I0.221 J-0.229
G1 X97.654 Y65.274
X97.825 Y65.1
X98.977 Y63.925
X99.15 Y63.749
X99.167 Y63.732 Z2.645
G3 X99.598 Y63.711 Z2.452 I0.227 J0.222
G1 X100.242 Y64.29
X100.35 Y64.398
X100.439 Y64.522
X100.51 Y64.656
X100.565 Y64.798
X100.605 Y64.945
X100.631 Y65.096
X100.643 Y65.248
X100.642 Y65.4
X100.629 Y65.561
X100.601 Y65.727
X100.559 Y65.897
X100.504 Y66.061
X100.44 Y66.211
