%
(HAfinsOp1)
(T1 D=3.175 CR=0 - ZMIN=-4 - flat end mill)
G90
G17
G21
G28 G91 Z0
G90

(2D Contour1)
T1 M6
S24000 M3
G17 G90
G54
G0 X-2.54 Y75.882
Z15
G0 Z5
G1 Z0.635 F508
Z-0.953
G18 G2 X-2.223 Z-1.269 I0.317 K0.001 F1905
G1 X-1.905 Z-1.27
G17 G3 X-1.587 Y76.2 I0 J0.318
G1 Y152.4
G2 X0 Y153.987 I1.587 J0
G1 X165.1 Y153.988
G2 X166.688 Y152.4 I0 J-1.588
G1 Y0
G2 X165.1 Y-1.588 I-1.588 J0
G1 X0 Y-1.587
G2 X-1.587 Y0 I0 J1.587
G1 Y76.2
G3 X-1.905 Y76.518 I-0.318 J0
G1 X-2.223
G18 G3 X-2.541 Z-0.953 I0 K0.318
G0 X-2.54 Z5
Y75.882
G1 Z-0.635 F508
Z-2.223
G2 X-2.223 Z-2.54 I0.317 K0 F1905
G1 X-1.905
G17 G3 X-1.587 Y76.2 I0 J0.318
G1 Y152.4
G2 X0 Y153.987 I1.587 J0
G1 X165.1 Y153.988
G2 X166.688 Y152.4 I0 J-1.588
G1 Y0
G2 X165.1 Y-1.588 I-1.588 J0
G1 X0 Y-1.587
G2 X-1.587 Y0 I0 J1.587
G1 Y76.2
G3 X-1.905 Y76.518 I-0.318 J0
G1 X-2.223
G18 G3 X-2.54 Z-2.223 I0 K0.317
G0 Z5
Y75.882
G1 Z-1.905 F508
Z-2.953
G2 X-2.223 Z-3.27 I0.317 K0 F1905
G1 X-1.905
G17 G3 X-1.587 Y76.2 I0 J0.318
G1 Y152.4
G2 X0 Y153.987 I1.587 J0
G1 X165.1 Y153.988
G2 X166.688 Y152.4 I0 J-1.588
G1 Y0
G2 X165.1 Y-1.588 I-1.588 J0
G1 X0 Y-1.587
G2 X-1.587 Y0 I0 J1.587
G1 Y76.2
G3 X-1.905 Y76.518 I-0.318 J0
G1 X-2.223
G18 G3 X-2.54 Z-2.953 I0 K0.317
G0 Z5
Y75.882
G1 Z-2.635 F508
Z-3.683
G2 X-2.223 Z-3.999 I0.317 K0.001 F1905
G1 X-1.905 Z-4
G17 G3 X-1.587 Y76.2 I0 J0.318
G1 Y152.4
G2 X0 Y153.987 I1.587 J0
G1 X165.1 Y153.988
G2 X166.688 Y152.4 I0 J-1.588
G1 Y0
G2 X165.1 Y-1.588 I-1.588 J0
G1 X0 Y-1.587
G2 X-1.587 Y0 I0 J1.587
G1 Y76.2
G3 X-1.905 Y76.518 I-0.318 J0
G1 X-2.223
G18 G3 X-2.541 Z-3.683 I0 K0.318
G0 X-2.54 Z15
G17

(Face2)
G0 Z16.95
X167.164 Y0.644
Z16.95
Z6.79
G1 Z1.857 F508
G18 G3 X166.846 Z1.539 I-0.318 K0 F2286
G1 X166.698 Z1.54
X-1.598
G17 G2 Y2.854 I0 J1.105
G1 X166.698 Y2.853
G3 Y5.063 I0 J1.105
G1 X-1.598 Y5.062
G2 Y7.272 I0 J1.105
G1 X166.698
G3 Y9.48 I0 J1.104
G1 X-1.598 Y9.481
G2 Y11.689 I0 J1.104
G1 X166.698 Y11.69
G3 Y13.9 I0 J1.105
G1 X-1.598 Y13.899
G2 Y16.109 I0 J1.105
G1 X166.698 Y16.108
G3 Y18.318 I0 J1.105
G1 X-1.598
G2 Y20.526 I0 J1.104
G1 X166.698 Y20.527
G3 Y22.735 I0 J1.104
G1 X-1.598 Y22.736
G2 Y24.946 I0 J1.105
G1 X166.698 Y24.945
G3 Y27.155 I0 J1.105
G1 X-1.598 Y27.154
G2 Y29.364 I0 J1.105
G1 X166.698
G3 Y31.572 I0 J1.104
G1 X-1.598 Y31.573
G2 Y33.781 I0 J1.104
G1 X166.698 Y33.782
G3 Y35.992 I0 J1.105
G1 X-1.598 Y35.991
G2 Y38.201 I0 J1.105
G1 X166.698 Y38.2
G3 Y40.41 I0 J1.105
G1 X-1.598
G2 Y42.618 I0 J1.104
G1 X166.698 Y42.619
G3 Y44.827 I0 J1.104
G1 X-1.598 Y44.828
G2 Y47.038 I0 J1.105
G1 X166.698 Y47.037
G3 Y49.247 I0 J1.105
G1 X-1.598 Y49.246
G2 Y51.456 I0 J1.105
G1 X166.698
G3 Y53.664 I0 J1.104
G1 X-1.598 Y53.665
G2 Y55.873 I0 J1.104
G1 X166.698 Y55.874
G3 Y58.084 I0 J1.105
G1 X-1.598 Y58.083
G2 Y60.293 I0 J1.105
G1 X166.698 Y60.292
G3 Y62.502 I0 J1.105
G1 X-1.598
G2 Y64.71 I0 J1.104
G1 X166.698 Y64.711
G3 Y66.919 I0 J1.104
G1 X-1.598 Y66.92
G2 Y69.13 I0 J1.105
G1 X166.698 Y69.129
G3 Y71.339 I0 J1.105
G1 X-1.598 Y71.338
G2 Y73.548 I0 J1.105
G1 X166.698
G3 Y75.756 I0 J1.104
G1 X-1.598 Y75.757
G2 Y77.965 I0 J1.104
G1 X166.698 Y77.966
G3 Y80.176 I0 J1.105
G1 X-1.598 Y80.175
G2 Y82.385 I0 J1.105
G1 X166.698 Y82.384
G3 Y84.594 I0 J1.105
G1 X-1.598
G2 Y86.802 I0 J1.104
G1 X166.698 Y86.803
G3 Y89.011 I0 J1.104
G1 X-1.598 Y89.012
G2 Y91.222 I0 J1.105
G1 X166.698 Y91.221
G3 Y93.431 I0 J1.105
G1 X-1.598 Y93.43
G2 Y95.64 I0 J1.105
G1 X166.698
G3 Y97.848 I0 J1.104
G1 X-1.598 Y97.849
G2 Y100.057 I0 J1.104
G1 X166.698 Y100.058
G3 Y102.268 I0 J1.105
G1 X-1.598 Y102.267
G2 Y104.477 I0 J1.105
G1 X166.698 Y104.476
G3 Y106.686 I0 J1.105
G1 X-1.598
G2 Y108.894 I0 J1.104
G1 X166.698 Y108.895
G3 Y111.103 I0 J1.104
G1 X-1.598 Y111.104
G2 Y113.314 I0 J1.105
G1 X166.698 Y113.313
G3 Y115.523 I0 J1.105
G1 X-1.598 Y115.522
G2 Y117.732 I0 J1.105
G1 X166.698
G3 Y119.94 I0 J1.104
G1 X-1.598 Y119.941
G2 Y122.149 I0 J1.104
G1 X166.698 Y122.15
G3 Y124.36 I0 J1.105
G1 X-1.598 Y124.359
G2 Y126.569 I0 J1.105
G1 X166.698 Y126.568
G3 Y128.778 I0 J1.105
G1 X-1.598
G2 Y130.986 I0 J1.104
G1 X166.698 Y130.987
G3 Y133.195 I0 J1.104
G1 X-1.598 Y133.196
G2 Y135.406 I0 J1.105
G1 X166.698 Y135.405
G3 Y137.615 I0 J1.105
G1 X-1.598 Y137.614
G2 Y139.824 I0 J1.105
G1 X166.698
G3 Y142.032 I0 J1.104
G1 X-1.598 Y142.033
G2 Y144.241 I0 J1.104
G1 X166.698 Y144.242
G3 Y146.452 I0 J1.105
G1 X-1.598 Y146.451
G2 Y148.661 I0 J1.105
G1 X166.698 Y148.66
G3 Y150.87 I0 J1.105
G1 X-1.598
G18 G3 X-1.915 Z1.857 I0 K0.317
G0 Z6.79
X-2.064 Y0.644
G1 Z0.587 F508
G2 X-1.746 Z0.269 I0.318 K0 F2286
G1 X-1.598 Z0.27
X166.698
G17 G3 Y2.854 I0 J1.105
G1 X-1.598 Y2.853
G2 Y5.063 I0 J1.105
G1 X166.698 Y5.062
G3 Y7.272 I0 J1.105
G1 X-1.598
G2 Y9.48 I0 J1.104
G1 X166.698 Y9.481
G3 Y11.689 I0 J1.104
G1 X-1.598 Y11.69
G2 Y13.9 I0 J1.105
G1 X166.698 Y13.899
G3 Y16.109 I0 J1.105
G1 X-1.598 Y16.108
G2 Y18.318 I0 J1.105
G1 X166.698
G3 Y20.526 I0 J1.104
G1 X-1.598 Y20.527
G2 Y22.735 I0 J1.104
G1 X166.698 Y22.736
G3 Y24.946 I0 J1.105
G1 X-1.598 Y24.945
G2 Y27.155 I0 J1.105
G1 X166.698 Y27.154
G3 Y29.364 I0 J1.105
G1 X-1.598
G2 Y31.572 I0 J1.104
G1 X166.698 Y31.573
G3 Y33.781 I0 J1.104
G1 X-1.598 Y33.782
G2 Y35.992 I0 J1.105
G1 X166.698 Y35.991
G3 Y38.201 I0 J1.105
G1 X-1.598 Y38.2
G2 Y40.41 I0 J1.105
G1 X166.698
G3 Y42.618 I0 J1.104
G1 X-1.598 Y42.619
G2 Y44.827 I0 J1.104
G1 X166.698 Y44.828
G3 Y47.038 I0 J1.105
G1 X-1.598 Y47.037
G2 Y49.247 I0 J1.105
G1 X166.698 Y49.246
G3 Y51.456 I0 J1.105
G1 X-1.598
G2 Y53.664 I0 J1.104
G1 X166.698 Y53.665
G3 Y55.873 I0 J1.104
G1 X-1.598 Y55.874
G2 Y58.084 I0 J1.105
G1 X166.698 Y58.083
G3 Y60.293 I0 J1.105
G1 X-1.598 Y60.292
G2 Y62.502 I0 J1.105
G1 X166.698
G3 Y64.71 I0 J1.104
G1 X-1.598 Y64.711
G2 Y66.919 I0 J1.104
G1 X166.698 Y66.92
G3 Y69.13 I0 J1.105
G1 X-1.598 Y69.129
G2 Y71.339 I0 J1.105
G1 X166.698 Y71.338
G3 Y73.548 I0 J1.105
G1 X-1.598
G2 Y75.756 I0 J1.104
G1 X166.698 Y75.757
G3 Y77.965 I0 J1.104
G1 X-1.598 Y77.966
G2 Y80.176 I0 J1.105
G1 X166.698 Y80.175
G3 Y82.385 I0 J1.105
G1 X-1.598 Y82.384
G2 Y84.594 I0 J1.105
G1 X166.698
G3 Y86.802 I0 J1.104
G1 X-1.598 Y86.803
G2 Y89.011 I0 J1.104
G1 X166.698 Y89.012
G3 Y91.222 I0 J1.105
G1 X-1.598 Y91.221
G2 Y93.431 I0 J1.105
G1 X166.698 Y93.43
G3 Y95.64 I0 J1.105
G1 X-1.598
G2 Y97.848 I0 J1.104
G1 X166.698 Y97.849
G3 Y100.057 I0 J1.104
G1 X-1.598 Y100.058
G2 Y102.268 I0 J1.105
G1 X166.698 Y102.267
G3 Y104.477 I0 J1.105
G1 X-1.598 Y104.476
G2 Y106.686 I0 J1.105
G1 X166.698
G3 Y108.894 I0 J1.104
G1 X-1.598 Y108.895
G2 Y111.103 I0 J1.104
G1 X166.698 Y111.104
G3 Y113.314 I0 J1.105
G1 X-1.598 Y113.313
G2 Y115.523 I0 J1.105
G1 X166.698 Y115.522
G3 Y117.732 I0 J1.105
G1 X-1.598
G2 Y119.94 I0 J1.104
G1 X166.698 Y119.941
G3 Y122.149 I0 J1.104
G1 X-1.598 Y122.15
G2 Y124.36 I0 J1.105
G1 X166.698 Y124.359
G3 Y126.569 I0 J1.105
G1 X-1.598 Y126.568
G2 Y128.778 I0 J1.105
G1 X166.698
G3 Y130.986 I0 J1.104
G1 X-1.598 Y130.987
G2 Y133.195 I0 J1.104
G1 X166.698 Y133.196
G3 Y135.406 I0 J1.105
G1 X-1.598 Y135.405
G2 Y137.615 I0 J1.105
G1 X166.698 Y137.614
G3 Y139.824 I0 J1.105
G1 X-1.598
G2 Y142.032 I0 J1.104
G1 X166.698 Y142.033
G3 Y144.241 I0 J1.104
G1 X-1.598 Y144.242
G2 Y146.452 I0 J1.105
G1 X166.698 Y146.451
G3 Y148.661 I0 J1.105
G1 X-1.598 Y148.66
G2 Y150.87 I0 J1.105
G1 X166.698
G18 G2 X167.015 Z0.587 I0 K0.317
G0 Z6.79
X167.164 Y0.644
G1 Z-0.683 F508
G3 X166.846 Z-1.001 I-0.318 K0 F2286
G1 X166.698 Z-1
X-1.598
G17 G2 Y2.854 I0 J1.105
G1 X166.698 Y2.853
G3 Y5.063 I0 J1.105
G1 X-1.598 Y5.062
G2 Y7.272 I0 J1.105
G1 X166.698
G3 Y9.48 I0 J1.104
G1 X-1.598 Y9.481
G2 Y11.689 I0 J1.104
G1 X166.698 Y11.69
G3 Y13.9 I0 J1.105
G1 X-1.598 Y13.899
G2 Y16.109 I0 J1.105
G1 X166.698 Y16.108
G3 Y18.318 I0 J1.105
G1 X-1.598
G2 Y20.526 I0 J1.104
G1 X166.698 Y20.527
G3 Y22.735 I0 J1.104
G1 X-1.598 Y22.736
G2 Y24.946 I0 J1.105
G1 X166.698 Y24.945
G3 Y27.155 I0 J1.105
G1 X-1.598 Y27.154
G2 Y29.364 I0 J1.105
G1 X166.698
G3 Y31.572 I0 J1.104
G1 X-1.598 Y31.573
G2 Y33.781 I0 J1.104
G1 X166.698 Y33.782
G3 Y35.992 I0 J1.105
G1 X-1.598 Y35.991
G2 Y38.201 I0 J1.105
G1 X166.698 Y38.2
G3 Y40.41 I0 J1.105
G1 X-1.598
G2 Y42.618 I0 J1.104
G1 X166.698 Y42.619
G3 Y44.827 I0 J1.104
G1 X-1.598 Y44.828
G2 Y47.038 I0 J1.105
G1 X166.698 Y47.037
G3 Y49.247 I0 J1.105
G1 X-1.598 Y49.246
G2 Y51.456 I0 J1.105
G1 X166.698
G3 Y53.664 I0 J1.104
G1 X-1.598 Y53.665
G2 Y55.873 I0 J1.104
G1 X166.698 Y55.874
G3 Y58.084 I0 J1.105
G1 X-1.598 Y58.083
G2 Y60.293 I0 J1.105
G1 X166.698 Y60.292
G3 Y62.502 I0 J1.105
G1 X-1.598
G2 Y64.71 I0 J1.104
G1 X166.698 Y64.711
G3 Y66.919 I0 J1.104
G1 X-1.598 Y66.92
G2 Y69.13 I0 J1.105
G1 X166.698 Y69.129
G3 Y71.339 I0 J1.105
G1 X-1.598 Y71.338
G2 Y73.548 I0 J1.105
G1 X166.698
G3 Y75.756 I0 J1.104
G1 X-1.598 Y75.757
G2 Y77.965 I0 J1.104
G1 X166.698 Y77.966
G3 Y80.176 I0 J1.105
G1 X-1.598 Y80.175
G2 Y82.385 I0 J1.105
G1 X166.698 Y82.384
G3 Y84.594 I0 J1.105
G1 X-1.598
G2 Y86.802 I0 J1.104
G1 X166.698 Y86.803
G3 Y89.011 I0 J1.104
G1 X-1.598 Y89.012
G2 Y91.222 I0 J1.105
G1 X166.698 Y91.221
G3 Y93.431 I0 J1.105
G1 X-1.598 Y93.43
G2 Y95.64 I0 J1.105
G1 X166.698
G3 Y97.848 I0 J1.104
G1 X-1.598 Y97.849
G2 Y100.057 I0 J1.104
G1 X166.698 Y100.058
G3 Y102.268 I0 J1.105
G1 X-1.598 Y102.267
G2 Y104.477 I0 J1.105
G1 X166.698 Y104.476
G3 Y106.686 I0 J1.105
G1 X-1.598
G2 Y108.894 I0 J1.104
G1 X166.698 Y108.895
G3 Y111.103 I0 J1.104
G1 X-1.598 Y111.104
G2 Y113.314 I0 J1.105
G1 X166.698 Y113.313
G3 Y115.523 I0 J1.105
G1 X-1.598 Y115.522
G2 Y117.732 I0 J1.105
G1 X166.698
G3 Y119.94 I0 J1.104
G1 X-1.598 Y119.941
G2 Y122.149 I0 J1.104
G1 X166.698 Y122.15
G3 Y124.36 I0 J1.105
G1 X-1.598 Y124.359
G2 Y126.569 I0 J1.105
G1 X166.698 Y126.568
G3 Y128.778 I0 J1.105
G1 X-1.598
G2 Y130.986 I0 J1.104
G1 X166.698 Y130.987
G3 Y133.195 I0 J1.104
G1 X-1.598 Y133.196
G2 Y135.406 I0 J1.105
G1 X166.698 Y135.405
G3 Y137.615 I0 J1.105
G1 X-1.598 Y137.614
G2 Y139.824 I0 J1.105
G1 X166.698
G3 Y142.032 I0 J1.104
G1 X-1.598 Y142.033
G2 Y144.241 I0 J1.104
G1 X166.698 Y144.242
G3 Y146.452 I0 J1.105
G1 X-1.598 Y146.451
G2 Y148.661 I0 J1.105
G1 X166.698 Y148.66
G3 Y150.87 I0 J1.105
G1 X-1.598
G18 G3 X-1.915 Z-0.683 I0 K0.317
G0 Z16.95
G17

(Adaptive1)
G0 X50.733 Y83.281
Z15.24
Z5.08
Z2.54
G3 X52.507 Y85.184 Z2.433 I0.246 J1.549 F508
X50.079 Y86.111 Z2.326 I-1.526 J-0.354
X50.133 Y83.515 Z2.219 I0.901 J-1.28
X52.516 Y84.541 Z2.111 I0.846 J1.315
X50.671 Y86.361 Z2.004 I-1.535 J0.289
X49.679 Y83.969 Z1.897 I0.309 J-1.53
X52.266 Y83.95 Z1.79 I1.3 J0.861
X51.312 Y86.351 Z1.683 I-1.286 J0.879
X49.448 Y84.566 Z1.576 I-0.331 J-1.52
X51.8 Y83.512 Z1.469 I1.531 J0.265
X51.892 Y86.084 Z1.362 I-0.82 J1.317
X49.477 Y85.204 Z1.254 I-0.911 J-1.253
X51.199 Y83.299 Z1.147 I1.502 J-0.373
X52.314 Y85.608 Z1.04 I-0.22 J1.53
X49.759 Y85.773 Z0.933 I-1.333 J-0.778
X50.566 Y83.346 Z0.826 I1.221 J-0.942
X52.509 Y85.005 Z0.719 I0.413 J1.484
X50.244 Y86.18 Z0.612 I-1.528 J-0.175
X50.007 Y83.642 Z0.505 I0.736 J-1.349
X52.445 Y84.376 Z0.397 I0.972 J1.188
X50.85 Y86.356 Z0.29 I-1.464 J0.453
X49.616 Y84.136 Z0.183 I0.13 J-1.525
X52.135 Y83.828 Z0.076 I1.363 J0.694
X51.473 Y86.276 Z-0.031 I-1.155 J1.001
X49.457 Y84.744 Z-0.138 I-0.492 J-1.445
X51.632 Y83.453 Z-0.245 I1.522 J0.087
X52.009 Y85.951 Z-0.352 I-0.652 J1.376
X49.556 Y85.362 Z-0.46 I-1.028 J-1.12
X51.023 Y83.313 Z-0.567 I1.423 J-0.531
X52.367 Y85.439 Z-0.674 I-0.044 J1.516
X49.895 Y85.885 Z-0.781 I-1.386 J-0.609
X50.411 Y83.43 Z-0.888 I1.085 J-1.054
X52.49 Y84.83 Z-0.995 I0.568 J1.4
X49.468 I-1.511 J0
X52.49 I1.511 J0
G1 X52.504 Y85.477 F1905
X52.533 Y85.552
X52.567 Y85.701
X52.569 Y85.853
X52.546 Y86.004
X52.501 Y86.15
X52.438 Y86.288
X52.359 Y86.419
X52.266 Y86.54
X52.162 Y86.651
X52.048 Y86.752
X51.925 Y86.842
X51.794 Y86.92
X51.658 Y86.988
X51.514 Y87.045
X51.363 Y87.091
X51.205 Y87.126
X51.041 Y87.148
X50.873 Y87.158
X50.703 Y87.154
X50.53 Y87.136
X50.357 Y87.103
X50.186 Y87.057
X50.017 Y86.996
X49.852 Y86.921
X49.692 Y86.832
X49.539 Y86.73
X49.393 Y86.616
X49.256 Y86.489
X49.13 Y86.351
X49.014 Y86.203
X48.91 Y86.045
X48.819 Y85.879
X48.741 Y85.706
X48.677 Y85.526
X48.628 Y85.342
X48.594 Y85.153
X48.574 Y84.963
X48.571 Y84.771
X48.582 Y84.579
X48.609 Y84.388
X48.651 Y84.2
X48.709 Y84.016
X48.781 Y83.837
X48.867 Y83.664
X48.966 Y83.499
X49.079 Y83.342
X49.204 Y83.194
X49.341 Y83.057
X49.488 Y82.932
X49.645 Y82.818
X49.81 Y82.717
X49.983 Y82.63
X50.163 Y82.558
X50.347 Y82.499
X50.536 Y82.456
X50.728 Y82.428
X50.921 Y82.416
X51.115 Y82.419
X51.308 Y82.437
X51.499 Y82.472
X51.687 Y82.521
X51.87 Y82.585
X52.047 Y82.664
X52.217 Y82.756
X52.38 Y82.862
X52.533 Y82.981
X52.676 Y83.112
X52.809 Y83.254
X52.929 Y83.405
X53.037 Y83.567
X53.144 Y83.757
X53.305 Y84.108
X53.436 Y84.469
X53.515 Y84.752
X53.564 Y85.008
X53.59 Y85.249
X53.596 Y85.477
X53.585 Y85.694
X53.557 Y85.902
X53.513 Y86.106
X53.453 Y86.305
X53.377 Y86.499
X53.285 Y86.687
X53.179 Y86.867
X53.057 Y87.039
X52.921 Y87.203
X52.771 Y87.356
X52.606 Y87.499
X52.428 Y87.63
X52.238 Y87.748
X52.035 Y87.852
X51.822 Y87.941
X51.599 Y88.013
X51.368 Y88.068
X51.13 Y88.104
X50.888 Y88.122
X50.642 Y88.12
X50.394 Y88.098
X50.146 Y88.056
X49.901 Y87.994
X49.659 Y87.911
X49.424 Y87.809
X49.195 Y87.687
X48.976 Y87.547
X48.768 Y87.388
X48.571 Y87.212
X48.389 Y87.02
X48.222 Y86.813
X48.072 Y86.593
X47.939 Y86.361
X47.825 Y86.117
X47.731 Y85.865
X47.657 Y85.605
X47.604 Y85.34
X47.572 Y85.07
X47.562 Y84.799
X47.574 Y84.527
X47.608 Y84.256
X47.664 Y83.989
X47.74 Y83.727
X47.838 Y83.471
X47.956 Y83.224
X48.094 Y82.988
X48.25 Y82.762
X48.424 Y82.55
X48.614 Y82.353
X48.82 Y82.171
X49.039 Y82.006
X49.272 Y81.86
X49.515 Y81.732
X49.768 Y81.625
X50.029 Y81.538
X50.296 Y81.472
X50.567 Y81.428
X50.841 Y81.406
X51.116
X51.391 Y81.428
X51.662 Y81.471
X51.929 Y81.537
X52.191 Y81.624
X52.444 Y81.731
X52.688 Y81.859
X52.921 Y82.006
X53.141 Y82.17
X53.351 Y82.356
X53.571 Y82.584
X53.785 Y82.845
X53.985 Y83.132
X54.164 Y83.44
X54.317 Y83.759
X54.441 Y84.082
X54.535 Y84.405
X54.602 Y84.724
X54.642 Y85.04
X54.656 Y85.353
X54.645 Y85.662
X54.609 Y85.966
X54.55 Y86.264
X54.468 Y86.554
X54.363 Y86.835
X54.236 Y87.107
X54.087 Y87.368
X53.918 Y87.616
X53.728 Y87.851
X53.519 Y88.072
X53.292 Y88.276
X53.046 Y88.463
X52.785 Y88.631
X52.508 Y88.779
X52.218 Y88.905
X51.917 Y89.008
X51.605 Y89.088
X51.285 Y89.142
X50.959 Y89.171
X50.63 Y89.174
X50.299 Y89.151
X49.969 Y89.1
X49.642 Y89.023
X49.32 Y88.918
X49.005 Y88.788
X48.701 Y88.632
X48.408 Y88.451
X48.13 Y88.246
X47.867 Y88.019
X47.623 Y87.77
X47.398 Y87.501
X47.196 Y87.214
X47.016 Y86.91
X46.86 Y86.593
X46.731 Y86.262
X46.628 Y85.922
X46.552 Y85.574
X46.505 Y85.22
X46.486 Y84.863
X46.496 Y84.505
X46.534 Y84.149
X46.601 Y83.796
X46.697 Y83.45
X46.82 Y83.112
X46.97 Y82.784
X47.145 Y82.47
X47.346 Y82.17
X47.57 Y81.888
X47.816 Y81.624
X48.082 Y81.381
X48.368 Y81.159
X48.67 Y80.962
X48.987 Y80.789
X49.318 Y80.642
X49.659 Y80.522
X50.008 Y80.43
X50.364 Y80.366
X50.724 Y80.331
X51.086 Y80.325
X51.447 Y80.347
X51.805 Y80.399
X52.158 Y80.48
X52.503 Y80.588
X52.838 Y80.724
X53.163 Y80.887
X53.481 Y81.081
X53.794 Y81.306
X54.097 Y81.565
X54.386 Y81.854
X54.656 Y82.173
X54.902 Y82.515
X55.121 Y82.877
X55.308 Y83.253
X55.464 Y83.641
X55.588 Y84.036
X55.678 Y84.436
X55.735 Y84.839
X55.76 Y85.241
X55.752 Y85.641
X55.713 Y86.036
X55.642 Y86.425
X55.541 Y86.805
X55.41 Y87.174
X55.25 Y87.532
X55.061 Y87.876
X54.846 Y88.203
X54.604 Y88.514
X54.337 Y88.804
X54.047 Y89.074
X53.734 Y89.321
X53.401 Y89.543
X53.049 Y89.738
X52.68 Y89.906
X52.296 Y90.044
X51.9 Y90.152
X51.495 Y90.229
X51.082 Y90.272
X50.664 Y90.283
X50.245 Y90.259
X49.827 Y90.202
X49.412 Y90.111
X49.004 Y89.987
X48.605 Y89.829
X48.218 Y89.639
X47.847 Y89.417
X47.492 Y89.166
X47.158 Y88.886
X46.847 Y88.578
X46.56 Y88.246
X46.3 Y87.89
X46.068 Y87.514
X45.867 Y87.12
X45.698 Y86.709
X45.562 Y86.286
X45.461 Y85.852
X45.394 Y85.41
X45.363 Y84.964
X45.368 Y84.517
X45.409 Y84.07
X45.486 Y83.628
X45.598 Y83.193
X45.744 Y82.768
X45.925 Y82.355
X46.138 Y81.959
X46.383 Y81.58
X46.657 Y81.222
X46.959 Y80.887
X47.287 Y80.578
X47.639 Y80.295
X48.013 Y80.042
X48.406 Y79.819
X48.816 Y79.629
X49.24 Y79.472
X49.675 Y79.349
X50.119 Y79.262
X50.568 Y79.211
X51.02 Y79.196
X51.472 Y79.217
X51.92 Y79.275
X52.363 Y79.368
X52.799 Y79.497
X53.226 Y79.662
X53.644 Y79.863
X54.05 Y80.101
X54.442 Y80.375
X54.819 Y80.685
X55.175 Y81.031
X55.506 Y81.408
X55.808 Y81.813
X56.077 Y82.243
X56.31 Y82.692
X56.507 Y83.157
X56.664 Y83.635
X56.782 Y84.121
X56.861 Y84.613
X56.899 Y85.106
X56.898 Y85.599
X56.857 Y86.087
X56.777 Y86.569
X56.66 Y87.041
X56.505 Y87.501
X56.315 Y87.947
X56.089 Y88.376
X55.829 Y88.786
X55.536 Y89.174
X55.213 Y89.538
X54.86 Y89.877
X54.48 Y90.187
X54.075 Y90.467
X53.646 Y90.714
X53.197 Y90.927
X52.73 Y91.104
X52.249 Y91.244
X51.755 Y91.345
X51.252 Y91.407
X50.743 Y91.428
X50.232 Y91.408
X49.722 Y91.347
X49.216 Y91.245
X48.718 Y91.102
X48.231 Y90.918
X47.759 Y90.696
X47.304 Y90.435
X46.87 Y90.137
X46.46 Y89.805
X46.077 Y89.439
X45.724 Y89.043
X45.402 Y88.619
X45.115 Y88.169
X44.865 Y87.696
X44.653 Y87.204
X44.48 Y86.696
X44.349 Y86.174
X44.26 Y85.643
X44.214 Y85.106
X44.211 Y84.566
X44.251 Y84.026
X44.335 Y83.492
X44.461 Y82.965
X44.63 Y82.45
X44.839 Y81.949
X45.088 Y81.467
X45.375 Y81.006
X45.699 Y80.569
X46.056 Y80.159
X46.446 Y79.779
X46.865 Y79.432
X47.31 Y79.119
X47.779 Y78.843
X48.269 Y78.605
X48.777 Y78.408
X49.299 Y78.252
X49.832 Y78.138
X50.372 Y78.067
X50.916 Y78.04
X51.461 Y78.057
X52.004 Y78.117
X52.541 Y78.221
X53.071 Y78.369
X53.592 Y78.56
X54.1 Y78.795
X54.594 Y79.073
X55.07 Y79.393
X55.524 Y79.755
X55.951 Y80.157
X56.348 Y80.594
X56.711 Y81.065
X57.035 Y81.564
X57.319 Y82.088
X57.559 Y82.633
X57.754 Y83.194
X57.904 Y83.768
X58.006 Y84.35
X58.061 Y84.935
X58.069 Y85.522
X58.03 Y86.105
X57.945 Y86.682
X57.814 Y87.248
X57.638 Y87.801
X57.419 Y88.338
X57.157 Y88.856
X56.854 Y89.351
X56.512 Y89.821
X56.133 Y90.262
X55.719 Y90.673
X55.272 Y91.05
X54.794 Y91.391
X54.29 Y91.694
X53.76 Y91.956
X53.209 Y92.176
X52.64 Y92.351
X52.056 Y92.481
X51.462 Y92.564
X50.86 Y92.598
X50.255 Y92.585
X49.651 Y92.523
X49.051 Y92.412
X48.461 Y92.252
X47.883 Y92.045
X47.321 Y91.792
X46.78 Y91.493
X46.263 Y91.151
X45.774 Y90.767
X45.316 Y90.345
X44.892 Y89.885
X44.506 Y89.392
X44.16 Y88.869
X43.856 Y88.318
X43.597 Y87.744
X43.385 Y87.149
X43.221 Y86.539
X43.106 Y85.917
X43.041 Y85.286
X43.027 Y84.652
X43.064 Y84.018
X43.152 Y83.388
X43.29 Y82.767
X43.478 Y82.159
X43.714 Y81.567
X43.998 Y80.995
X44.326 Y80.448
X44.697 Y79.929
X45.109 Y79.441
X45.559 Y78.988
X46.044 Y78.572
X46.561 Y78.196
X47.107 Y77.863
X47.677 Y77.575
X48.27 Y77.333
X48.879 Y77.139
X49.503 Y76.996
X50.136 Y76.902
X50.774 Y76.86
X51.415 Y76.869
X52.055 Y76.929
X52.69 Y77.042
X53.316 Y77.205
X53.927 Y77.418
X54.519 Y77.679
X55.089 Y77.986
X55.633 Y78.336
X56.149 Y78.728
X56.632 Y79.158
X57.081 Y79.624
X57.493 Y80.123
X57.866 Y80.652
X58.198 Y81.208
X58.488 Y81.786
X58.733 Y82.385
X58.933 Y83.001
X59.086 Y83.63
X59.191 Y84.269
X59.247 Y84.913
X59.254 Y85.56
X59.212 Y86.206
X59.121 Y86.847
X58.981 Y87.479
X58.793 Y88.098
X58.558 Y88.701
X58.277 Y89.284
X57.952 Y89.844
X57.585 Y90.377
X57.177 Y90.88
X56.732 Y91.35
X56.252 Y91.784
X55.741 Y92.181
X55.201 Y92.537
X54.635 Y92.852
X54.047 Y93.123
X53.441 Y93.349
X52.819 Y93.529
X52.186 Y93.662
X51.544 Y93.748
X50.898 Y93.785
X50.251 Y93.776
X49.606 Y93.718
X48.968 Y93.612
X48.339 Y93.459
X47.723 Y93.259
X47.124 Y93.015
X46.544 Y92.728
X45.987 Y92.399
X45.454 Y92.031
X44.949 Y91.626
X44.475 Y91.186
X44.033 Y90.713
X43.626 Y90.209
X43.258 Y89.677
X42.93 Y89.119
X42.643 Y88.539
X42.398 Y87.94
X42.196 Y87.325
X42.037 Y86.698
X41.924 Y86.061
X41.855 Y85.417
X41.832 Y84.77
X41.857 Y84.123
X41.929 Y83.48
X42.046 Y82.844
X42.208 Y82.217
X42.414 Y81.603
X42.662 Y81.006
X42.951 Y80.426
X43.28 Y79.869
X43.648 Y79.337
X44.054 Y78.833
X44.495 Y78.359
X44.968 Y77.918
X45.471 Y77.51
X46.002 Y77.139
X46.557 Y76.806
X47.133 Y76.512
X47.729 Y76.26
X48.342 Y76.052
X48.968 Y75.888
X49.604 Y75.77
X50.247 Y75.696
X50.894 Y75.667
X51.541 Y75.683
X52.185 Y75.744
X52.824 Y75.849
X53.453 Y76.001
X54.07 Y76.197
X54.672 Y76.436
X55.256 Y76.715
X55.819 Y77.033
X56.36 Y77.388
X56.876 Y77.779
X57.365 Y78.204
X57.822 Y78.661
X58.248 Y79.149
X58.64 Y79.664
X58.997 Y80.204
X59.318 Y80.766
X59.602 Y81.348
X59.847 Y81.946
X60.053 Y82.56
X60.216 Y83.186
X60.337 Y83.822
X60.415 Y84.465
X60.45 Y85.111
X60.443 Y85.758
X60.393 Y86.403
X60.3 Y87.044
X60.166 Y87.677
X59.988 Y88.299
X59.768 Y88.908
X59.507 Y89.5
X59.206 Y90.073
X58.868 Y90.625
X58.494 Y91.154
X58.086 Y91.656
X57.645 Y92.13
X57.173 Y92.572
X56.671 Y92.981
X56.143 Y93.356
X55.592 Y93.694
X55.019 Y93.995
X54.428 Y94.259
X53.821 Y94.484
X53.2 Y94.668
X52.569 Y94.811
X51.93 Y94.911
X51.285 Y94.969
X50.638 Y94.984
X49.991 Y94.958
X49.348 Y94.89
X48.71 Y94.781
X48.08 Y94.631
X47.462 Y94.44
X46.858 Y94.207
X46.27 Y93.936
X45.701 Y93.628
X45.152 Y93.285
X44.627 Y92.907
X44.125 Y92.498
X43.65 Y92.058
X43.204 Y91.589
X42.79 Y91.092
X42.409 Y90.569
X42.063 Y90.022
X41.753 Y89.454
X41.478 Y88.868
X41.241 Y88.266
X41.041 Y87.65
X40.879 Y87.023
X40.757 Y86.388
X40.676 Y85.746
X40.637 Y85.1
X40.639 Y84.452
X40.682 Y83.807
X40.765 Y83.165
X40.888 Y82.529
X41.05 Y81.903
X41.249 Y81.287
X41.488 Y80.685
X41.764 Y80.1
X42.077 Y79.533
X42.425 Y78.987
X42.806 Y78.465
X43.219 Y77.966
X43.663 Y77.495
X44.134 Y77.051
X44.632 Y76.638
X45.156 Y76.258
X45.702 Y75.911
X46.269 Y75.598
X46.854 Y75.322
X47.456 Y75.083
X48.071 Y74.882
X48.697 Y74.72
X49.333 Y74.596
X49.975 Y74.513
X50.62 Y74.47
X51.268 Y74.468
X51.914 Y74.507
X52.556 Y74.584
X53.193 Y74.702
X53.821 Y74.859
X54.438 Y75.054
X55.042 Y75.286
X55.631 Y75.555
X56.201 Y75.86
X56.752 Y76.2
X57.282 Y76.571
X57.789 Y76.974
X58.27 Y77.407
X58.725 Y77.867
X59.152 Y78.354
X59.549 Y78.865
X59.915 Y79.399
X60.248 Y79.953
X60.548 Y80.527
X60.814 Y81.117
X61.046 Y81.721
X61.241 Y82.338
X61.399 Y82.966
X61.521 Y83.602
X61.605 Y84.243
X61.65 Y84.889
X61.656 Y85.536
X61.624 Y86.183
X61.553 Y86.826
X61.445 Y87.464
X61.3 Y88.095
X61.116 Y88.716
X60.897 Y89.324
X60.641 Y89.919
X60.35 Y90.497
X60.023 Y91.056
X59.664 Y91.594
X59.274 Y92.11
X58.854 Y92.603
X58.405 Y93.069
X57.929 Y93.508
X57.428 Y93.917
X56.903 Y94.297
X56.357 Y94.644
X55.791 Y94.957
X55.207 Y95.237
X54.608 Y95.482
X53.996 Y95.692
X53.373 Y95.866
X52.74 Y96.003
X52.101 Y96.103
X51.457 Y96.166
X50.81 Y96.191
X50.163 Y96.178
X49.518 Y96.126
X48.876 Y96.038
X48.241 Y95.912
X47.615 Y95.75
X46.999 Y95.552
X46.395 Y95.319
X45.805 Y95.052
X45.232 Y94.752
X44.678 Y94.418
X44.143 Y94.053
X43.63 Y93.659
X43.14 Y93.236
X42.674 Y92.787
X42.235 Y92.311
X41.823 Y91.811
X41.441 Y91.289
X41.089 Y90.746
X40.77 Y90.183
X40.483 Y89.603
X40.229 Y89.008
X40.009 Y88.399
X39.823 Y87.779
X39.672 Y87.15
X39.556 Y86.513
X39.477 Y85.871
X39.433 Y85.225
X39.427 Y84.578
X39.458 Y83.931
X39.526 Y83.288
X39.63 Y82.649
X39.769 Y82.017
X39.942 Y81.393
X40.15 Y80.78
X40.392 Y80.18
X40.667 Y79.594
X40.974 Y79.024
X41.314 Y78.473
X41.685 Y77.943
X42.085 Y77.434
X42.513 Y76.948
X42.966 Y76.487
X43.445 Y76.051
X43.947 Y75.643
X44.472 Y75.263
X45.016 Y74.913
X45.579 Y74.594
X46.16 Y74.308
X46.756 Y74.056
X47.365 Y73.837
X47.985 Y73.652
X48.615 Y73.502
X49.252 Y73.388
X49.894 Y73.309
X50.54 Y73.265
X51.187 Y73.257
X51.833 Y73.286
X52.477 Y73.352
X53.116 Y73.454
X53.749 Y73.591
X54.373 Y73.762
X54.987 Y73.968
X55.588 Y74.206
X56.176 Y74.478
X56.748 Y74.781
X57.303 Y75.114
X57.838 Y75.477
X58.353 Y75.87
X58.845 Y76.29
X59.314 Y76.736
X59.759 Y77.206
X60.178 Y77.699
X60.571 Y78.214
X60.935 Y78.749
X61.271 Y79.302
X61.577 Y79.872
X61.852 Y80.458
X62.095 Y81.058
X62.305 Y81.67
X62.483 Y82.293
X62.627 Y82.924
X62.738 Y83.561
X62.816 Y84.204
X62.859 Y84.85
X62.867 Y85.497
X62.842 Y86.144
X62.781 Y86.788
X62.685 Y87.428
X62.555 Y88.062
X62.391 Y88.688
X62.194 Y89.305
X61.964 Y89.91
X61.702 Y90.502
X61.409 Y91.079
X61.085 Y91.639
X60.732 Y92.181
X60.35 Y92.703
X59.939 Y93.204
X59.502 Y93.681
X59.04 Y94.135
X58.555 Y94.563
X58.048 Y94.965
X57.52 Y95.339
X56.972 Y95.685
X56.408 Y96.001
X55.827 Y96.287
X55.232 Y96.541
X54.624 Y96.763
X54.005 Y96.952
X53.377 Y97.109
X52.742 Y97.232
X52.101 Y97.322
X51.456 Y97.379
X50.809 Y97.401
X50.162 Y97.39
X49.516 Y97.345
X48.874 Y97.266
X48.237 Y97.152
X47.607 Y97.005
X46.985 Y96.825
X46.373 Y96.614
X45.773 Y96.371
X45.187 Y96.097
X44.615 Y95.794
X44.06 Y95.461
X43.522 Y95.101
X43.004 Y94.713
X42.507 Y94.299
X42.032 Y93.859
X41.58 Y93.396
X41.152 Y92.91
X40.751 Y92.403
X40.375 Y91.875
X40.027 Y91.33
X39.708 Y90.767
X39.417 Y90.188
X39.157 Y89.596
X38.927 Y88.991
X38.729 Y88.375
X38.563 Y87.749
X38.428 Y87.116
X38.326 Y86.477
X38.257 Y85.833
X38.22 Y85.187
X38.216 Y84.54
X38.245 Y83.893
X38.307 Y83.249
X38.402 Y82.609
X38.53 Y81.975
X38.69 Y81.347
X38.881 Y80.729
X39.104 Y80.121
X39.356 Y79.525
X39.638 Y78.943
X39.95 Y78.376
X40.29 Y77.825
X40.657 Y77.292
X41.051 Y76.779
X41.471 Y76.286
X41.916 Y75.816
X42.384 Y75.369
X42.874 Y74.946
X43.385 Y74.548
X43.914 Y74.177
X44.462 Y73.832
X45.027 Y73.515
X45.607 Y73.228
X46.2 Y72.97
X46.806 Y72.743
X47.423 Y72.548
X48.05 Y72.384
X48.683 Y72.252
X49.323 Y72.153
X49.966 Y72.085
X50.613 Y72.049
X51.26 Y72.046
X51.906 Y72.076
X52.551 Y72.138
X53.191 Y72.233
X53.826 Y72.36
X54.453 Y72.519
X55.071 Y72.71
X55.679 Y72.932
X56.276 Y73.183
X56.859 Y73.463
X57.428 Y73.771
X57.982 Y74.107
X58.517 Y74.47
X59.035 Y74.859
X59.532 Y75.273
X60.008 Y75.712
X60.462 Y76.173
X60.893 Y76.656
X61.3 Y77.159
X61.682 Y77.682
X62.039 Y78.221
X62.37 Y78.778
X62.674 Y79.349
X62.949 Y79.935
X63.196 Y80.533
X63.414 Y81.143
X63.601 Y81.762
X63.758 Y82.39
X63.884 Y83.025
X63.979 Y83.665
X64.044 Y84.309
X64.078 Y84.956
X64.08 Y85.603
X64.052 Y86.249
X63.992 Y86.894
X63.901 Y87.535
X63.778 Y88.17
X63.624 Y88.799
X63.439 Y89.419
X63.224 Y90.029
X62.979 Y90.629
X62.706 Y91.215
X62.405 Y91.788
X62.076 Y92.346
X61.721 Y92.887
X61.339 Y93.409
X60.933 Y93.913
X60.502 Y94.396
X60.047 Y94.857
X59.571 Y95.295
X59.074 Y95.709
X58.557 Y96.099
X58.022 Y96.463
X57.47 Y96.801
X56.903 Y97.113
X56.321 Y97.397
X55.727 Y97.653
X55.12 Y97.879
X54.504 Y98.076
X53.878 Y98.243
X53.246 Y98.379
X52.607 Y98.484
X51.964 Y98.559
X51.319 Y98.604
X50.671 Y98.617
X50.024 Y98.6
X49.379 Y98.553
X48.737 Y98.474
X48.099 Y98.366
X47.467 Y98.226
X46.842 Y98.056
X46.227 Y97.856
X45.621 Y97.627
X45.027 Y97.37
X44.446 Y97.085
X43.879 Y96.774
X43.326 Y96.436
X42.791 Y96.073
X42.272 Y95.686
X41.773 Y95.274
X41.293 Y94.84
X40.835 Y94.383
X40.399 Y93.904
X39.986 Y93.406
X39.597 Y92.889
X39.232 Y92.354
X38.893 Y91.803
X38.58 Y91.236
X38.293 Y90.656
X38.033 Y90.063
X37.801 Y89.459
X37.598 Y88.845
X37.423 Y88.221
X37.279 Y87.59
X37.164 Y86.954
X37.079 Y86.312
X37.024 Y85.667
X36.998 Y85.02
X37.003 Y84.373
X37.037 Y83.727
X37.101 Y83.083
X37.195 Y82.442
X37.319 Y81.807
X37.472 Y81.178
X37.654 Y80.557
X37.865 Y79.945
X38.105 Y79.344
X38.372 Y78.755
X38.666 Y78.178
X38.986 Y77.615
X39.331 Y77.068
X39.702 Y76.537
X40.096 Y76.024
X40.514 Y75.53
X40.954 Y75.056
X41.416 Y74.602
X41.899 Y74.172
X42.402 Y73.764
X42.922 Y73.379
X43.46 Y73.019
X44.014 Y72.684
X44.582 Y72.374
X45.164 Y72.091
X45.759 Y71.836
X46.365 Y71.608
X46.98 Y71.408
X47.604 Y71.237
X48.236 Y71.096
X48.874 Y70.984
X49.516 Y70.902
X50.161 Y70.85
X50.808 Y70.827
X51.455 Y70.834
X52.101 Y70.87
X52.745 Y70.935
X53.385 Y71.031
X54.02 Y71.155
X54.649 Y71.309
X55.27 Y71.491
X55.882 Y71.703
X56.483 Y71.942
X57.073 Y72.208
X57.65 Y72.501
X58.214 Y72.819
X58.763 Y73.162
X59.296 Y73.529
X59.811 Y73.92
X60.309 Y74.334
X60.788 Y74.769
X61.247 Y75.226
X61.684 Y75.703
X62.099 Y76.199
X62.492 Y76.714
X62.862 Y77.245
X63.208 Y77.792
X63.529 Y78.354
X63.826 Y78.929
X64.097 Y79.517
X64.342 Y80.116
X64.56 Y80.725
X64.751 Y81.344
X64.914 Y81.97
X65.049 Y82.603
X65.155 Y83.241
X65.233 Y83.884
X65.282 Y84.529
X65.302 Y85.176
X65.294 Y85.823
X65.258 Y86.47
X65.193 Y87.113
X65.1 Y87.754
X64.978 Y88.39
X64.828 Y89.019
X64.649 Y89.641
X64.443 Y90.255
X64.209 Y90.858
X63.948 Y91.45
X63.66 Y92.03
X63.348 Y92.597
X63.01 Y93.149
X62.649 Y93.686
X62.264 Y94.206
X61.856 Y94.709
X61.426 Y95.193
X60.975 Y95.657
X60.503 Y96.1
X60.012 Y96.521
X59.502 Y96.92
X58.975 Y97.296
X58.432 Y97.648
X57.874 Y97.976
X57.302 Y98.279
X56.717 Y98.556
X56.121 Y98.808
X55.514 Y99.033
X54.898 Y99.232
X54.274 Y99.403
X53.643 Y99.546
X53.006 Y99.66
X52.364 Y99.746
X51.72 Y99.804
X51.073 Y99.834
X50.426 Y99.835
X49.779 Y99.809
X49.134 Y99.754
X48.493 Y99.671
X47.855 Y99.561
X47.223 Y99.423
X46.597 Y99.257
X45.979 Y99.063
X45.371 Y98.843
X44.773 Y98.596
X44.186 Y98.323
X43.611 Y98.025
X43.05 Y97.703
X42.503 Y97.357
X41.971 Y96.988
X41.456 Y96.596
X40.957 Y96.183
X40.478 Y95.749
X40.017 Y95.294
X39.576 Y94.82
X39.157 Y94.327
X38.76 Y93.816
X38.385 Y93.288
X38.034 Y92.745
X37.706 Y92.187
X37.401 Y91.616
X37.122 Y91.032
X36.867 Y90.437
X36.638 Y89.832
X36.435 Y89.217
X36.258 Y88.595
X36.108 Y87.965
X35.986 Y87.329
X35.891 Y86.689
X35.825 Y86.045
X35.786 Y85.399
X35.774 Y84.752
X35.79 Y84.105
X35.834 Y83.459
X35.904 Y82.816
X36.002 Y82.176
X36.127 Y81.541
X36.278 Y80.912
X36.457 Y80.29
X36.662 Y79.676
X36.893 Y79.071
X37.15 Y78.478
X37.433 Y77.895
X37.74 Y77.325
X38.071 Y76.769
X38.425 Y76.227
X38.801 Y75.701
X39.2 Y75.191
X39.619 Y74.698
X40.06 Y74.224
X40.52 Y73.769
X40.999 Y73.333
X41.496 Y72.919
X42.011 Y72.527
X42.542 Y72.157
X43.088 Y71.81
X43.649 Y71.487
X44.223 Y71.187
X44.808 Y70.912
X45.405 Y70.662
X46.012 Y70.437
X46.628 Y70.238
X47.252 Y70.066
X47.883 Y69.92
X48.519 Y69.802
X49.16 Y69.711
X49.804 Y69.648
X50.45 Y69.612
X51.097 Y69.603
X51.744 Y69.622
X52.39 Y69.668
X53.033 Y69.741
X53.672 Y69.841
X54.307 Y69.967
X54.936 Y70.121
X55.558 Y70.3
X56.171 Y70.506
X56.776 Y70.738
X57.37 Y70.995
X57.952 Y71.277
X58.522 Y71.584
X59.079 Y71.913
X59.622 Y72.265
X60.15 Y72.64
X60.662 Y73.035
X61.158 Y73.452
X61.636 Y73.888
X62.095 Y74.344
X62.535 Y74.819
X62.956 Y75.311
X63.355 Y75.82
X63.733 Y76.346
X64.089 Y76.886
X64.422 Y77.441
X64.733 Y78.009
X65.02 Y78.589
X65.284 Y79.18
X65.523 Y79.781
X65.738 Y80.392
X65.928 Y81.01
X66.093 Y81.636
X66.231 Y82.269
X66.344 Y82.906
X66.429 Y83.547
X66.488 Y84.192
X66.521 Y84.838
X66.527 Y85.486
X66.506 Y86.133
X66.46 Y86.778
X66.387 Y87.421
X66.288 Y88.061
X66.163 Y88.696
X66.012 Y89.325
X65.835 Y89.948
X65.632 Y90.562
X65.405 Y91.168
X65.151 Y91.764
X64.874 Y92.348
X64.572 Y92.921
X64.247 Y93.481
X63.899 Y94.026
X63.529 Y94.558
X63.138 Y95.073
X62.726 Y95.573
X62.294 Y96.055
X61.843 Y96.518
X61.373 Y96.963
X60.884 Y97.388
X60.379 Y97.793
X59.857 Y98.175
X59.32 Y98.536
X58.768 Y98.875
X58.203 Y99.191
X57.626 Y99.483
X57.038 Y99.752
X56.439 Y99.998
X55.83 Y100.218
X55.213 Y100.414
X54.589 Y100.585
X53.958 Y100.73
X53.322 Y100.85
X52.682 Y100.943
X52.038 Y101.009
X51.392 Y101.05
X50.745 Y101.063
X50.098 Y101.051
X49.452 Y101.013
X48.808 Y100.949
X48.167 Y100.859
X47.53 Y100.744
X46.898 Y100.603
X46.273 Y100.437
X45.654 Y100.246
X45.044 Y100.029
X44.443 Y99.789
X43.853 Y99.524
X43.274 Y99.235
X42.707 Y98.923
X42.152 Y98.589
X41.612 Y98.233
X41.085 Y97.857
X40.574 Y97.459
X40.08 Y97.042
X39.602 Y96.606
X39.142 Y96.15
X38.7 Y95.677
X38.278 Y95.187
X37.875 Y94.68
X37.494 Y94.157
X37.134 Y93.619
X36.796 Y93.067
X36.48 Y92.502
X36.187 Y91.925
X35.916 Y91.337
X35.669 Y90.739
X35.445 Y90.132
X35.246 Y89.516
X35.07 Y88.893
X34.92 Y88.264
X34.794 Y87.629
X34.694 Y86.989
X34.62 Y86.346
X34.572 Y85.701
X34.55 Y85.054
X34.553 Y84.407
X34.582 Y83.76
X34.636 Y83.115
X34.715 Y82.473
X34.819 Y81.834
X34.948 Y81.2
X35.102 Y80.571
X35.28 Y79.949
X35.483 Y79.334
X35.71 Y78.728
X35.961 Y78.132
X36.235 Y77.546
X36.533 Y76.971
X36.854 Y76.409
X37.196 Y75.86
X37.56 Y75.324
X37.944 Y74.803
X38.348 Y74.298
X38.772 Y73.808
X39.214 Y73.336
X39.675 Y72.881
X40.153 Y72.445
X40.648 Y72.028
X41.159 Y71.631
X41.686 Y71.255
X42.227 Y70.9
X42.782 Y70.567
X43.349 Y70.256
X43.929 Y69.967
X44.519 Y69.701
X45.119 Y69.459
X45.728 Y69.24
X46.345 Y69.045
X46.969 Y68.874
X47.6 Y68.728
X48.236 Y68.607
X48.876 Y68.511
X49.519 Y68.44
X50.165 Y68.396
X50.812 Y68.377
X51.459 Y68.383
X52.105 Y68.415
X52.75 Y68.472
X53.392 Y68.554
X54.03 Y68.661
X54.664 Y68.792
X55.292 Y68.948
X55.914 Y69.128
X56.528 Y69.332
X57.134 Y69.56
X57.73 Y69.812
X58.316 Y70.087
X58.891 Y70.385
X59.453 Y70.705
X60.003 Y71.046
X60.54 Y71.408
X61.062 Y71.791
X61.569 Y72.192
X62.061 Y72.613
X62.536 Y73.053
X62.994 Y73.51
X63.435 Y73.984
X63.856 Y74.475
X64.259 Y74.981
X64.642 Y75.503
X65.005 Y76.039
X65.347 Y76.589
X65.667 Y77.151
X65.966 Y77.725
X66.243 Y78.31
X66.498 Y78.905
X66.731 Y79.509
X66.94 Y80.121
X67.127 Y80.741
X67.289 Y81.368
X67.428 Y82
X67.543 Y82.637
X67.634 Y83.278
X67.699 Y83.922
X67.74 Y84.567
X67.756 Y85.214
X67.747 Y85.862
X67.713 Y86.508
X67.655 Y87.153
X67.573 Y87.795
X67.467 Y88.433
X67.337 Y89.067
X67.182 Y89.696
X67.004 Y90.318
X66.802 Y90.933
X66.577 Y91.539
X66.329 Y92.137
X66.057 Y92.725
X65.763 Y93.301
X65.447 Y93.866
X65.109 Y94.418
X64.751 Y94.957
X64.372 Y95.482
X63.974 Y95.992
X63.556 Y96.487
X63.121 Y96.965
X62.667 Y97.427
X62.197 Y97.871
X61.709 Y98.297
X61.206 Y98.704
X60.687 Y99.092
X60.154 Y99.459
X59.607 Y99.805
X59.048 Y100.13
X58.476 Y100.433
X57.893 Y100.715
X57.3 Y100.974
X56.698 Y101.211
X56.088 Y101.426
X55.469 Y101.618
X54.844 Y101.786
X54.213 Y101.93
X53.578 Y102.051
X52.938 Y102.148
X52.294 Y102.22
X51.649 Y102.267
X51.002 Y102.29
X50.355 Y102.288
X49.708 Y102.262
X49.063 Y102.212
X48.42 Y102.137
X47.78 Y102.039
X47.145 Y101.917
X46.514 Y101.772
X45.889 Y101.603
X45.271 Y101.411
X44.661 Y101.197
X44.058 Y100.959
X43.466 Y100.699
X42.883 Y100.417
X42.312 Y100.112
X41.753 Y99.787
X41.206 Y99.441
X40.672 Y99.075
X40.152 Y98.69
X39.646 Y98.286
X39.156 Y97.864
X38.681 Y97.424
X38.223 Y96.966
X37.782 Y96.492
X37.359 Y96.003
X36.955 Y95.497
X36.569 Y94.977
X36.204 Y94.443
X35.859 Y93.896
X35.534 Y93.335
X35.231 Y92.764
X34.949 Y92.181
X34.688 Y91.589
X34.449 Y90.988
X34.232 Y90.378
X34.037 Y89.761
X33.865 Y89.137
X33.716 Y88.507
X33.59 Y87.872
X33.488 Y87.233
X33.41 Y86.59
X33.355 Y85.945
X33.325 Y85.299
X33.319 Y84.652
X33.337 Y84.005
X33.379 Y83.359
X33.444 Y82.715
X33.532 Y82.074
X33.644 Y81.436
X33.779 Y80.803
X33.936 Y80.176
X34.117 Y79.554
X34.32 Y78.939
X34.545 Y78.333
X34.793 Y77.735
X35.063 Y77.146
X35.354 Y76.569
X35.667 Y76.002
X36.001 Y75.447
X36.354 Y74.905
X36.728 Y74.377
X37.12 Y73.862
X37.531 Y73.362
X37.959 Y72.877
X38.405 Y72.407
X38.867 Y71.955
X39.346 Y71.519
X39.841 Y71.101
X40.35 Y70.702
X40.874 Y70.322
X41.411 Y69.961
X41.962 Y69.621
X42.525 Y69.302
X43.099 Y69.003
X43.684 Y68.726
X44.278 Y68.47
X44.882 Y68.236
X45.493 Y68.024
X46.112 Y67.834
X46.737 Y67.666
X47.368 Y67.522
X48.004 Y67.4
X48.643 Y67.302
X49.286 Y67.228
X49.931 Y67.177
X50.578 Y67.15
X51.225 Y67.148
X51.872 Y67.169
X52.518 Y67.214
X53.161 Y67.282
X53.802 Y67.374
X54.439 Y67.488
X55.072 Y67.625
X55.699 Y67.785
X56.32 Y67.968
X56.934 Y68.173
X57.54 Y68.399
X58.138 Y68.648
X58.726 Y68.918
X59.303 Y69.21
X59.87 Y69.523
X60.425 Y69.856
X60.967 Y70.209
X61.497 Y70.581
X62.013 Y70.972
X62.515 Y71.38
X63.002 Y71.807
X63.474 Y72.25
X63.929 Y72.709
X64.369 Y73.185
X64.791 Y73.675
X65.195 Y74.181
X65.581 Y74.7
X65.948 Y75.233
X66.296 Y75.779
X66.624 Y76.337
X66.931 Y76.907
X67.218 Y77.487
X67.485 Y78.077
X67.731 Y78.675
X67.955 Y79.282
X68.159 Y79.897
X68.34 Y80.518
X68.5 Y81.145
X68.638 Y81.778
X68.753 Y82.414
X68.845 Y83.055
X68.915 Y83.698
X68.961 Y84.344
X68.984 Y84.991
Y85.638
X68.96 Y86.285
X68.914 Y86.93
X68.845 Y87.574
X68.753 Y88.215
X68.639 Y88.852
X68.502 Y89.484
X68.343 Y90.112
X68.162 Y90.733
X67.959 Y91.348
X67.735 Y91.955
X67.488 Y92.553
X67.221 Y93.143
X66.932 Y93.722
X66.623 Y94.29
X66.293 Y94.847
X65.943 Y95.392
X65.574 Y95.923
X65.187 Y96.442
X64.781 Y96.946
X64.358 Y97.436
X63.918 Y97.911
X63.462 Y98.37
X62.989 Y98.812
X62.501 Y99.237
X61.999 Y99.645
X61.482 Y100.035
X60.952 Y100.406
X60.408 Y100.757
X59.852 Y101.089
X59.285 Y101.401
X58.707 Y101.692
X58.119 Y101.962
X57.522 Y102.212
X56.917 Y102.441
X56.304 Y102.649
X55.684 Y102.835
X55.058 Y102.999
X54.427 Y103.142
X53.791 Y103.262
X53.151 Y103.36
X52.508 Y103.435
X51.863 Y103.488
X51.216 Y103.517
X50.569 Y103.523
X49.922 Y103.506
X49.276 Y103.466
X48.632 Y103.404
X47.99 Y103.319
X47.352 Y103.212
X46.718 Y103.084
X46.088 Y102.933
X45.464 Y102.76
X44.847 Y102.567
X44.237 Y102.351
X43.634 Y102.115
X43.04 Y101.858
X42.456 Y101.58
X41.881 Y101.281
X41.318 Y100.963
X40.766 Y100.624
X40.227 Y100.267
X39.7 Y99.891
X39.186 Y99.498
X38.686 Y99.087
X38.2 Y98.659
X37.729 Y98.215
X37.274 Y97.755
X36.835 Y97.279
X36.413 Y96.789
X36.008 Y96.284
X35.62 Y95.766
X35.251 Y95.234
X34.901 Y94.69
X34.57 Y94.133
X34.259 Y93.566
X33.967 Y92.988
X33.696 Y92.4
X33.445 Y91.804
X33.214 Y91.199
X33.005 Y90.587
X32.816 Y89.968
X32.648 Y89.343
X32.502 Y88.712
X32.377 Y88.077
X32.274 Y87.438
X32.194 Y86.796
X32.135 Y86.151
X32.099 Y85.505
X32.086 Y84.858
X32.096 Y84.211
X32.128 Y83.564
X32.182 Y82.92
X32.258 Y82.277
X32.356 Y81.637
X32.475 Y81.001
X32.616 Y80.369
X32.779 Y79.743
X32.962 Y79.122
X33.167 Y78.508
X33.392 Y77.901
X33.639 Y77.303
X33.905 Y76.713
X34.192 Y76.133
X34.499 Y75.563
X34.826 Y75.004
X35.172 Y74.457
X35.536 Y73.923
X35.919 Y73.401
X36.319 Y72.892
X36.736 Y72.397
X37.17 Y71.917
X37.62 Y71.451
X38.085 Y71.001
X38.565 Y70.567
X39.06 Y70.15
X39.568 Y69.75
X40.091 Y69.367
X40.626 Y69.003
X41.173 Y68.658
X41.732 Y68.332
X42.302 Y68.026
X42.883 Y67.739
X43.473 Y67.473
X44.071 Y67.226
X44.678 Y67
X45.291 Y66.795
X45.912 Y66.611
X46.538 Y66.448
X47.17 Y66.306
X47.806 Y66.185
X48.445 Y66.087
X49.088 Y66.01
X49.733 Y65.956
X50.379 Y65.923
X51.026 Y65.914
X51.673 Y65.927
X52.32 Y65.962
X52.964 Y66.02
X53.607 Y66.099
X54.246 Y66.199
X54.882 Y66.322
X55.513 Y66.465
X56.139 Y66.63
X56.759 Y66.815
X57.372 Y67.022
X57.978 Y67.249
X58.576 Y67.496
X59.166 Y67.763
X59.746 Y68.051
X60.315 Y68.358
X60.874 Y68.684
X61.421 Y69.03
X61.957 Y69.394
X62.48 Y69.775
X62.989 Y70.174
X63.486 Y70.589
X63.968 Y71.021
X64.436 Y71.468
X64.889 Y71.931
X65.326 Y72.408
X65.747 Y72.899
X66.152 Y73.404
X66.539 Y73.923
X66.91 Y74.454
X67.262 Y74.997
X67.595 Y75.551
X67.91 Y76.117
X68.205 Y76.693
X68.481 Y77.279
X68.737 Y77.873
X68.974 Y78.475
X69.191 Y79.085
X69.388 Y79.701
X69.564 Y80.324
X69.72 Y80.952
X69.855 Y81.585
X69.97 Y82.222
X70.063 Y82.863
X70.135 Y83.506
X70.185 Y84.151
X70.213 Y84.798
X70.22 Y85.445
X70.204 Y86.092
X70.167 Y86.738
X70.108 Y87.383
X70.028 Y88.025
X69.927 Y88.664
X69.805 Y89.3
X69.662 Y89.931
X69.498 Y90.557
X69.314 Y91.178
X69.109 Y91.792
X68.884 Y92.398
X68.639 Y92.997
X68.373 Y93.588
X68.089 Y94.169
X67.784 Y94.74
X67.46 Y95.301
X67.118 Y95.85
X66.757 Y96.387
X66.378 Y96.912
X65.982 Y97.424
X65.57 Y97.923
X65.141 Y98.407
X64.697 Y98.878
X64.237 Y99.333
X63.762 Y99.773
X63.273 Y100.198
X62.771 Y100.605
X62.255 Y100.996
X61.726 Y101.37
X61.185 Y101.725
X60.633 Y102.062
X60.069 Y102.38
X59.495 Y102.679
X58.911 Y102.959
X58.319 Y103.219
X57.718 Y103.459
X57.109 Y103.68
X56.494 Y103.881
X55.873 Y104.062
X55.246 Y104.222
X54.614 Y104.361
X53.977 Y104.48
X53.338 Y104.578
X52.695 Y104.655
X52.05 Y104.711
X51.404 Y104.745
X50.757 Y104.757
X50.11 Y104.748
X49.463 Y104.717
X48.818 Y104.664
X48.175 Y104.591
X47.535 Y104.496
X46.898 Y104.381
X46.265 Y104.245
X45.637 Y104.089
X45.014 Y103.912
X44.398 Y103.716
X43.788 Y103.499
X43.185 Y103.263
X42.591 Y103.007
X42.005 Y102.732
X41.428 Y102.438
X40.862 Y102.125
X40.306 Y101.793
X39.762 Y101.443
X39.229 Y101.075
X38.709 Y100.69
X38.201 Y100.289
X37.707 Y99.871
X37.226 Y99.438
X36.759 Y98.989
X36.307 Y98.526
X35.87 Y98.049
X35.449 Y97.557
X35.044 Y97.053
X34.655 Y96.535
X34.284 Y96.005
X33.929 Y95.463
X33.593 Y94.91
X33.276 Y94.346
X32.977 Y93.772
X32.697 Y93.188
X32.437 Y92.596
X32.195 Y91.996
X31.973 Y91.388
X31.77 Y90.773
X31.586 Y90.153
X31.423 Y89.526
X31.28 Y88.895
X31.157 Y88.26
X31.055 Y87.621
X30.973 Y86.979
X30.912 Y86.334
X30.872 Y85.688
X30.853 Y85.041
X30.856 Y84.394
X30.88 Y83.747
X30.925 Y83.102
X30.991 Y82.458
X31.077 Y81.816
X31.184 Y81.178
X31.311 Y80.543
X31.458 Y79.913
X31.626 Y79.288
X31.813 Y78.668
X32.019 Y78.055
X32.245 Y77.449
X32.491 Y76.85
X32.756 Y76.259
X33.039 Y75.677
X33.342 Y75.105
X33.663 Y74.543
X34.002 Y73.992
X34.36 Y73.452
X34.734 Y72.925
X35.126 Y72.409
X35.533 Y71.906
X35.956 Y71.417
X36.395 Y70.941
X36.848 Y70.479
X37.316 Y70.032
X37.798 Y69.6
X38.294 Y69.183
X38.802 Y68.783
X39.323 Y68.399
X39.857 Y68.032
X40.402 Y67.683
X40.958 Y67.352
X41.524 Y67.039
X42.101 Y66.745
X42.687 Y66.47
X43.281 Y66.214
X43.883 Y65.977
X44.493 Y65.759
X45.109 Y65.56
X45.731 Y65.382
X46.358 Y65.223
X46.99 Y65.084
X47.627 Y64.965
X48.266 Y64.867
X48.909 Y64.789
X49.553 Y64.732
X50.2 Y64.695
X50.847 Y64.68
X51.494 Y64.686
X52.141 Y64.713
X52.786 Y64.762
X53.429 Y64.83
X54.071 Y64.92
X54.708 Y65.029
X55.343 Y65.159
X55.972 Y65.308
X56.597 Y65.478
X57.216 Y65.667
X57.829 Y65.875
X58.435 Y66.103
X59.033 Y66.349
X59.623 Y66.615
X60.205 Y66.899
X60.777 Y67.202
X61.339 Y67.523
X61.89 Y67.862
X62.43 Y68.219
X62.958 Y68.593
X63.475 Y68.983
X63.979 Y69.389
X64.47 Y69.81
X64.948 Y70.247
X65.412 Y70.698
X65.861 Y71.164
X66.297 Y71.643
X66.717 Y72.135
X67.121 Y72.64
X67.51 Y73.158
X67.882 Y73.687
X68.237 Y74.228
X68.575 Y74.78
X68.895 Y75.343
X69.197 Y75.915
X69.481 Y76.497
X69.747 Y77.087
X69.994 Y77.685
X70.222 Y78.291
X70.431 Y78.903
X70.622 Y79.522
X70.794 Y80.146
X70.946 Y80.775
X71.078 Y81.409
X71.191 Y82.046
X71.285 Y82.686
X71.358 Y83.329
X71.411 Y83.974
X71.443 Y84.621
X71.455 Y85.268
X71.447 Y85.915
X71.417 Y86.562
X71.368 Y87.207
X71.298 Y87.85
X71.208 Y88.491
X71.098 Y89.129
X70.968 Y89.763
X70.819 Y90.393
X70.65 Y91.018
X70.463 Y91.637
X70.255 Y92.25
X70.029 Y92.857
X69.785 Y93.456
X69.521 Y94.047
X69.239 Y94.63
X68.939 Y95.203
X68.62 Y95.767
X68.284 Y96.319
X67.93 Y96.861
X67.559 Y97.391
X67.171 Y97.91
X66.768 Y98.416
X66.349 Y98.909
X65.915 Y99.389
X65.466 Y99.856
X65.003 Y100.308
X64.526 Y100.746
X64.036 Y101.169
X63.533 Y101.576
X63.018 Y101.967
X62.49 Y102.343
X61.951 Y102.701
X61.402 Y103.042
X60.841 Y103.366
X60.27 Y103.671
X59.69 Y103.958
X59.102 Y104.227
X58.505 Y104.478
X57.901 Y104.71
X57.289 Y104.923
X56.672 Y105.117
X56.049 Y105.292
X55.421 Y105.449
X54.788 Y105.585
X54.152 Y105.703
X53.512 Y105.8
X52.87 Y105.878
X52.225 Y105.936
X51.579 Y105.974
X50.932 Y105.991
X50.285 Y105.988
X49.638 Y105.965
X48.992 Y105.921
X48.348 Y105.857
X47.706 Y105.773
X47.067 Y105.669
X46.432 Y105.546
X45.801 Y105.404
X45.174 Y105.243
X44.552 Y105.062
X43.936 Y104.863
X43.327 Y104.645
X42.725 Y104.409
X42.13 Y104.154
X41.543 Y103.881
X40.965 Y103.59
X40.396 Y103.281
X39.837 Y102.955
X39.289 Y102.611
X38.751 Y102.25
X38.225 Y101.873
X37.711 Y101.48
X37.209 Y101.071
X36.72 Y100.648
X36.243 Y100.21
X35.78 Y99.757
X35.331 Y99.291
X34.897 Y98.812
X34.477 Y98.32
X34.072 Y97.815
X33.682 Y97.298
X33.309 Y96.769
X32.952 Y96.229
X32.612 Y95.678
X32.289 Y95.117
X31.984 Y94.547
X31.697 Y93.967
X31.427 Y93.378
X31.176 Y92.782
X30.943 Y92.178
X30.728 Y91.567
X30.532 Y90.951
X30.354 Y90.328
X30.195 Y89.701
X30.055 Y89.069
X29.934 Y88.433
X29.832 Y87.794
X29.75 Y87.152
X29.687 Y86.508
X29.644 Y85.862
X29.62 Y85.215
X29.617 Y84.568
X29.634 Y83.921
X29.671 Y83.275
X29.728 Y82.63
X29.804 Y81.988
X29.9 Y81.348
X30.015 Y80.711
X30.149 Y80.077
X30.302 Y79.449
X30.474 Y78.824
X30.664 Y78.206
X30.872 Y77.593
X31.099 Y76.987
X31.345 Y76.388
X31.608 Y75.797
X31.889 Y75.214
X32.188 Y74.64
X32.504 Y74.075
X32.838 Y73.521
X33.189 Y72.977
X33.556 Y72.444
X33.94 Y71.923
X34.339 Y71.413
X34.753 Y70.915
X35.182 Y70.431
X35.625 Y69.959
X36.082 Y69.501
X36.552 Y69.056
X37.036 Y68.626
X37.532 Y68.211
X38.041 Y67.81
X38.561 Y67.426
X39.093 Y67.057
X39.636 Y66.704
X40.189 Y66.369
X40.753 Y66.05
X41.326 Y65.75
X41.908 Y65.467
X42.499 Y65.202
X43.097 Y64.955
X43.702 Y64.726
X44.314 Y64.516
X44.932 Y64.323
X45.556 Y64.15
X46.184 Y63.995
X46.817 Y63.858
X47.453 Y63.741
X48.093 Y63.643
X48.736 Y63.565
X49.38 Y63.505
X50.026 Y63.466
X50.673 Y63.446
X51.32
X51.967 Y63.466
X52.613 Y63.506
X53.257 Y63.566
X53.9 Y63.645
X54.54 Y63.743
X55.176 Y63.861
X55.809 Y63.997
X56.437 Y64.152
X57.061 Y64.326
X57.679 Y64.518
X58.291 Y64.728
X58.896 Y64.956
X59.495 Y65.203
X60.086 Y65.467
X60.669 Y65.748
X61.242 Y66.048
X61.807 Y66.364
X62.362 Y66.697
X62.906 Y67.048
X63.439 Y67.415
X63.961 Y67.797
X64.472 Y68.195
X64.971 Y68.607
X65.457 Y69.034
X65.931 Y69.476
X66.391 Y69.93
X66.838 Y70.398
X67.271 Y70.879
X67.69 Y71.373
X68.094 Y71.878
X68.484 Y72.395
X68.857 Y72.924
X69.215 Y73.463
X69.557 Y74.012
X69.883 Y74.572
X70.191 Y75.141
X70.481 Y75.719
X70.755 Y76.306
X71.011 Y76.901
X71.249 Y77.502
X71.47 Y78.111
X71.673 Y78.725
X71.858 Y79.345
X72.025 Y79.971
X72.174 Y80.601
X72.304 Y81.235
X72.416 Y81.872
X72.509 Y82.513
X72.583 Y83.155
X72.638 Y83.8
X72.674 Y84.447
X72.691 Y85.094
X72.689 Y85.741
X72.666 Y86.388
X72.624 Y87.033
X72.563 Y87.678
X72.483 Y88.32
X72.384 Y88.96
X72.267 Y89.596
X72.131 Y90.229
X71.976 Y90.857
X71.803 Y91.481
X71.612 Y92.099
X71.403 Y92.712
X71.176 Y93.318
X70.932 Y93.917
X70.67 Y94.509
X70.39 Y95.093
X70.093 Y95.668
X69.779 Y96.234
X69.448 Y96.79
X69.1 Y97.336
X68.736 Y97.871
X68.356 Y98.395
X67.961 Y98.907
X67.551 Y99.408
X67.126 Y99.896
X66.687 Y100.372
X66.235 Y100.835
X65.769 Y101.285
X65.291 Y101.72
X64.799 Y102.142
X64.296 Y102.549
X63.781 Y102.941
X63.255 Y103.317
X62.718 Y103.678
X62.17 Y104.023
X61.612 Y104.352
X61.045 Y104.663
X60.468 Y104.957
X59.883 Y105.233
X59.29 Y105.493
X58.69 Y105.734
X58.082 Y105.959
X57.469 Y106.165
X56.85 Y106.354
X56.226 Y106.524
X55.597 Y106.677
X54.963 Y106.811
X54.327 Y106.927
X53.687 Y107.025
X53.044 Y107.103
X52.4 Y107.163
X51.754 Y107.204
X51.107 Y107.226
X50.46 Y107.229
X49.813 Y107.212
X49.167 Y107.175
X48.522 Y107.12
X47.879 Y107.046
X47.239 Y106.953
X46.601 Y106.841
X45.967 Y106.712
X45.337 Y106.564
X44.711 Y106.398
X44.091 Y106.214
X43.476 Y106.013
X42.867 Y105.793
X42.264 Y105.557
X41.669 Y105.303
X41.081 Y105.032
X40.502 Y104.744
X39.931 Y104.439
X39.369 Y104.117
X38.817 Y103.779
X38.276 Y103.425
X37.745 Y103.054
X37.225 Y102.669
X36.716 Y102.269
X36.219 Y101.854
X35.734 Y101.425
X35.262 Y100.983
X34.802 Y100.527
X34.356 Y100.059
X33.923 Y99.578
X33.504 Y99.084
X33.099 Y98.579
X32.709 Y98.063
X32.334 Y97.535
X31.975 Y96.997
X31.631 Y96.449
X31.303 Y95.891
X30.992 Y95.323
X30.699 Y94.746
X30.422 Y94.161
X30.162 Y93.568
X29.919 Y92.968
X29.693 Y92.362
X29.485 Y91.749
X29.294 Y91.131
X29.121 Y90.507
X28.966 Y89.879
X28.828 Y89.246
X28.709 Y88.61
X28.607 Y87.971
X28.524 Y87.329
X28.46 Y86.685
X28.414 Y86.039
X28.386 Y85.393
X28.378 Y84.746
X28.389 Y84.099
X28.418 Y83.452
X28.467 Y82.807
X28.534 Y82.163
X28.62 Y81.521
X28.724 Y80.883
X28.846 Y80.247
X28.986 Y79.615
X29.144 Y78.987
X29.319 Y78.364
X29.512 Y77.747
X29.723 Y77.135
X29.95 Y76.529
X30.195 Y75.93
X30.457 Y75.338
X30.736 Y74.754
X31.031 Y74.178
X31.343 Y73.611
X31.672 Y73.053
X32.017 Y72.505
X32.377 Y71.968
X32.754 Y71.441
X33.145 Y70.926
X33.55 Y70.421
X33.97 Y69.929
X34.404 Y69.448
X34.851 Y68.98
X35.311 Y68.525
X35.783 Y68.083
X36.268 Y67.654
X36.765 Y67.239
X37.274 Y66.839
X37.793 Y66.453
X38.324 Y66.082
X38.865 Y65.727
X39.416 Y65.387
X39.977 Y65.064
X40.547 Y64.758
X41.125 Y64.468
X41.712 Y64.195
X42.307 Y63.939
X42.908 Y63.701
X43.516 Y63.479
X44.131 Y63.275
X44.75 Y63.088
X45.375 Y62.918
X46.004 Y62.767
X46.637 Y62.633
X47.274 Y62.517
X47.914 Y62.419
X48.556 Y62.339
X49.2 Y62.278
X49.846 Y62.235
X50.493 Y62.211
X51.14 Y62.205
X51.787 Y62.219
X52.434 Y62.252
X53.079 Y62.303
X53.722 Y62.373
X54.363 Y62.461
X55.002 Y62.568
X55.637 Y62.692
X56.269 Y62.834
X56.896 Y62.994
X57.518 Y63.171
X58.136 Y63.365
X58.747 Y63.577
X59.353 Y63.806
X59.951 Y64.052
X60.543 Y64.314
X61.127 Y64.594
X61.702 Y64.889
X62.27 Y65.201
X62.827 Y65.53
X63.375 Y65.874
X63.913 Y66.234
X64.44 Y66.61
X64.957 Y67
X65.462 Y67.404
X65.956 Y67.822
X66.438 Y68.254
X66.908 Y68.699
X67.366 Y69.157
X67.811 Y69.627
X68.242 Y70.109
X68.66 Y70.603
X69.064 Y71.109
X69.454 Y71.625
X69.83 Y72.152
X70.191 Y72.69
X70.536 Y73.237
X70.866 Y73.794
X71.179 Y74.36
X71.476 Y74.935
X71.757 Y75.518
X72.021 Y76.109
X72.269 Y76.707
X72.5 Y77.312
X72.714 Y77.923
X72.911 Y78.539
X73.092 Y79.161
X73.255 Y79.787
X73.401 Y80.417
X73.529 Y81.052
X73.64 Y81.689
X73.734 Y82.33
X73.809 Y82.973
X73.867 Y83.617
X73.906 Y84.263
X73.928 Y84.91
X73.93 Y85.557
X73.914 Y86.204
X73.88 Y86.851
X73.827 Y87.496
X73.756 Y88.139
X73.668 Y88.78
X73.561 Y89.419
X73.437 Y90.054
X73.295 Y90.685
X73.136 Y91.313
X72.96 Y91.935
X72.766 Y92.553
X72.556 Y93.165
X72.329 Y93.771
X72.084 Y94.371
X71.824 Y94.963
X71.547 Y95.548
X71.253 Y96.125
X70.943 Y96.693
X70.617 Y97.252
X70.275 Y97.801
X69.917 Y98.341
X69.545 Y98.87
X69.157 Y99.388
X68.755 Y99.895
X68.339 Y100.391
X67.91 Y100.876
X67.467 Y101.348
X67.012 Y101.808
X66.544 Y102.255
X66.064 Y102.689
X65.572 Y103.109
X65.068 Y103.516
X64.554 Y103.909
X64.029 Y104.287
X63.493 Y104.651
X62.948 Y104.999
X62.393 Y105.332
X61.828 Y105.649
X61.255 Y105.949
X60.673 Y106.233
X60.084 Y106.5
X59.487 Y106.751
X58.884 Y106.985
X58.274 Y107.203
X57.659 Y107.404
X57.039 Y107.588
X56.413 Y107.754
X55.784 Y107.904
X55.15 Y108.037
X54.513 Y108.151
X53.873 Y108.249
X53.231 Y108.329
X52.587 Y108.391
X51.941 Y108.435
X51.294 Y108.461
X50.647 Y108.469
X50 Y108.458
X49.353 Y108.429
X48.708 Y108.382
X48.064 Y108.317
X47.422 Y108.234
X46.783 Y108.133
X46.146 Y108.015
X45.514 Y107.88
X44.885 Y107.727
X44.26 Y107.557
X43.64 Y107.371
X43.026 Y107.167
X42.417 Y106.947
X41.815 Y106.711
X41.219 Y106.458
X40.63 Y106.189
X40.049 Y105.904
X39.476 Y105.603
X38.912 Y105.286
X38.357 Y104.953
X37.811 Y104.605
X37.276 Y104.241
X36.751 Y103.863
X36.236 Y103.471
X35.732 Y103.064
X35.24 Y102.644
X34.759 Y102.211
X34.29 Y101.766
X33.833 Y101.307
X33.388 Y100.837
X32.957 Y100.354
X32.538 Y99.86
X32.134 Y99.355
X31.743 Y98.84
X31.366 Y98.313
X31.004 Y97.777
X30.656 Y97.231
X30.324 Y96.675
X30.008 Y96.111
X29.708 Y95.537
X29.424 Y94.956
X29.156 Y94.367
X28.904 Y93.77
X28.668 Y93.167
X28.449 Y92.558
X28.247 Y91.944
X28.06 Y91.324
X27.891 Y90.699
X27.739 Y90.07
X27.603 Y89.437
X27.485 Y88.801
X27.383 Y88.162
X27.299 Y87.52
X27.233 Y86.876
X27.184 Y86.231
X27.152 Y85.585
X27.139 Y84.937
X27.143 Y84.29
X27.166 Y83.643
X27.207 Y82.998
X27.266 Y82.353
X27.342 Y81.71
X27.436 Y81.07
X27.547 Y80.432
X27.674 Y79.798
X27.819 Y79.167
X27.981 Y78.54
X28.16 Y77.918
X28.355 Y77.301
X28.566 Y76.689
X28.794 Y76.084
X29.038 Y75.484
X29.298 Y74.891
X29.575 Y74.306
X29.867 Y73.729
X30.174 Y73.159
X30.498 Y72.599
X30.837 Y72.048
X31.192 Y71.506
X31.561 Y70.975
X31.945 Y70.453
X32.342 Y69.943
X32.754 Y69.443
X33.178 Y68.954
X33.615 Y68.477
X34.066 Y68.012
X34.528 Y67.559
X35.002 Y67.119
X35.488 Y66.691
X35.985 Y66.277
X36.493 Y65.876
X37.012 Y65.489
X37.541 Y65.116
X38.08 Y64.758
X38.629 Y64.414
X39.187 Y64.086
X39.754 Y63.774
X40.329 Y63.478
X40.912 Y63.198
X41.503 Y62.933
X42.101 Y62.685
X42.705 Y62.453
X43.315 Y62.238
X43.931 Y62.039
X44.552 Y61.856
X45.178 Y61.69
X45.808 Y61.541
X46.441 Y61.409
X47.078 Y61.293
X47.718 Y61.195
X48.36 Y61.114
X49.004 Y61.051
X49.65 Y61.004
X50.296 Y60.976
X50.943 Y60.965
X51.59 Y60.973
X52.237 Y60.998
X52.883 Y61.042
X53.527 Y61.103
X54.17 Y61.181
X54.81 Y61.277
X55.447 Y61.39
X56.081 Y61.52
X56.712 Y61.666
X57.338 Y61.83
X57.96 Y62.01
X58.576 Y62.206
X59.188 Y62.419
X59.793 Y62.647
X60.392 Y62.892
X60.984 Y63.153
X61.57 Y63.43
X62.147 Y63.722
X62.717 Y64.03
X63.277 Y64.353
X63.829 Y64.692
X64.371 Y65.046
X64.903 Y65.414
X65.425 Y65.797
X65.936 Y66.193
X66.437 Y66.603
X66.928 Y67.025
X67.406 Y67.461
X67.873 Y67.909
X68.329 Y68.369
X68.772 Y68.841
X69.202 Y69.324
X69.62 Y69.818
X70.024 Y70.324
X70.416 Y70.839
X70.793 Y71.365
X71.156 Y71.901
X71.505 Y72.446
X71.84 Y73
X72.158 Y73.563
X72.462 Y74.135
X72.749 Y74.715
X73.021 Y75.302
X73.278 Y75.896
X73.518 Y76.497
X73.743 Y77.104
X73.952 Y77.717
X74.145 Y78.335
X74.321 Y78.957
X74.482 Y79.584
X74.625 Y80.215
X74.753 Y80.85
X74.864 Y81.488
X74.958 Y82.128
X75.035 Y82.771
X75.095 Y83.415
X75.138 Y84.061
X75.164 Y84.707
X75.172 Y85.355
X75.162 Y86.002
X75.135 Y86.648
X75.09 Y87.294
X75.028 Y87.938
X74.949 Y88.581
X74.853 Y89.221
X74.74 Y89.858
X74.611 Y90.492
X74.465 Y91.123
X74.302 Y91.749
X74.123 Y92.371
X73.928 Y92.988
X73.717 Y93.6
X73.49 Y94.206
X73.247 Y94.806
X72.988 Y95.399
X72.713 Y95.985
X72.423 Y96.564
X72.118 Y97.134
X71.797 Y97.696
X71.46 Y98.249
X71.109 Y98.793
X70.743 Y99.326
X70.363 Y99.85
X69.969 Y100.364
X69.561 Y100.867
X69.141 Y101.359
X68.708 Y101.84
X68.262 Y102.309
X67.804 Y102.767
X67.335 Y103.212
X66.854 Y103.645
X66.361 Y104.065
X65.858 Y104.472
X65.345 Y104.866
X64.821 Y105.247
X64.287 Y105.613
X63.744 Y105.965
X63.192 Y106.302
X62.63 Y106.624
X62.06 Y106.93
X61.482 Y107.221
X60.896 Y107.496
X60.303 Y107.756
X59.704 Y108
X59.098 Y108.228
X58.487 Y108.44
X57.87 Y108.636
X57.248 Y108.816
X56.622 Y108.98
X55.992 Y109.128
X55.358 Y109.259
X54.721 Y109.374
X54.081 Y109.472
X53.439 Y109.553
X52.795 Y109.618
X52.15 Y109.666
X51.503 Y109.696
X50.856 Y109.709
X50.209 Y109.705
X49.562 Y109.683
X48.916 Y109.643
X48.271 Y109.587
X47.628 Y109.513
X46.988 Y109.423
X46.349 Y109.316
X45.714 Y109.192
X45.082 Y109.052
X44.454 Y108.896
X43.83 Y108.724
X43.211 Y108.535
X42.597 Y108.331
X41.988 Y108.111
X41.385 Y107.875
X40.789 Y107.624
X40.199 Y107.358
X39.616 Y107.076
X39.041 Y106.779
X38.475 Y106.466
X37.916 Y106.139
X37.367 Y105.796
X36.827 Y105.439
X36.297 Y105.068
X35.777 Y104.683
X35.267 Y104.285
X34.767 Y103.874
X34.278 Y103.45
X33.8 Y103.013
X33.333 Y102.565
X32.878 Y102.104
X32.435 Y101.633
X32.005 Y101.149
X31.586 Y100.656
X31.181 Y100.151
X30.789 Y99.636
X30.41 Y99.111
X30.045 Y98.577
X29.694 Y98.033
X29.357 Y97.48
X29.036 Y96.919
X28.729 Y96.349
X28.438 Y95.77
X28.163 Y95.185
X27.902 Y94.592
X27.657 Y93.993
X27.427 Y93.388
X27.213 Y92.777
X27.015 Y92.161
X26.833 Y91.54
X26.666 Y90.915
X26.516 Y90.286
X26.381 Y89.652
X26.263 Y89.016
X26.161 Y88.377
X26.075 Y87.735
X26.006 Y87.092
X25.954 Y86.447
X25.918 Y85.801
X25.9 Y85.154
X25.899 Y84.506
X25.915 Y83.859
X25.948 Y83.213
X25.998 Y82.568
X26.065 Y81.924
X26.149 Y81.282
X26.249 Y80.643
X26.365 Y80.006
X26.498 Y79.373
X26.646 Y78.743
X26.811 Y78.117
X26.992 Y77.495
X27.188 Y76.878
X27.4 Y76.267
X27.627 Y75.661
X27.87 Y75.061
X28.128 Y74.467
X28.401 Y73.881
X28.69 Y73.301
X28.993 Y72.73
X29.312 Y72.166
X29.646 Y71.612
X29.994 Y71.066
X30.356 Y70.53
X30.732 Y70.003
X31.122 Y69.487
X31.525 Y68.98
X31.941 Y68.484
X32.369 Y67.999
X32.809 Y67.524
X33.262 Y67.061
X33.726 Y66.61
X34.201 Y66.171
X34.687 Y65.744
X35.184 Y65.329
X35.692 Y64.927
X36.209 Y64.539
X36.736 Y64.163
X37.273 Y63.802
X37.819 Y63.454
X38.374 Y63.122
X38.938 Y62.804
X39.51 Y62.501
X40.09 Y62.213
X40.677 Y61.941
X41.271 Y61.684
X41.871 Y61.442
X42.478 Y61.216
X43.09 Y61.005
X43.707 Y60.81
X44.329 Y60.631
X44.955 Y60.467
X45.585 Y60.32
X46.219 Y60.188
X46.856 Y60.073
X47.495 Y59.973
X48.137 Y59.891
X48.781 Y59.824
X49.426 Y59.774
X50.073 Y59.741
X50.72 Y59.725
X51.367 Y59.727
X52.014 Y59.745
X52.66 Y59.781
X53.305 Y59.833
X53.949 Y59.902
X54.59 Y59.988
X55.229 Y60.089
X55.866 Y60.208
X56.499 Y60.342
X57.129 Y60.492
X57.754 Y60.658
X58.375 Y60.839
X58.992 Y61.037
X59.603 Y61.249
X60.209 Y61.478
X60.808 Y61.721
X61.402 Y61.979
X61.988 Y62.253
X62.568 Y62.541
X63.14 Y62.845
X63.703 Y63.163
X64.258 Y63.496
X64.804 Y63.844
X65.341 Y64.205
X65.868 Y64.58
X66.386 Y64.969
X66.894 Y65.37
X67.391 Y65.784
X67.878 Y66.21
X68.354 Y66.649
X68.819 Y67.099
X69.273 Y67.561
X69.715 Y68.033
X70.145 Y68.517
X70.563 Y69.011
X70.968 Y69.516
X71.361 Y70.03
X71.741 Y70.554
X72.107 Y71.088
X72.46 Y71.63
X72.799 Y72.182
X73.123 Y72.742
X73.432 Y73.311
X73.727 Y73.887
X74.007 Y74.47
X74.272 Y75.061
X74.522 Y75.658
X74.757 Y76.261
X74.976 Y76.87
X75.181 Y77.484
X75.37 Y78.103
X75.544 Y78.726
X75.703 Y79.354
X75.845 Y79.985
X75.973 Y80.62
X76.084 Y81.257
X76.179 Y81.897
X76.259 Y82.54
X76.322 Y83.184
X76.369 Y83.829
X76.399 Y84.476
X76.413 Y85.123
X76.41 Y85.77
X76.39 Y86.417
X76.353 Y87.063
X76.3 Y87.708
X76.23 Y88.352
X76.145 Y88.993
X76.043 Y89.632
X75.925 Y90.269
X75.791 Y90.902
X75.642 Y91.532
X75.477 Y92.158
X75.297 Y92.779
X75.101 Y93.396
X74.889 Y94.008
X74.663 Y94.614
X74.421 Y95.214
X74.165 Y95.809
X73.893 Y96.396
X73.607 Y96.977
X73.306 Y97.55
X72.99 Y98.115
X72.659 Y98.671
X72.314 Y99.218
X71.955 Y99.757
X71.583 Y100.286
X71.197 Y100.806
X70.798 Y101.315
X70.386 Y101.815
X69.962 Y102.304
X69.526 Y102.782
X69.078 Y103.249
X68.619 Y103.705
X68.149 Y104.15
X67.667 Y104.582
X67.175 Y105.003
X66.673 Y105.411
X66.16 Y105.807
X65.638 Y106.189
X65.107 Y106.558
X64.566 Y106.914
X64.016 Y107.256
X63.458 Y107.583
X62.891 Y107.895
X62.317 Y108.193
X61.734 Y108.476
X61.145 Y108.744
X60.55 Y108.998
X59.948 Y109.236
X59.341 Y109.459
X58.728 Y109.667
X58.11 Y109.86
X57.488 Y110.038
X56.861 Y110.2
X56.231 Y110.346
X55.597 Y110.477
X54.96 Y110.593
X54.32 Y110.692
X53.679 Y110.776
X53.035 Y110.844
X52.39 Y110.895
X51.743 Y110.93
X51.097 Y110.949
X50.449 Y110.951
X49.802 Y110.936
X49.156 Y110.904
X48.51 Y110.856
X47.866 Y110.792
X47.224 Y110.712
X46.584 Y110.616
X45.947 Y110.504
X45.312 Y110.376
X44.681 Y110.233
X44.053 Y110.074
X43.43 Y109.9
X42.811 Y109.711
X42.197 Y109.507
X41.588 Y109.287
X40.985 Y109.053
X40.387 Y108.804
X39.796 Y108.54
X39.212 Y108.262
X38.635 Y107.969
X38.065 Y107.661
X37.504 Y107.339
X36.951 Y107.003
X36.407 Y106.652
X35.872 Y106.289
X35.346 Y105.911
X34.829 Y105.521
X34.323 Y105.119
X33.826 Y104.704
X33.34 Y104.276
X32.864 Y103.838
X32.399 Y103.387
X31.945 Y102.926
X31.503 Y102.453
X31.072 Y101.97
X30.654 Y101.477
X30.247 Y100.973
X29.853 Y100.46
X29.472 Y99.937
X29.103 Y99.405
X28.748 Y98.863
X28.407 Y98.313
X28.08 Y97.755
X27.768 Y97.188
X27.47 Y96.613
X27.186 Y96.032
X26.917 Y95.443
X26.663 Y94.848
X26.423 Y94.247
X26.198 Y93.64
X25.988 Y93.028
X25.793 Y92.411
X25.613 Y91.789
X25.448 Y91.163
X25.298 Y90.533
X25.164 Y89.9
X25.045 Y89.264
X24.942 Y88.625
X24.854 Y87.984
X24.782 Y87.341
X24.726 Y86.696
X24.686 Y86.05
X24.662 Y85.403
X24.655 Y84.756
X24.664 Y84.109
X24.689 Y83.462
X24.731 Y82.816
X24.789 Y82.171
X24.862 Y81.528
X24.952 Y80.887
X25.057 Y80.249
X25.177 Y79.613
X25.313 Y78.98
X25.464 Y78.351
X25.631 Y77.725
X25.812 Y77.104
X26.009 Y76.487
X26.22 Y75.876
X26.447 Y75.269
X26.688 Y74.669
X26.943 Y74.074
X27.213 Y73.486
X27.497 Y72.904
X27.796 Y72.33
X28.11 Y71.764
X28.438 Y71.206
X28.779 Y70.656
X29.135 Y70.116
X29.504 Y69.584
X29.885 Y69.061
X30.28 Y68.548
X30.687 Y68.045
X31.106 Y67.551
X31.537 Y67.068
X31.979 Y66.596
X32.433 Y66.134
X32.898 Y65.684
X33.373 Y65.245
X33.859 Y64.818
X34.355 Y64.402
X34.862 Y63.999
X35.377 Y63.608
X35.903 Y63.23
X36.437 Y62.864
X36.98 Y62.513
X37.532 Y62.175
X38.093 Y61.852
X38.662 Y61.542
X39.238 Y61.247
X39.821 Y60.967
X40.411 Y60.701
X41.007 Y60.449
X41.61 Y60.213
X42.218 Y59.991
X42.831 Y59.783
X43.449 Y59.591
X44.071 Y59.414
X44.698 Y59.251
X45.328 Y59.104
X45.962 Y58.973
X46.598 Y58.856
X47.238 Y58.755
X47.879 Y58.67
X48.523 Y58.6
X49.168 Y58.546
X49.814 Y58.508
X50.461 Y58.487
X51.108 Y58.482
X51.755 Y58.493
X52.402 Y58.521
X53.047 Y58.564
X53.692 Y58.624
X54.335 Y58.699
X54.975 Y58.79
X55.614 Y58.896
X56.25 Y59.018
X56.882 Y59.155
X57.511 Y59.307
X58.136 Y59.475
X58.757 Y59.657
X59.374 Y59.854
X59.985 Y60.066
X60.591 Y60.293
X61.192 Y60.534
X61.787 Y60.79
X62.375 Y61.06
X62.956 Y61.344
X63.531 Y61.643
X64.097 Y61.956
X64.655 Y62.283
X65.206 Y62.624
X65.747 Y62.978
X66.28 Y63.346
X66.803 Y63.726
X67.318 Y64.119
X67.822 Y64.525
X68.317 Y64.942
X68.802 Y65.371
X69.276 Y65.811
X69.74 Y66.262
X70.193 Y66.725
X70.635 Y67.198
X71.065 Y67.681
X71.484 Y68.175
X71.891 Y68.678
X72.286 Y69.191
X72.668 Y69.713
X73.038 Y70.244
X73.395 Y70.784
X73.738 Y71.332
X74.068 Y71.889
X74.384 Y72.454
X74.685 Y73.027
X74.973 Y73.607
X75.246 Y74.193
X75.506 Y74.786
X75.751 Y75.386
X75.981 Y75.99
X76.198 Y76.6
X76.399 Y77.215
X76.586 Y77.835
X76.759 Y78.459
X76.916 Y79.086
X77.059 Y79.718
X77.187 Y80.352
X77.3 Y80.99
X77.397 Y81.629
X77.479 Y82.271
X77.546 Y82.915
X77.598 Y83.56
X77.633 Y84.207
X77.653 Y84.853
X77.656 Y85.501
X77.643 Y86.148
X77.615 Y86.794
X77.571 Y87.44
X77.511 Y88.084
X77.435 Y88.727
X77.345 Y89.368
X77.238 Y90.007
X77.117 Y90.642
X76.981 Y91.275
X76.829 Y91.904
X76.663 Y92.53
X76.482 Y93.151
X76.286 Y93.768
X76.076 Y94.38
X75.851 Y94.987
X75.612 Y95.588
X75.358 Y96.184
X75.091 Y96.773
X74.809 Y97.356
X74.512 Y97.931
X74.202 Y98.499
X73.877 Y99.059
X73.538 Y99.61
X73.187 Y100.154
X72.821 Y100.688
X72.444 Y101.214
X72.053 Y101.73
X71.65 Y102.236
X71.236 Y102.733
X70.809 Y103.22
X70.371 Y103.697
X69.922 Y104.163
X69.462 Y104.618
X68.992 Y105.063
X68.511 Y105.496
X68.02 Y105.917
X67.519 Y106.327
X67.008 Y106.724
X66.488 Y107.11
X65.959 Y107.483
X65.421 Y107.843
X64.874 Y108.189
X64.319 Y108.521
X63.756 Y108.84
X63.185 Y109.145
X62.607 Y109.436
X62.022 Y109.713
X61.43 Y109.975
X60.832 Y110.224
X60.229 Y110.458
X59.62 Y110.678
X59.006 Y110.883
X58.388 Y111.074
X57.765 Y111.25
X57.138 Y111.411
X56.508 Y111.558
X55.874 Y111.69
X55.238 Y111.806
X54.599 Y111.908
X53.957 Y111.995
X53.314 Y112.066
X52.669 Y112.122
X52.023 Y112.162
X51.376 Y112.187
X50.729 Y112.195
X50.082 Y112.187
X49.435 Y112.164
X48.789 Y112.125
X48.144 Y112.07
X47.501 Y112.001
X46.859 Y111.915
X46.22 Y111.815
X45.583 Y111.7
X44.949 Y111.569
X44.318 Y111.424
X43.691 Y111.264
X43.068 Y111.089
X42.449 Y110.9
X41.835 Y110.697
X41.225 Y110.479
X40.621 Y110.247
X40.022 Y110.001
X39.43 Y109.74
X38.844 Y109.466
X38.264 Y109.178
X37.692 Y108.875
X37.127 Y108.559
X36.571 Y108.229
X36.022 Y107.885
X35.482 Y107.529
X34.95 Y107.16
X34.428 Y106.778
X33.914 Y106.384
X33.41 Y105.978
X32.916 Y105.56
X32.431 Y105.131
X31.957 Y104.69
X31.493 Y104.239
X31.04 Y103.777
X30.597 Y103.305
X30.166 Y102.822
X29.746 Y102.33
X29.338 Y101.828
X28.941 Y101.316
X28.557 Y100.796
X28.185 Y100.266
X27.825 Y99.728
X27.479 Y99.181
X27.147 Y98.625
X26.828 Y98.062
X26.523 Y97.491
X26.231 Y96.914
X25.954 Y96.329
X25.69 Y95.738
X25.494 Y95.269
X25.466 Y95.193
X25.448 Y95.114
X25.438 Y95.034
X25.437 Y95.022
X25.425 Y94.948
X25.407 Y94.876
X25.381 Y94.801
X25.357 Y94.757
X25.158 Y94.335
X24.93 Y93.73
X24.72 Y93.118
X24.528 Y92.5
X24.352 Y91.877
X24.191 Y91.25
X24.045 Y90.619
X23.915 Y89.985
X23.799 Y89.349
X23.698 Y88.709
X23.612 Y88.068
X23.542 Y87.424
X23.486 Y86.78
X23.446 Y86.134
X23.421 Y85.487
X23.412 Y84.84
X23.419 Y84.193
X23.441 Y83.546
X23.478 Y82.9
X23.531 Y82.254
X23.599 Y81.611
X23.682 Y80.969
X23.781 Y80.329
X23.894 Y79.692
X24.022 Y79.058
X24.165 Y78.426
X24.323 Y77.799
X24.494 Y77.175
X24.681 Y76.555
X24.881 Y75.94
X25.096 Y75.329
X25.325 Y74.724
X25.568 Y74.124
X25.825 Y73.53
X26.095 Y72.942
X26.38 Y72.36
X26.678 Y71.786
X26.99 Y71.219
X27.316 Y70.66
X27.655 Y70.108
X28.007 Y69.565
X28.371 Y69.03
X28.749 Y68.505
X29.138 Y67.988
X29.54 Y67.48
X29.954 Y66.983
X30.379 Y66.494
X30.815 Y66.016
X31.262 Y65.548
X31.72 Y65.091
X32.188 Y64.644
X32.667 Y64.208
X33.155 Y63.784
X33.653 Y63.371
X34.161 Y62.969
X34.678 Y62.579
X35.204 Y62.202
X35.738 Y61.837
X36.281 Y61.485
X36.832 Y61.146
X37.392 Y60.82
X37.959 Y60.508
X38.533 Y60.21
X39.114 Y59.925
X39.702 Y59.654
X40.296 Y59.397
X40.896 Y59.154
X41.502 Y58.925
X42.112 Y58.711
X42.728 Y58.511
X43.348 Y58.325
X43.972 Y58.153
X44.599 Y57.996
X45.231 Y57.853
X45.865 Y57.725
X46.502 Y57.612
X47.142 Y57.513
X47.784 Y57.429
X48.427 Y57.361
X49.072 Y57.307
X49.718 Y57.269
X50.365 Y57.246
X51.012 Y57.239
X51.66 Y57.247
X52.306 Y57.27
X52.952 Y57.309
X53.597 Y57.364
X54.241 Y57.433
X54.883 Y57.518
X55.522 Y57.617
X56.159 Y57.732
X56.793 Y57.861
X57.424 Y58.005
X57.633 Y58.057
X57.725 Y58.088
X57.811 Y58.131
X57.889 Y58.187
X57.913 Y58.203
X57.987 Y58.248
X58.06 Y58.282
X58.207 Y58.325
X58.266 Y58.334
X58.481 Y58.367
X59.111 Y58.516
X59.734 Y58.693
X60.349 Y58.893
X60.959 Y59.112
X61.561 Y59.347
X62.158 Y59.597
X62.749 Y59.863
X63.332 Y60.142
X63.909 Y60.436
X64.479 Y60.743
X65.04 Y61.065
X65.594 Y61.399
X66.14 Y61.747
X66.678 Y62.107
X67.207 Y62.48
X67.727 Y62.865
X68.239 Y63.262
X68.741 Y63.67
X69.233 Y64.09
X69.716 Y64.521
X70.189 Y64.963
X70.652 Y65.416
X71.104 Y65.878
X71.546 Y66.351
X71.977 Y66.834
X72.397 Y67.327
X72.805 Y67.829
X73.203 Y68.34
X73.588 Y68.86
X73.961 Y69.388
X74.322 Y69.926
X74.67 Y70.472
X75.005 Y71.026
X75.326 Y71.587
X75.635 Y72.156
X75.93 Y72.732
X76.211 Y73.315
X76.479 Y73.904
X76.734 Y74.499
X76.974 Y75.1
X77.202 Y75.706
X77.415 Y76.317
X77.614 Y76.933
X77.799 Y77.553
X77.971 Y78.177
X78.128 Y78.805
X78.271 Y79.436
X78.4 Y80.071
X78.439 Y80.288
X78.445 Y80.332
X78.449 Y80.375
X78.45 Y80.419
Y88.919
X78.418 Y89.566
X78.376 Y90.212
X78.292 Y90.853
X78.177 Y91.49
X78.04 Y92.123
X77.883 Y92.751
X77.709 Y93.374
X77.519 Y93.993
X77.314 Y94.607
X77.095 Y95.216
X76.861 Y95.819
X76.614 Y96.417
X76.352 Y97.009
X76.077 Y97.595
X75.788 Y98.174
X75.485 Y98.746
X75.169 Y99.311
X74.84 Y99.869
X74.498 Y100.418
X74.143 Y100.959
X73.776 Y101.492
X73.396 Y102.016
X73.005 Y102.532
X72.601 Y103.038
X72.187 Y103.535
X71.761 Y104.022
X71.324 Y104.5
X70.876 Y104.967
X70.418 Y105.425
X69.95 Y105.871
X69.472 Y106.307
X68.984 Y106.733
X68.486 Y107.146
X67.979 Y107.549
X67.463 Y107.939
X66.938 Y108.318
X66.404 Y108.684
X65.862 Y109.037
X65.312 Y109.378
X64.754 Y109.706
X64.188 Y110.02
X63.615 Y110.321
X63.036 Y110.609
X62.45 Y110.884
X61.857 Y111.145
X61.259 Y111.392
X60.656 Y111.626
X60.047 Y111.846
X59.434 Y112.052
X58.816 Y112.245
X58.193 Y112.423
X57.567 Y112.587
X56.938 Y112.738
X56.305 Y112.874
X55.669 Y112.995
X55.031 Y113.102
X54.391 Y113.195
X53.748 Y113.273
X53.104 Y113.336
X52.458 Y113.384
X51.812 Y113.417
X51.165 Y113.435
X50.518 Y113.437
X49.871 Y113.425
X49.224 Y113.398
X48.578 Y113.356
X47.934 Y113.299
X47.29 Y113.228
X46.649 Y113.141
X46.009 Y113.041
X45.373 Y112.926
X44.738 Y112.797
X44.107 Y112.653
X43.48 Y112.496
X42.855 Y112.324
X42.235 Y112.138
X41.62 Y111.939
X41.009 Y111.726
X40.402 Y111.499
X39.802 Y111.258
X39.206 Y111.004
X38.617 Y110.736
X38.034 Y110.455
X37.458 Y110.161
X36.889 Y109.853
X36.327 Y109.532
X35.772 Y109.198
X35.226 Y108.851
X34.687 Y108.492
X34.157 Y108.121
X33.635 Y107.738
X33.122 Y107.343
X32.618 Y106.937
X32.124 Y106.52
X31.638 Y106.091
X31.163 Y105.652
X30.697 Y105.203
X30.242 Y104.743
X29.796 Y104.273
X29.362 Y103.794
X28.938 Y103.305
X28.525 Y102.806
X28.124 Y102.298
X27.734 Y101.781
X27.356 Y101.256
X26.991 Y100.722
X26.637 Y100.18
X26.297 Y99.63
X25.969 Y99.072
X25.654 Y98.506
X25.352 Y97.934
X25.151 Y97.532
X25.108 Y97.426
X25.082 Y97.315
X25.073 Y97.201
Y96.566
X25.082 Y96.419
X25.095 Y96.272
X25.113 Y96.167
X25.152 Y95.978
X25.173 Y95.904
X25.22 Y95.791
G3 X25.638 Y95.626 Z-0.792 I0.291 J0.126
X25.385 Y96.208 I-0.127 J0.291
X25.244 Y95.746 I0.126 J-0.291
G1 X25.805 Y94.873
G3 X26.339 Y95.217 I0.267 J0.172
X25.908 Y95.317 I-0.267 J-0.172
X25.671 Y95.142 I0.818 J-1.355
X25.357 Y94.757 Z-0.995 I1.055 J-1.18
G1 X25.302 Y94.654
X25.26 Y94.599
X25.221 Y94.553
X25.175 Y94.507
X25.113 Y94.456
X24.974 Y94.36
X24.819 Y94.293
X24.779 Y94.282
X24.634 Y94.235
X24.511 Y94.144
X24.372 Y94.022
X24.217 Y93.863
X24.048 Y93.658
X23.856 Y93.383
X23.644 Y93.021
X23.404 Y92.524
X23.171 Y91.92
X22.979 Y91.302
X22.816 Y90.676
X22.677 Y90.044
X22.558 Y89.408
X22.456 Y88.768
X22.37 Y88.127
X22.3 Y87.484
X22.244 Y86.839
X22.204 Y86.193
X22.179 Y85.546
X22.169 Y84.899
X22.173 Y84.252
X22.193 Y83.605
X22.227 Y82.958
X22.276 Y82.313
X22.339 Y81.669
X22.417 Y81.026
X22.51 Y80.386
X22.617 Y79.748
X22.739 Y79.112
X22.875 Y78.479
X23.024 Y77.85
X23.188 Y77.223
X23.366 Y76.601
X23.557 Y75.983
X23.762 Y75.369
X23.98 Y74.759
X24.212 Y74.155
X24.457 Y73.556
X24.715 Y72.963
X24.987 Y72.375
X25.272 Y71.794
X25.571 Y71.22
X25.882 Y70.652
X26.206 Y70.092
X26.543 Y69.54
X26.892 Y68.995
X27.253 Y68.458
X27.627 Y67.929
X28.013 Y67.41
X28.41 Y66.899
X28.819 Y66.397
X29.239 Y65.904
X29.67 Y65.421
X30.111 Y64.948
X30.563 Y64.485
X31.025 Y64.031
X31.497 Y63.588
X31.978 Y63.156
X32.469 Y62.734
X32.97 Y62.324
X33.479 Y61.924
X33.997 Y61.536
X34.523 Y61.16
X35.058 Y60.795
X35.601 Y60.443
X36.152 Y60.103
X36.711 Y59.776
X37.277 Y59.462
X37.849 Y59.161
X38.429 Y58.873
X39.015 Y58.598
X39.607 Y58.336
X40.205 Y58.089
X40.808 Y57.854
X41.416 Y57.634
X42.03 Y57.426
X42.647 Y57.233
X43.269 Y57.053
X43.895 Y56.887
X44.524 Y56.735
X45.156 Y56.597
X45.791 Y56.473
X46.429 Y56.363
X47.069 Y56.267
X47.711 Y56.185
X48.355 Y56.118
X49 Y56.065
X49.646 Y56.027
X50.293 Y56.003
X50.94 Y55.995
X51.587 Y56.001
X52.234 Y56.021
X52.88 Y56.057
X53.526 Y56.107
X54.17 Y56.171
X54.812 Y56.25
X55.452 Y56.344
X56.09 Y56.452
X56.726 Y56.575
X56.991 Y56.635
X57.193 Y56.715
X57.363 Y56.85
X57.486 Y57.028
X57.551 Y57.235
X57.553 Y57.452
G3 X57.439 Y57.68 Z-0.888 I-0.317 J-0.016
G1 X57.414 Y57.703 Z-0.874
X57.274 Y57.849 Z-0.792
X57.126 Y58.004
G2 X57.5 Y58.507 I0.229 J0.22
G3 X57.774 Y58.398 I0.719 J1.409
X58.266 Y58.335 Z-0.995 I0.445 J1.518
G1 X58.354 Y58.34
X58.458 Y58.334
X58.502 Y58.328
X58.649 Y58.287
X58.722 Y58.256
X58.796 Y58.214
X58.835 Y58.187
X58.943 Y58.095
X59.059 Y57.996
X59.218 Y57.95
X59.413 Y57.911
X59.643 Y57.884
X59.934 Y57.872
X60.282 Y57.887
X60.733 Y57.942
X61.321 Y58.063
X61.943 Y58.243
X62.552 Y58.462
X63.151 Y58.707
X63.741 Y58.973
X64.322 Y59.258
X64.895 Y59.558
X65.461 Y59.873
X66.019 Y60.201
X66.568 Y60.543
X67.11 Y60.897
X67.644 Y61.263
X68.169 Y61.641
X68.686 Y62.031
X69.194 Y62.432
X69.693 Y62.844
X70.182 Y63.267
X70.663 Y63.701
X71.134 Y64.145
X71.595 Y64.599
X72.047 Y65.063
X72.488 Y65.536
X72.918 Y66.02
X73.338 Y66.512
X73.748 Y67.013
X74.146 Y67.523
X74.533 Y68.042
X74.909 Y68.569
X75.272 Y69.105
X75.624 Y69.648
X75.963 Y70.2
X76.289 Y70.759
X76.603 Y71.325
X76.903 Y71.898
X77.191 Y72.477
X77.466 Y73.063
X77.729 Y73.655
X77.978 Y74.252
X78.214 Y74.855
X78.405 Y75.377
X78.43 Y75.46
X78.445 Y75.545
X78.45 Y75.632
Y80.419
G3 X77.877 Y80.596 I-0.317 J-0.011
G1 X77.835 Y80.539 Z-0.987
X77.796 Y80.485 Z-0.964
X77.76 Y80.436 Z-0.926
X77.73 Y80.396 Z-0.876
X77.708 Y80.365 Z-0.815
X77.694 Y80.346 Z-0.748
X77.689 Y80.34 Z-0.678
G0 Z5.08
X58.528 Y59.109
Z-0.36
G1 Z-0.678 F1905
X58.53 Y59.102 Z-0.748
X58.535 Y59.079 Z-0.815
X58.543 Y59.042 Z-0.876
X58.553 Y58.993 Z-0.926
X58.565 Y58.934 Z-0.964
X58.579 Y58.868 Z-0.987
X58.594 Y58.799 Z-0.995
G3 X58.943 Y58.095 I1.548 J0.329
G1 X59.07 Y57.955
X59.432 Y57.554
X59.539 Y57.446
X59.667 Y57.364
X59.802 Y57.293
X59.953 Y57.23
X60.144 Y57.168
X60.358 Y57.116
X60.603 Y57.078
X60.912 Y57.055
X61.249 Y57.056
X61.676 Y57.093
X62.202 Y57.181
X62.83 Y57.339
X63.443 Y57.545
X64.045 Y57.784
X64.635 Y58.049
X65.216 Y58.335
X65.788 Y58.638
X66.351 Y58.957
X66.907 Y59.289
X67.454 Y59.635
X67.993 Y59.992
X68.524 Y60.362
X69.047 Y60.743
X69.562 Y61.135
X70.069 Y61.539
X70.566 Y61.952
X71.055 Y62.376
X71.535 Y62.811
X72.006 Y63.255
X72.467 Y63.709
X72.919 Y64.172
X73.361 Y64.645
X73.793 Y65.127
X74.215 Y65.618
X74.627 Y66.117
X75.028 Y66.625
X75.418 Y67.141
X75.798 Y67.666
X76.166 Y68.198
X76.522 Y68.738
X76.866 Y69.286
X77.198 Y69.842
X77.519 Y70.404
X77.827 Y70.973
X78.123 Y71.549
X78.376 Y72.067
X78.417 Y72.171
X78.442 Y72.281
X78.45 Y72.392
Y75.632
G3 X77.877 Y75.808 I-0.317 J-0.011
G1 X77.835 Y75.752 Z-0.987
X77.796 Y75.697 Z-0.964
X77.76 Y75.649 Z-0.926
X77.73 Y75.608 Z-0.876
X77.708 Y75.578 Z-0.815
X77.694 Y75.559 Z-0.748
X77.689 Y75.552 Z-0.678
G0 Z5.08
X59.03 Y58.574
Z-0.36
G1 Z-0.678 F1905
X59.031 Y58.566 Z-0.748
X59.036 Y58.543 Z-0.815
X59.043 Y58.506 Z-0.876
X59.053 Y58.457 Z-0.926
X59.065 Y58.398 Z-0.964
X59.078 Y58.332 Z-0.987
X59.092 Y58.262 Z-0.995
G3 X59.432 Y57.555 I1.552 J0.31
G1 X60.12 Y56.79
X60.227 Y56.682
X60.347 Y56.588
X60.475 Y56.506
X60.624 Y56.428
X60.786 Y56.359
X60.992 Y56.29
X61.219 Y56.234
X61.486 Y56.19
X61.812 Y56.164
X62.167
X62.602 Y56.198
X63.129 Y56.283
X63.757 Y56.437
X64.372 Y56.64
X64.973 Y56.879
X65.563 Y57.146
X66.143 Y57.434
X66.713 Y57.741
X67.274 Y58.063
X67.827 Y58.4
X68.371 Y58.749
X68.908 Y59.111
X69.437 Y59.484
X69.957 Y59.869
X70.47 Y60.264
X70.974 Y60.67
X71.47 Y61.085
X71.958 Y61.511
X72.437 Y61.947
X72.906 Y62.392
X73.367 Y62.846
X73.819 Y63.31
X74.261 Y63.782
X74.694 Y64.263
X75.117 Y64.753
X75.531 Y65.251
X75.934 Y65.757
X76.326 Y66.272
X76.709 Y66.794
X77.08 Y67.324
X77.44 Y67.862
X77.789 Y68.407
X78.126 Y68.96
X78.35 Y69.344
X78.405 Y69.462
X78.439 Y69.587
X78.45 Y69.717
Y72.392
G3 X77.877 Y72.569 I-0.317 J-0.011
G1 X77.835 Y72.512 Z-0.987
X77.796 Y72.458 Z-0.964
X77.76 Y72.409 Z-0.926
X77.73 Y72.369 Z-0.876
X77.708 Y72.338 Z-0.815
X77.694 Y72.319 Z-0.748
X77.689 Y72.313 Z-0.678
G0 Z5.08
X59.718 Y57.81
Z-0.36
G1 Z-0.678 F1905
X59.719 Y57.802 Z-0.748
X59.724 Y57.779 Z-0.815
X59.731 Y57.742 Z-0.876
X59.741 Y57.692 Z-0.926
X59.753 Y57.633 Z-0.964
X59.766 Y57.568 Z-0.987
X59.78 Y57.498 Z-0.995
G3 X60.12 Y56.79 I1.552 J0.31
G1 X60.924 Y55.897
X61.031 Y55.789
X61.151 Y55.694
X61.279 Y55.611
X61.434 Y55.529
X61.603 Y55.455
X61.806 Y55.385
X62.05 Y55.323
X62.315 Y55.277
X62.655 Y55.247
X63.007 Y55.244
X63.451 Y55.275
X63.97 Y55.354
X64.588 Y55.5
X65.203 Y55.699
X65.806 Y55.935
X66.396 Y56.201
X66.976 Y56.489
X67.545 Y56.797
X68.106 Y57.12
X68.658 Y57.458
X69.201 Y57.809
X69.737 Y58.173
X70.265 Y58.547
X70.785 Y58.933
X71.297 Y59.329
X71.801 Y59.735
X72.296 Y60.151
X72.784 Y60.577
X73.263 Y61.012
X73.734 Y61.456
X74.196 Y61.909
X74.649 Y62.371
X75.093 Y62.842
X75.528 Y63.321
X75.954 Y63.809
X76.37 Y64.305
X76.776 Y64.808
X77.173 Y65.32
X77.559 Y65.839
X77.935 Y66.366
X78.3 Y66.901
X78.33 Y66.946
X78.396 Y67.072
X78.437 Y67.209
X78.45 Y67.352
Y69.717
G3 X77.877 Y69.894 I-0.317 J-0.011
G1 X77.835 Y69.837 Z-0.987
X77.796 Y69.783 Z-0.964
X77.76 Y69.734 Z-0.926
X77.73 Y69.694 Z-0.876
X77.708 Y69.663 Z-0.815
X77.694 Y69.644 Z-0.748
X77.689 Y69.638 Z-0.678
G0 Z5.08
X60.522 Y56.916
Z-0.36
G1 Z-0.678 F1905
X60.524 Y56.909 Z-0.748
X60.528 Y56.886 Z-0.815
X60.536 Y56.848 Z-0.876
X60.545 Y56.799 Z-0.926
X60.557 Y56.74 Z-0.964
X60.57 Y56.674 Z-0.987
X60.584 Y56.605 Z-0.995
G3 X60.924 Y55.897 I1.552 J0.309
G1 X61.737 Y54.993
X61.845 Y54.885
X61.963 Y54.789
X62.09 Y54.704
X62.241 Y54.62
X62.412 Y54.543
X62.611 Y54.471
X62.855 Y54.405
X63.115 Y54.356
X63.451 Y54.321
X63.797 Y54.313
X64.236 Y54.338
X64.731 Y54.406
X65.327 Y54.538
X65.946 Y54.727
X66.551 Y54.957
X67.143 Y55.218
X67.724 Y55.503
X68.295 Y55.808
X68.856 Y56.131
X69.409 Y56.468
X69.953 Y56.818
X70.489 Y57.181
X71.017 Y57.555
X71.538 Y57.94
X72.05 Y58.335
X72.555 Y58.74
X73.052 Y59.155
X73.541 Y59.579
X74.021 Y60.013
X74.494 Y60.455
X74.958 Y60.906
X75.414 Y61.365
X75.861 Y61.833
X76.299 Y62.31
X76.728 Y62.794
X77.148 Y63.286
X77.559 Y63.787
X77.96 Y64.295
X78.3 Y64.742
X78.382 Y64.879
X78.433 Y65.031
X78.451 Y65.19
X78.45 Y67.352
G3 X77.877 Y67.528 I-0.317 J-0.011
G1 X77.835 Y67.471 Z-0.987
X77.796 Y67.417 Z-0.964
X77.76 Y67.369 Z-0.926
X77.73 Y67.328 Z-0.876
X77.708 Y67.298 Z-0.815
X77.694 Y67.279 Z-0.748
X77.689 Y67.272 Z-0.678
G0 Z5.08
X61.336 Y56.013
Z-0.36
G1 Z-0.678 F1905
X61.337 Y56.005 Z-0.748
X61.342 Y55.982 Z-0.815
X61.349 Y55.945 Z-0.876
X61.359 Y55.896 Z-0.926
X61.371 Y55.837 Z-0.964
X61.384 Y55.771 Z-0.987
X61.398 Y55.701 Z-0.995
G3 X61.738 Y54.994 I1.552 J0.31
G1 X62.569 Y54.07
X62.677 Y53.962
X62.794 Y53.865
X62.92 Y53.779
X63.074 Y53.693
X63.24 Y53.617
X63.444 Y53.542
X63.678 Y53.477
X63.945 Y53.426
X64.272 Y53.39
X64.622 Y53.38
X65.052 Y53.402
X65.559 Y53.469
X66.14 Y53.594
X66.76 Y53.78
X67.366 Y54.008
X67.959 Y54.268
X68.54 Y54.553
X69.111 Y54.858
X69.672 Y55.181
X70.224 Y55.518
X70.768 Y55.869
X71.303 Y56.233
X71.831 Y56.607
X72.351 Y56.993
X72.863 Y57.388
X73.368 Y57.793
X73.865 Y58.208
X74.354 Y58.632
X74.835 Y59.065
X75.309 Y59.506
X75.774 Y59.956
X76.231 Y60.414
X76.68 Y60.88
X77.12 Y61.355
X77.552 Y61.837
X77.975 Y62.327
X78.279 Y62.693
X78.373 Y62.837
X78.431 Y62.997
X78.451 Y63.167
Y65.19
G3 X77.876 Y65.367 I-0.318 J-0.011
G1 X77.835 Y65.31 Z-0.987
X77.796 Y65.255 Z-0.964
X77.76 Y65.207 Z-0.926
X77.73 Y65.166 Z-0.876
X77.708 Y65.136 Z-0.815
X77.694 Y65.117 Z-0.748
X77.689 Y65.111 Z-0.678
G0 Z5.08
X62.167 Y55.089
Z-0.36
G1 Z-0.678 F1905
X62.169 Y55.081 Z-0.748
X62.173 Y55.058 Z-0.815
X62.181 Y55.021 Z-0.876
X62.191 Y54.972 Z-0.926
X62.202 Y54.913 Z-0.964
X62.216 Y54.847 Z-0.987
X62.229 Y54.778 Z-0.995
G3 X62.569 Y54.07 I1.552 J0.309
G1 X63.436 Y53.107
X63.544 Y52.999
X63.664 Y52.905
X63.795 Y52.821
X63.955 Y52.736
X64.129 Y52.661
X64.35 Y52.586
X64.586 Y52.526
X64.877 Y52.477
X65.202 Y52.449
X65.59 Y52.446
X66.023 Y52.478
X66.55 Y52.56
X67.177 Y52.71
X67.792 Y52.91
X68.394 Y53.149
X68.983 Y53.417
X69.561 Y53.709
X70.128 Y54.02
X70.686 Y54.349
X71.235 Y54.692
X71.775 Y55.048
X72.307 Y55.416
X72.832 Y55.795
X73.349 Y56.185
X73.858 Y56.584
X74.36 Y56.993
X74.854 Y57.411
X75.341 Y57.837
X75.82 Y58.273
X76.291 Y58.716
X76.755 Y59.168
X77.21 Y59.628
X77.658 Y60.096
X78.097 Y60.571
X78.263 Y60.757
X78.365 Y60.905
X78.429 Y61.072
X78.451 Y61.25
Y63.167
G3 X77.877 Y63.344 I-0.318 J-0.011
G1 X77.835 Y63.287 Z-0.987
X77.796 Y63.233 Z-0.964
X77.76 Y63.184 Z-0.926
X77.73 Y63.144 Z-0.876
X77.708 Y63.113 Z-0.815
X77.694 Y63.094 Z-0.748
X77.689 Y63.088 Z-0.678
G0 Z5.08
X63.035 Y54.126
Z-0.36
G1 Z-0.678 F1905
X63.036 Y54.118 Z-0.748
X63.041 Y54.095 Z-0.815
X63.048 Y54.058 Z-0.876
X63.058 Y54.009 Z-0.926
X63.07 Y53.95 Z-0.964
X63.083 Y53.884 Z-0.987
X63.097 Y53.815 Z-0.995
G3 X63.437 Y53.107 I1.552 J0.309
G1 X64.238 Y52.216
X64.345 Y52.108
X64.462 Y52.01
X64.587 Y51.923
X64.728 Y51.84
X64.903 Y51.757
X65.09 Y51.686
X65.328 Y51.616
X65.584 Y51.563
X65.898 Y51.524
X66.254 Y51.509
X66.674 Y51.525
X67.143 Y51.58
X67.718 Y51.696
X68.341 Y51.873
X68.949 Y52.095
X69.544 Y52.35
X70.126 Y52.631
X70.698 Y52.934
X71.26 Y53.256
X71.813 Y53.593
X72.356 Y53.944
X72.892 Y54.307
X73.42 Y54.681
X73.94 Y55.067
X74.453 Y55.462
X74.958 Y55.866
X75.455 Y56.28
X75.946 Y56.703
X76.428 Y57.134
X76.904 Y57.573
X77.371 Y58.021
X77.831 Y58.476
X78.24 Y58.894
X78.354 Y59.046
X78.426 Y59.223
X78.451 Y59.412
Y61.25
G3 X77.877 Y61.427 I-0.318 J-0.011
G1 X77.835 Y61.37 Z-0.987
X77.796 Y61.316 Z-0.964
X77.76 Y61.267 Z-0.926
X77.73 Y61.227 Z-0.876
X77.708 Y61.196 Z-0.815
X77.694 Y61.177 Z-0.748
X77.689 Y61.171 Z-0.678
G0 Z5.08
X63.836 Y53.236
Z-0.36
G1 Z-0.678 F1905
X63.838 Y53.228 Z-0.748
X63.842 Y53.205 Z-0.815
X63.85 Y53.168 Z-0.876
X63.859 Y53.119 Z-0.926
X63.871 Y53.06 Z-0.964
X63.884 Y52.994 Z-0.987
X63.898 Y52.924 Z-0.995
G3 X64.238 Y52.216 I1.552 J0.31
G1 X65.085 Y51.276
X65.192 Y51.168
X65.309 Y51.07
X65.434 Y50.983
X65.584 Y50.898
X65.748 Y50.82
X65.956 Y50.742
X66.176 Y50.679
X66.45 Y50.624
X66.756 Y50.587
X67.12 Y50.573
X67.531 Y50.591
X68.029 Y50.652
X68.61 Y50.771
X69.231 Y50.952
X69.838 Y51.176
X70.432 Y51.434
X71.013 Y51.718
X71.584 Y52.024
X72.144 Y52.348
X72.696 Y52.687
X73.238 Y53.04
X73.773 Y53.405
X74.299 Y53.781
X74.818 Y54.168
X75.33 Y54.564
X75.834 Y54.97
X76.331 Y55.385
X76.821 Y55.808
X77.303 Y56.24
X77.778 Y56.679
X78.222 Y57.104
X78.346 Y57.259
X78.424 Y57.442
X78.451 Y57.639
Y59.412
G3 X78.122 Y59.718 Z-0.792 I-0.318 J-0.012
G1 X78.07 Y59.712
X78.02 Y59.697
X77.972 Y59.674
X77.896 Y59.629
X64.689 Y51.86
X64.65 Y51.845
X64.608 Y51.846
X64.568 Y51.861
X64.537 Y51.889
X64.517 Y51.926
X64.512 Y51.968
X64.522 Y52.009
X64.546 Y52.044
X64.581 Y52.068
X64.622 Y52.078
X64.664 Y52.074
X64.701 Y52.054
X64.729 Y52.023
X64.745 Y51.984
G3 X64.829 Y51.701 I1.552 J0.309
X65.084 Y51.276 Z-0.995 I1.468 J0.592
G1 X65.947 Y50.318
X66.055 Y50.21
X66.173 Y50.114
X66.302 Y50.03
X66.454 Y49.945
X66.624 Y49.869
X66.84 Y49.792
X67.068 Y49.73
X67.353 Y49.678
X67.669 Y49.646
X68.049 Y49.637
X68.469 Y49.662
X68.98 Y49.734
X69.581 Y49.868
X70.199 Y50.059
X70.804 Y50.291
X71.394 Y50.555
X71.973 Y50.845
X72.541 Y51.155
X73.099 Y51.483
X73.648 Y51.826
X74.188 Y52.182
X74.72 Y52.551
X75.245 Y52.93
X75.762 Y53.319
X76.272 Y53.718
X76.774 Y54.126
X77.269 Y54.543
X77.758 Y54.967
X78.205 Y55.37
X78.338 Y55.528
X78.422 Y55.717
X78.451 Y55.921
Y57.639
G3 X78.122 Y57.946 Z-0.792 I-0.318 J-0.011
G1 X78.07 Y57.939
X78.019 Y57.924
X77.971 Y57.901
X77.896 Y57.856
X66.196 Y50.895
X66.028 Y50.795
X65.986 Y50.765
G3 X65.947 Y50.318 Z-0.995 I0.204 J-0.243
G1 X66.806 Y49.364
X66.913 Y49.256
X67.034 Y49.163
X67.162 Y49.08
X67.323 Y48.994
X67.495 Y48.919
X67.71 Y48.845
X67.952 Y48.784
X68.235 Y48.735
X68.57 Y48.705
X68.944 Y48.702
X69.384 Y48.733
X69.91 Y48.813
X70.526 Y48.959
X71.141 Y49.158
X71.743 Y49.396
X72.332 Y49.665
X72.908 Y49.96
X73.474 Y50.274
X74.03 Y50.606
X74.577 Y50.952
X75.115 Y51.311
X75.645 Y51.682
X76.168 Y52.063
X76.684 Y52.455
X77.192 Y52.855
X77.693 Y53.265
X78.187 Y53.683
X78.211 Y53.704
X78.341 Y53.862
X78.423 Y54.048
X78.451 Y54.25
Y55.921
G3 X78.122 Y56.228 Z-0.792 I-0.318 J-0.011
G1 X78.072 Y56.221
X78.022 Y56.207
X77.976 Y56.185
X77.895 Y56.139
X67.057 Y49.938
X66.891 Y49.844
X66.845 Y49.811
G3 X66.806 Y49.364 Z-0.995 I0.204 J-0.243
G1 X67.6 Y48.482
X67.713 Y48.369
X67.829 Y48.269
X67.954 Y48.182
X68.095 Y48.099
X68.269 Y48.016
X68.455 Y47.944
X68.693 Y47.874
X68.947 Y47.821
X69.261 Y47.781
X69.612 Y47.765
X70.033 Y47.779
X70.494 Y47.832
X71.059 Y47.944
X71.682 Y48.12
X72.29 Y48.341
X72.885 Y48.597
X73.467 Y48.88
X74.037 Y49.185
X74.598 Y49.509
X75.149 Y49.848
X75.691 Y50.202
X76.225 Y50.567
X76.751 Y50.944
X77.27 Y51.331
X77.782 Y51.727
X78.174 Y52.043
X78.323 Y52.204
X78.418 Y52.403
X78.451 Y52.62
Y54.25
G3 X78.123 Y54.557 Z-0.792 I-0.318 J-0.011
G1 X78.074 Y54.551
X78.027 Y54.538
X77.983 Y54.519
X77.894 Y54.471
X67.853 Y49.052
X67.693 Y48.965
X67.639 Y48.929
G3 X67.6 Y48.482 Z-0.995 I0.205 J-0.243
G1 X68.454 Y47.533
X68.562 Y47.425
X68.678 Y47.327
X68.804 Y47.24
X68.952 Y47.155
X69.116 Y47.077
X69.324 Y46.999
X69.542 Y46.936
X69.817 Y46.88
X70.118 Y46.844
X70.483 Y46.829
X70.887 Y46.845
X71.38 Y46.905
X71.952 Y47.022
X72.574 Y47.201
X73.181 Y47.426
X73.774 Y47.685
X74.355 Y47.971
X74.924 Y48.278
X75.483 Y48.604
X76.033 Y48.945
X76.574 Y49.3
X77.107 Y49.668
X77.633 Y50.046
X78.151 Y50.434
X78.187 Y50.464
X78.329 Y50.624
X78.42 Y50.819
X78.451 Y51.031
Y52.62
G3 X78.123 Y52.927 Z-0.792 I-0.318 J-0.011
G1 X78.053 Y52.916
X77.988 Y52.891
X77.893 Y52.842
X68.709 Y48.101
X68.552 Y48.02
X68.493 Y47.98
G3 X68.454 Y47.533 Z-0.995 I0.205 J-0.243
G1 X69.321 Y46.57
X69.429 Y46.462
X69.548 Y46.367
X69.678 Y46.282
X69.829 Y46.199
X70.002 Y46.122
X70.218 Y46.045
X70.446 Y45.985
X70.736 Y45.932
X71.046 Y45.901
X71.432 Y45.894
X71.846 Y45.92
X72.354 Y45.992
X72.952 Y46.128
X73.57 Y46.321
X74.173 Y46.555
X74.763 Y46.821
X75.341 Y47.113
X75.907 Y47.426
X76.464 Y47.757
X77.011 Y48.103
X77.55 Y48.461
X78.08 Y48.832
X78.17 Y48.903
X78.321 Y49.065
X78.418 Y49.264
X78.451 Y49.484
Y51.031
G3 X78.123 Y51.338 Z-0.792 I-0.318 J-0.011
G1 X78.056 Y51.328
X77.992 Y51.304
X77.892 Y51.255
X69.577 Y47.135
X69.424 Y47.059
X69.391 Y47.04
X69.36 Y47.018
G3 X69.321 Y46.57 Z-0.995 I0.205 J-0.244
G1 X70.121 Y45.682
X70.24 Y45.563
X70.356 Y45.464
X70.481 Y45.376
X70.625 Y45.291
X70.792 Y45.211
X70.983 Y45.138
X71.221 Y45.068
X71.471 Y45.015
X71.793 Y44.975
X72.127 Y44.959
X72.554 Y44.974
X73.012 Y45.027
X73.569 Y45.137
X74.192 Y45.313
X74.8 Y45.535
X75.395 Y45.791
X75.976 Y46.075
X76.546 Y46.382
X77.106 Y46.706
X77.656 Y47.047
X78.139 Y47.365
X78.166 Y47.386
X78.319 Y47.549
X78.417 Y47.75
X78.451 Y47.97
Y49.484
G3 X78.123 Y49.791 Z-0.792 I-0.318 J-0.011
G1 X78.06 Y49.781
X78 Y49.761
X77.891 Y49.71
X70.379 Y46.243
X70.231 Y46.174
X70.194 Y46.154
X70.16 Y46.129
G3 X70.121 Y45.682 Z-0.995 I0.205 J-0.243
G1 X71.004 Y44.702
X71.111 Y44.594
X71.23 Y44.498
X71.361 Y44.412
X71.511 Y44.33
X71.686 Y44.252
X71.898 Y44.177
X72.127 Y44.116
X72.418 Y44.063
X72.72 Y44.033
X73.11 Y44.025
X73.517 Y44.05
X74.021 Y44.122
X74.617 Y44.256
X75.235 Y44.449
X75.838 Y44.683
X76.428 Y44.949
X77.006 Y45.241
X77.572 Y45.554
X78.04 Y45.834
X78.14 Y45.905
X78.307 Y46.069
X78.414 Y46.277
X78.451 Y46.508
Y47.97
G3 X78.123 Y48.277 Z-0.792 I-0.318 J-0.011
G1 X78.062 Y48.269
X78.005 Y48.249
X77.89 Y48.199
X71.262 Y45.26
X71.118 Y45.196
X71.079 Y45.175
X71.043 Y45.149
G3 X71.004 Y44.702 Z-0.995 I0.204 J-0.243
G1 X71.837 Y43.777
X71.945 Y43.669
X72.063 Y43.572
X72.189 Y43.487
X72.343 Y43.401
X72.51 Y43.325
X72.712 Y43.252
X72.95 Y43.186
X73.215 Y43.136
X73.545 Y43.1
X73.893 Y43.091
X74.324 Y43.114
X74.821 Y43.181
X75.391 Y43.305
X76.01 Y43.493
X76.615 Y43.724
X77.206 Y43.988
X77.784 Y44.278
X78.139 Y44.49
X78.306 Y44.655
X78.414 Y44.863
X78.451 Y45.094
Y46.508
G3 X78.123 Y46.815 Z-0.792 I-0.318 J-0.011
G1 X78.066 Y46.808
X78.012 Y46.791
X77.889 Y46.74
X72.097 Y44.332
X71.958 Y44.274
X71.915 Y44.252
X71.876 Y44.224
G3 X71.837 Y43.777 Z-0.995 I0.204 J-0.243
G1 X72.704 Y42.813
X72.812 Y42.705
X72.933 Y42.612
X73.065 Y42.529
X73.225 Y42.444
X73.4 Y42.369
X73.622 Y42.295
X73.858 Y42.236
X74.15 Y42.188
X74.472 Y42.161
X74.862 Y42.16
X75.289 Y42.193
X75.811 Y42.276
X76.425 Y42.425
X77.04 Y42.628
X77.636 Y42.869
X77.974 Y43.038
X78.094 Y43.111
X78.242 Y43.229
X78.355 Y43.381
X78.427 Y43.557
X78.451 Y43.745
Y45.094
G3 X78.123 Y45.401 Z-0.792 I-0.318 J-0.011
G1 X78.068 Y45.394
X78.016 Y45.378
X77.888 Y45.327
X72.965 Y43.366
X72.83 Y43.312
X72.785 Y43.29
X72.743 Y43.261
G3 X72.703 Y42.813 Z-0.995 I0.205 J-0.244
G1 X73.504 Y41.925
X73.612 Y41.817
X73.728 Y41.719
X73.854 Y41.632
X73.996 Y41.551
X74.17 Y41.468
X74.358 Y41.397
X74.596 Y41.329
X74.851 Y41.277
X75.165 Y41.239
X75.517 Y41.225
X75.937 Y41.242
X76.398 Y41.298
X76.935 Y41.408
X77.428 Y41.55
X77.775 Y41.682
X78.024 Y41.8
X78.08 Y41.832
X78.233 Y41.95
X78.351 Y42.103
X78.426 Y42.282
X78.451 Y42.474
G3 X78.123 Y42.78 Z-0.792 I-0.317 J-0.011
G1 X78.109 Y42.779
X77.876 Y42.762
X73.773 Y42.449
X73.723 Y42.446
X73.659 Y42.434
X73.598 Y42.409
X73.543 Y42.372
G3 X73.504 Y41.925 Z-0.995 I0.204 J-0.243
G1 X74.353 Y40.983
X74.46 Y40.875
X74.578 Y40.778
X74.704 Y40.692
X74.854 Y40.607
X75.02 Y40.531
X75.23 Y40.454
X75.45 Y40.392
X75.728 Y40.338
X76.025 Y40.305
X76.385 Y40.293
X76.755 Y40.312
X77.136 Y40.361
X77.464 Y40.431
X77.744 Y40.515
X77.96 Y40.599
X78.033 Y40.634
X78.205 Y40.749
X78.338 Y40.907
X78.422 Y41.096
X78.451 Y41.301
G3 X78.124 Y41.606 Z-0.793 I-0.317 J-0.012
G1 X78.123 Y41.607 Z-0.792
X77.876 Y41.6
X74.621 Y41.505
X74.587 Y41.504
X74.517 Y41.494
X74.451 Y41.469
X74.392 Y41.43
G3 X74.353 Y40.983 Z-0.995 I0.204 J-0.243
G1 X75.214 Y40.026
X75.322 Y39.918
X75.442 Y39.824
X75.572 Y39.739
X75.721 Y39.659
X75.894 Y39.584
X76.094 Y39.515
X76.319 Y39.457
X76.559 Y39.415
X76.824 Y39.391
X77.099 Y39.388
X77.345 Y39.405
X77.581 Y39.441
X77.6 Y39.446
X77.749 Y39.498
X77.884 Y39.581
X77.998 Y39.69
G3 X77.944 Y40.136 Z-0.792 I-0.25 J0.196
G1 X77.898 Y40.166
X77.848 Y40.187
X77.795 Y40.2
X77.713 Y40.212
X75.505 Y40.544
G3 X75.253 Y40.473 I-0.047 J-0.314
X75.214 Y40.026 Z-0.995 I0.205 J-0.243
G1 X75.416 Y39.801
X75.563 Y39.644
X75.711 Y39.512
X75.858 Y39.407
X75.927 Y39.365
X76.005 Y39.324
X76.152 Y39.261
X76.299 Y39.21
X76.372 Y39.189
X76.593 Y39.154
X76.74 Y39.145
X76.887 Y39.149
X77.034 Y39.167
X77.181 Y39.198
X77.259 Y39.218
X77.328 Y39.243
X77.476 Y39.303
X77.596 Y39.365
X77.623 Y39.381
X77.77 Y39.479
X77.816 Y39.512
X77.917 Y39.6
X77.972 Y39.659
X78.095 Y39.806
X78.201 Y39.953
X78.211 Y39.97
X78.282 Y40.1
X78.344 Y40.247
X78.358 Y40.286
X78.391 Y40.395
X78.424 Y40.542
X78.442 Y40.689
X78.45 Y41.13
X78.451 Y42.012
Y43.745
G3 X77.878 Y43.921 I-0.317 J-0.011
G1 X77.836 Y43.865 Z-0.987
X77.796 Y43.81 Z-0.964
X77.76 Y43.762 Z-0.926
X77.731 Y43.721 Z-0.876
X77.708 Y43.691 Z-0.815
X77.694 Y43.672 Z-0.748
X77.69 Y43.666 Z-0.678
G0 Z5.08
X25.869 Y94.177
Z-0.36
G1 Z-0.678 F1905
X25.862 Y94.179 Z-0.748
X25.839 Y94.186 Z-0.815
X25.803 Y94.196 Z-0.876
X25.754 Y94.21 Z-0.926
X25.696 Y94.226 Z-0.964
X25.632 Y94.244 Z-0.987
X25.564 Y94.263 Z-0.995
G3 X24.779 Y94.282 I-0.43 J-1.523
G1 X24.746 Y94.273
X24.672 Y94.261
X24.525 Y94.256
X24.451 Y94.264
X24.378 Y94.279
X24.304 Y94.302
X24.158 Y94.346
X24.01 Y94.313
X23.866 Y94.263
X23.727 Y94.199
X23.588 Y94.121
X23.427 Y94.012
X23.256 Y93.876
X23.08 Y93.712
X22.876 Y93.487
X22.68 Y93.233
X22.455 Y92.887
X22.223 Y92.459
X21.97 Y91.889
X21.757 Y91.278
X21.581 Y90.655
X21.434 Y90.025
X21.311 Y89.389
X21.207 Y88.75
X21.122 Y88.109
X21.052 Y87.465
X20.998 Y86.82
X20.959 Y86.174
X20.935 Y85.528
X20.925 Y84.881
X20.929 Y84.233
X20.948 Y83.586
X20.981 Y82.94
X21.028 Y82.294
X21.089 Y81.65
X21.164 Y81.007
X21.253 Y80.366
X21.356 Y79.727
X21.472 Y79.091
X21.603 Y78.457
X21.747 Y77.826
X21.905 Y77.198
X22.075 Y76.574
X22.26 Y75.953
X22.457 Y75.337
X22.667 Y74.725
X22.89 Y74.117
X23.127 Y73.515
X23.375 Y72.917
X23.637 Y72.325
X23.912 Y71.739
X24.199 Y71.159
X24.498 Y70.585
X24.81 Y70.018
X25.135 Y69.458
X25.471 Y68.905
X25.819 Y68.36
X26.179 Y67.822
X26.551 Y67.292
X26.934 Y66.771
X27.329 Y66.257
X27.734 Y65.753
X28.15 Y65.257
X28.577 Y64.771
X29.015 Y64.294
X29.462 Y63.826
X29.919 Y63.368
X30.386 Y62.92
X30.862 Y62.481
X31.348 Y62.053
X31.842 Y61.635
X32.345 Y61.228
X32.857 Y60.832
X33.377 Y60.447
X33.905 Y60.073
X34.441 Y59.71
X34.985 Y59.36
X35.537 Y59.021
X36.096 Y58.694
X36.661 Y58.38
X37.234 Y58.078
X37.812 Y57.788
X38.397 Y57.511
X38.988 Y57.247
X39.585 Y56.996
X40.186 Y56.757
X40.793 Y56.532
X41.405 Y56.32
X42.021 Y56.121
X42.641 Y55.936
X43.265 Y55.763
X43.892 Y55.604
X44.522 Y55.458
X45.156 Y55.326
X45.792 Y55.207
X46.431 Y55.102
X47.071 Y55.01
X47.714 Y54.932
X48.358 Y54.867
X49.003 Y54.817
X49.649 Y54.781
X50.296 Y54.758
X50.943 Y54.75
X51.591 Y54.756
X52.238 Y54.775
X52.884 Y54.809
X53.529 Y54.857
X54.174 Y54.919
X54.816 Y54.994
X55.457 Y55.084
X56.096 Y55.187
X56.534 Y55.281
X56.82 Y55.367
X57.06 Y55.46
X57.351 Y55.601
X57.416 Y55.62
X57.599 Y55.702
X57.753 Y55.83
X57.867 Y55.995
X57.933 Y56.185
X57.946 Y56.385
X57.904 Y56.581
G3 X57.305 Y56.554 I-0.295 J-0.118
G1 X57.285 Y56.486 Z-0.987
X57.266 Y56.422 Z-0.964
X57.249 Y56.364 Z-0.926
X57.234 Y56.316 Z-0.876
X57.223 Y56.28 Z-0.815
X57.217 Y56.257 Z-0.748
X57.214 Y56.249 Z-0.678
G0 Z5.08
X25.235 Y93.713
Z-0.36
G1 Z-0.678 F1905
X25.229 Y93.718 Z-0.748
X25.21 Y93.732 Z-0.815
X25.18 Y93.755 Z-0.876
X25.14 Y93.785 Z-0.926
X25.091 Y93.821 Z-0.964
X25.038 Y93.861 Z-0.987
X24.981 Y93.903 Z-0.995
G3 X24.304 Y94.302 I-2.179 J-2.923
G1 X24.231 Y94.332
X24.174 Y94.36
X24.084 Y94.42
X23.986 Y94.507
X23.911 Y94.59
X23.884 Y94.617
X23.735 Y94.648
X23.583 Y94.658
X23.431 Y94.649
X23.281 Y94.624
X23.133 Y94.587
X22.971 Y94.531
X22.806 Y94.459
X22.622 Y94.359
X22.432 Y94.237
X22.224 Y94.078
X22.012 Y93.886
X21.782 Y93.642
X21.546 Y93.348
X21.292 Y92.973
X21.046 Y92.538
X20.78 Y91.965
X20.555 Y91.358
X20.369 Y90.738
X20.214 Y90.109
X20.085 Y89.475
X19.977 Y88.837
X19.888 Y88.196
X19.816 Y87.553
X19.76 Y86.908
X19.719 Y86.262
X19.692 Y85.615
X19.68 Y84.968
X19.682 Y84.321
X19.698 Y83.674
X19.727 Y83.028
X19.77 Y82.382
X19.826 Y81.737
X19.896 Y81.094
X19.98 Y80.452
X20.077 Y79.812
X20.188 Y79.174
X20.311 Y78.539
X20.448 Y77.906
X20.598 Y77.277
X20.76 Y76.65
X20.936 Y76.027
X21.124 Y75.408
X21.325 Y74.793
X21.538 Y74.181
X21.763 Y73.575
X22.001 Y72.973
X22.252 Y72.376
X22.514 Y71.785
X22.789 Y71.198
X23.076 Y70.618
X23.375 Y70.044
X23.685 Y69.476
X24.008 Y68.915
X24.342 Y68.361
X24.687 Y67.814
X25.044 Y67.274
X25.412 Y66.741
X25.792 Y66.217
X26.182 Y65.7
X26.583 Y65.192
X26.994 Y64.693
X27.416 Y64.202
X27.847 Y63.72
X28.289 Y63.246
X28.74 Y62.782
X29.201 Y62.328
X29.67 Y61.882
X30.149 Y61.447
X30.637 Y61.021
X31.133 Y60.605
X31.637 Y60.2
X32.15 Y59.805
X32.67 Y59.42
X33.199 Y59.046
X33.735 Y58.684
X34.278 Y58.332
X34.829 Y57.992
X35.387 Y57.664
X35.951 Y57.347
X36.522 Y57.042
X37.099 Y56.749
X37.682 Y56.468
X38.271 Y56.2
X38.865 Y55.943
X39.465 Y55.7
X40.07 Y55.469
X40.679 Y55.25
X41.292 Y55.044
X41.91 Y54.851
X42.532 Y54.671
X43.157 Y54.503
X43.785 Y54.348
X44.417 Y54.206
X45.051 Y54.077
X45.687 Y53.96
X46.326 Y53.857
X46.967 Y53.767
X47.61 Y53.689
X48.254 Y53.626
X48.899 Y53.575
X49.545 Y53.538
X50.192 Y53.514
X50.839 Y53.504
X51.486 Y53.507
X52.133 Y53.524
X52.78 Y53.554
X53.426 Y53.597
X54.07 Y53.654
X54.714 Y53.725
X55.356 Y53.809
X55.994 Y53.913
X56.624 Y54.061
X57.085 Y54.209
X57.393 Y54.335
X57.61 Y54.446
X57.685 Y54.492
X57.832 Y54.61
X57.944 Y54.762
X58.015 Y54.936
X58.038 Y55.123
G3 X57.465 Y55.3 I-0.317 J-0.011
G1 X57.423 Y55.243 Z-0.987
X57.384 Y55.189 Z-0.964
X57.348 Y55.14 Z-0.926
X57.318 Y55.1 Z-0.876
X57.296 Y55.069 Z-0.815
X57.282 Y55.05 Z-0.748
X57.277 Y55.044 Z-0.678
G0 Z5.08
X24.315 Y93.571
Z-0.36
G1 Z-0.678 F1905
X24.313 Y93.579 Z-0.748
X24.308 Y93.602 Z-0.815
X24.301 Y93.639 Z-0.876
X24.291 Y93.688 Z-0.926
X24.279 Y93.747 Z-0.964
X24.266 Y93.813 Z-0.987
X24.252 Y93.882 Z-0.995
G3 X23.911 Y94.59 I-1.552 J-0.311
G1 X23.537 Y95.005
X23.429 Y95.113
X23.283 Y95.154
X23.132 Y95.178
X22.98 Y95.187
X22.826 Y95.183
X22.666 Y95.165
X22.484 Y95.13
X22.301 Y95.079
X22.093 Y95.003
X21.883 Y94.906
X21.656 Y94.778
X21.413 Y94.615
X21.168 Y94.42
X20.897 Y94.166
X20.64 Y93.883
X20.357 Y93.517
X20.067 Y93.071
X19.788 Y92.555
X19.526 Y91.963
X19.308 Y91.354
X19.124 Y90.733
X18.97 Y90.105
X18.84 Y89.471
X18.732 Y88.833
X18.643 Y88.192
X18.571 Y87.548
X18.515 Y86.904
X18.474 Y86.258
X18.448 Y85.611
X18.435 Y84.964
X18.436 Y84.317
X18.451 Y83.67
X18.479 Y83.023
X18.52 Y82.377
X18.574 Y81.732
X18.641 Y81.088
X18.722 Y80.446
X18.815 Y79.806
X18.921 Y79.167
X19.04 Y78.531
X19.171 Y77.897
X19.316 Y77.266
X19.472 Y76.638
X19.641 Y76.014
X19.823 Y75.392
X20.016 Y74.775
X20.222 Y74.161
X20.44 Y73.552
X20.669 Y72.946
X20.911 Y72.346
X21.164 Y71.75
X21.429 Y71.16
X21.706 Y70.575
X21.994 Y69.995
X22.294 Y69.422
X22.605 Y68.854
X22.927 Y68.293
X23.261 Y67.738
X23.605 Y67.19
X23.961 Y66.65
X24.327 Y66.116
X24.704 Y65.59
X25.092 Y65.072
X25.49 Y64.561
X25.897 Y64.059
X26.316 Y63.565
X26.743 Y63.079
X27.181 Y62.602
X27.628 Y62.134
X28.084 Y61.674
X28.549 Y61.224
X29.022 Y60.783
X29.504 Y60.351
X29.995 Y59.929
X30.494 Y59.517
X31 Y59.114
X31.515 Y58.721
X32.037 Y58.339
X32.567 Y57.967
X33.104 Y57.606
X33.648 Y57.256
X34.199 Y56.916
X34.757 Y56.588
X35.321 Y56.27
X35.891 Y55.965
X36.468 Y55.67
X37.05 Y55.387
X37.638 Y55.116
X38.231 Y54.857
X38.829 Y54.61
X39.432 Y54.375
X40.04 Y54.152
X40.651 Y53.941
X41.268 Y53.743
X41.887 Y53.556
X42.511 Y53.382
X43.137 Y53.221
X43.767 Y53.071
X44.4 Y52.934
X45.035 Y52.81
X45.672 Y52.698
X46.312 Y52.598
X46.953 Y52.511
X47.596 Y52.437
X48.24 Y52.375
X48.886 Y52.326
X49.532 Y52.29
X50.179 Y52.267
X50.826 Y52.257
X51.473 Y52.26
X52.12 Y52.275
X52.767 Y52.304
X53.413 Y52.345
X54.058 Y52.4
X54.701 Y52.467
X55.343 Y52.551
X55.981 Y52.661
X56.612 Y52.804
X57.094 Y52.953
X57.425 Y53.086
X57.659 Y53.202
X57.679 Y53.214
X57.828 Y53.332
X57.942 Y53.484
X58.014 Y53.66
X58.038 Y53.849
Y55.123
G3 X57.465 Y55.3 I-0.317 J-0.011
G1 X57.423 Y55.243 Z-0.987
X57.384 Y55.189 Z-0.964
X57.348 Y55.14 Z-0.926
X57.318 Y55.1 Z-0.876
X57.296 Y55.069 Z-0.815
X57.282 Y55.05 Z-0.748
X57.277 Y55.044 Z-0.678
G0 Z5.08
X23.939 Y93.985
Z-0.36
G1 Z-0.678 F1905
X23.937 Y93.993 Z-0.748
X23.933 Y94.016 Z-0.815
X23.925 Y94.053 Z-0.876
X23.915 Y94.103 Z-0.926
X23.904 Y94.162 Z-0.964
X23.891 Y94.227 Z-0.987
X23.877 Y94.297 Z-0.995
G3 X23.537 Y95.005 I-1.552 J-0.309
G1 X23.118 Y95.47
X23.01 Y95.578
X22.875 Y95.649
X22.732 Y95.701
X22.584 Y95.738
X22.434 Y95.761
X22.279 Y95.771
X22.105 Y95.768
X21.923 Y95.75
X21.716 Y95.712
X21.507 Y95.657
X21.269 Y95.573
X21.026 Y95.465
X20.77 Y95.325
X20.487 Y95.14
X20.213 Y94.927
X19.911 Y94.651
X19.594 Y94.311
X19.297 Y93.935
X18.98 Y93.462
X18.665 Y92.897
X18.396 Y92.308
X18.166 Y91.703
X17.97 Y91.086
X17.804 Y90.461
X17.662 Y89.829
X17.543 Y89.193
X17.444 Y88.553
X17.363 Y87.911
X17.299 Y87.267
X17.25 Y86.622
X17.215 Y85.975
X17.195 Y85.329
X17.188 Y84.681
X17.194 Y84.034
X17.214 Y83.387
X17.246 Y82.741
X17.291 Y82.095
X17.348 Y81.451
X17.418 Y80.807
X17.501 Y80.165
X17.596 Y79.525
X17.704 Y78.887
X17.823 Y78.251
X17.955 Y77.617
X18.1 Y76.986
X18.256 Y76.358
X18.424 Y75.733
X18.604 Y75.111
X18.795 Y74.493
X18.999 Y73.879
X19.214 Y73.268
X19.44 Y72.662
X19.678 Y72.06
X19.927 Y71.463
X20.188 Y70.87
X20.46 Y70.283
X20.743 Y69.701
X21.038 Y69.125
X21.344 Y68.554
X21.66 Y67.99
X21.987 Y67.431
X22.325 Y66.879
X22.673 Y66.334
X23.032 Y65.795
X23.402 Y65.264
X23.781 Y64.739
X24.171 Y64.222
X24.57 Y63.713
X24.979 Y63.212
X25.398 Y62.718
X25.826 Y62.233
X26.264 Y61.756
X26.71 Y61.287
X27.165 Y60.827
X27.629 Y60.376
X28.101 Y59.933
X28.582 Y59.5
X29.071 Y59.075
X29.567 Y58.66
X30.072 Y58.255
X30.584 Y57.859
X31.103 Y57.473
X31.63 Y57.097
X32.164 Y56.731
X32.705 Y56.376
X33.253 Y56.031
X33.807 Y55.697
X34.367 Y55.373
X34.934 Y55.06
X35.506 Y54.758
X36.085 Y54.468
X36.668 Y54.188
X37.257 Y53.92
X37.851 Y53.663
X38.45 Y53.418
X39.054 Y53.184
X39.662 Y52.962
X40.274 Y52.752
X40.89 Y52.553
X41.51 Y52.367
X42.133 Y52.192
X42.759 Y52.028
X43.389 Y51.877
X44.021 Y51.738
X44.655 Y51.61
X45.292 Y51.495
X45.931 Y51.392
X46.572 Y51.301
X47.214 Y51.222
X47.858 Y51.155
X48.503 Y51.101
X49.149 Y51.059
X49.795 Y51.03
X50.442 Y51.013
X51.089 Y51.008
X51.737 Y51.016
X52.383 Y51.036
X53.03 Y51.069
X53.676 Y51.114
X54.32 Y51.173
X54.963 Y51.247
X55.603 Y51.342
X56.239 Y51.463
X56.867 Y51.622
X57.243 Y51.749
X57.53 Y51.873
X57.645 Y51.934
X57.807 Y52.051
X57.932 Y52.207
X58.011 Y52.39
X58.038 Y52.589
Y53.849
G3 X57.465 Y54.026 I-0.317 J-0.011
G1 X57.423 Y53.969 Z-0.987
X57.384 Y53.915 Z-0.964
X57.348 Y53.866 Z-0.926
X57.318 Y53.826 Z-0.876
X57.296 Y53.795 Z-0.815
X57.282 Y53.776 Z-0.748
X57.277 Y53.77 Z-0.678
G0 Z5.08
X23.52 Y94.451
Z-0.36
G1 Z-0.678 F1905
X23.518 Y94.459 Z-0.748
X23.514 Y94.482 Z-0.815
X23.506 Y94.519 Z-0.876
X23.496 Y94.568 Z-0.926
X23.485 Y94.627 Z-0.964
X23.471 Y94.693 Z-0.987
X23.458 Y94.762 Z-0.995
G3 X23.118 Y95.47 I-1.552 J-0.309
G1 X22.613 Y96.031
X22.505 Y96.139
X22.378 Y96.224
X22.242 Y96.291
X22.099 Y96.344
X21.951 Y96.382
X21.793 Y96.409
X21.625 Y96.424
X21.437 Y96.425
X21.232 Y96.41
X21.012 Y96.376
X20.766 Y96.318
X20.519 Y96.238
X20.242 Y96.122
X19.95 Y95.972
X19.65 Y95.786
X19.325 Y95.547
X18.992 Y95.258
X18.663 Y94.922
X18.31 Y94.498
X17.957 Y93.997
X17.627 Y93.44
X17.341 Y92.859
X17.092 Y92.262
X16.878 Y91.651
X16.693 Y91.031
X16.535 Y90.403
X16.399 Y89.77
X16.285 Y89.133
X16.189 Y88.493
X16.111 Y87.851
X16.048 Y87.206
X16.001 Y86.561
X15.968 Y85.915
X15.948 Y85.268
X15.942 Y84.62
X15.948 Y83.973
X15.968 Y83.326
X16 Y82.68
X16.044 Y82.034
X16.1 Y81.389
X16.169 Y80.746
X16.249 Y80.104
X16.342 Y79.463
X16.446 Y78.824
X16.563 Y78.188
X16.691 Y77.553
X16.831 Y76.921
X16.983 Y76.292
X17.146 Y75.666
X17.321 Y75.043
X17.507 Y74.423
X17.705 Y73.807
X17.914 Y73.194
X18.133 Y72.585
X18.364 Y71.981
X18.607 Y71.381
X18.86 Y70.785
X19.124 Y70.194
X19.399 Y69.608
X19.685 Y69.027
X19.981 Y68.452
X20.288 Y67.882
X20.606 Y67.318
X20.934 Y66.76
X21.272 Y66.209
X21.62 Y65.663
X21.979 Y65.124
X22.347 Y64.592
X22.725 Y64.067
X23.113 Y63.549
X23.511 Y63.038
X23.918 Y62.535
X24.334 Y62.039
X24.759 Y61.551
X25.194 Y61.071
X25.637 Y60.6
X26.089 Y60.136
X26.549 Y59.681
X27.017 Y59.235
X27.494 Y58.797
X27.978 Y58.367
X28.47 Y57.947
X28.97 Y57.536
X29.477 Y57.134
X29.992 Y56.741
X30.514 Y56.358
X31.042 Y55.985
X31.578 Y55.622
X32.12 Y55.268
X32.669 Y54.925
X33.223 Y54.591
X33.784 Y54.268
X34.351 Y53.956
X34.924 Y53.654
X35.502 Y53.363
X36.085 Y53.082
X36.673 Y52.813
X37.267 Y52.554
X37.865 Y52.307
X38.467 Y52.07
X39.074 Y51.845
X39.685 Y51.631
X40.3 Y51.429
X40.918 Y51.238
X41.54 Y51.058
X42.165 Y50.89
X42.793 Y50.734
X43.424 Y50.588
X44.057 Y50.455
X44.692 Y50.333
X45.33 Y50.222
X45.97 Y50.123
X46.611 Y50.036
X47.254 Y49.961
X47.898 Y49.898
X48.543 Y49.846
X49.189 Y49.807
X49.836 Y49.779
X50.483 Y49.764
X51.13 Y49.76
X51.777 Y49.768
X52.424 Y49.788
X53.071 Y49.821
X53.716 Y49.866
X54.361 Y49.925
X55.004 Y50
X55.644 Y50.095
X56.279 Y50.217
X56.875 Y50.367
X57.257 Y50.497
X57.525 Y50.612
X57.645 Y50.676
X57.807 Y50.792
X57.932 Y50.948
X58.011 Y51.132
X58.038 Y51.33
Y52.589
G3 X57.466 Y52.765 I-0.317 J-0.012
G1 X57.423 Y52.708 Z-0.987
X57.384 Y52.654 Z-0.964
X57.348 Y52.606 Z-0.926
X57.318 Y52.565 Z-0.876
X57.296 Y52.535 Z-0.815
X57.282 Y52.516 Z-0.748
X57.277 Y52.509 Z-0.678
G0 Z5.08
X23.015 Y95.012
Z-0.36
G1 Z-0.678 F1905
X23.013 Y95.02 Z-0.748
X23.008 Y95.043 Z-0.815
X23.001 Y95.08 Z-0.876
X22.991 Y95.129 Z-0.926
X22.979 Y95.188 Z-0.964
X22.966 Y95.254 Z-0.987
X22.953 Y95.323 Z-0.995
G3 X22.613 Y96.032 I-1.553 J-0.309
G1 X22.024 Y96.685
X21.917 Y96.793
X21.793 Y96.881
X21.659 Y96.954
X21.519 Y97.013
X21.373 Y97.059
X21.219 Y97.093
X21.041 Y97.119
X20.85 Y97.13
X20.636 Y97.126
X20.401 Y97.103
X20.156 Y97.058
X19.875 Y96.983
X19.592 Y96.883
X19.282 Y96.743
X18.943 Y96.558
X18.612 Y96.34
X18.252 Y96.059
X17.866 Y95.705
X17.486 Y95.295
X17.111 Y94.819
X16.753 Y94.281
X16.436 Y93.717
X16.156 Y93.133
X15.909 Y92.534
X15.694 Y91.924
X15.506 Y91.305
X15.343 Y90.679
X15.202 Y90.047
X15.081 Y89.411
X14.979 Y88.772
X14.895 Y88.13
